<?xml version="1.0" encoding="UTF-8"?>
<map version="1.10" tiledversion="1.11.2" orientation="orthogonal" renderorder="right-down" width="37" height="135" tilewidth="64" tileheight="64" infinite="1" nextlayerid="23" nextobjectid="1">
 <tileset firstgid="1" source="TS_LEVEL.64x64.tsx"/>
 <layer id="19" name="Background" width="37" height="135">
  <data encoding="csv">
   <chunk x="192" y="-16" width="16" height="16">
0,0,0,0,0,0,0,0,0,0,0,0,0,0,0,0,
0,0,0,0,0,0,0,0,0,0,0,0,0,0,0,0,
0,0,0,0,0,0,0,0,0,0,0,0,0,0,0,0,
0,0,0,0,0,0,0,0,0,0,0,0,0,0,0,0,
0,0,0,0,0,0,0,0,0,0,0,0,0,0,0,0,
0,0,0,0,0,0,0,0,0,0,0,0,0,0,0,0,
0,0,0,0,0,0,0,0,0,0,0,0,0,0,0,0,
0,0,0,0,0,0,0,0,0,0,0,0,0,0,0,0,
0,0,0,0,0,0,0,0,0,0,0,0,0,0,0,0,
0,0,0,0,0,0,0,0,0,0,0,0,0,0,0,0,
0,0,0,0,0,0,0,0,0,0,0,0,0,0,0,0,
0,0,0,0,0,0,0,0,0,0,0,0,0,0,0,0,
0,0,0,0,0,0,0,0,0,0,0,0,0,0,0,0,
0,0,0,0,0,0,0,0,0,0,0,0,0,0,0,0,
0,0,0,0,0,0,0,0,0,0,0,0,0,0,0,0,
0,0,0,0,0,22,22,0,0,0,0,0,0,0,0,0
</chunk>
   <chunk x="-16" y="0" width="16" height="16">
0,0,0,0,133,133,136,136,136,136,136,136,136,133,133,0,
0,0,0,0,149,149,152,152,152,152,152,152,152,149,149,0,
0,0,0,0,149,133,152,136,136,136,136,136,136,133,149,0,
0,0,0,0,133,149,152,152,152,152,152,152,152,149,133,0,
0,0,0,0,149,3221225592,2684354709,2684354693,2684354709,2684354693,2684354709,2684354693,2684354693,3221225589,149,0,
0,0,0,0,1610612853,2684354709,2684354709,2684354709,2684354709,2684354709,2684354709,2684354709,2684354709,2684354693,2684354680,0,
0,0,0,0,117,118,118,118,118,118,118,118,118,118,151,0,
0,0,0,0,133,117,2684354709,2684354709,2684354709,2684354709,118,2684354709,2684354709,120,133,0,
0,0,0,0,149,133,150,151,117,2684354709,2684354709,2684354693,120,133,149,0,
0,0,117,118,166,149,133,133,133,0,0,0,133,149,133,117,
230,0,133,0,133,133,133,133,149,136,136,136,149,133,133,3221225605,
0,0,133,0,149,149,149,149,149,152,152,152,149,149,149,3221225605,
0,0,0,0,0,0,0,0,0,0,0,0,0,0,0,0,
0,0,0,0,0,0,0,0,0,0,0,0,0,0,0,0,
0,0,0,0,0,0,0,0,0,0,0,0,0,0,0,0,
0,0,0,0,0,0,0,0,0,0,0,0,0,0,0,0
</chunk>
   <chunk x="0" y="0" width="16" height="16">
0,0,0,0,0,0,0,0,0,0,0,0,0,133,133,133,
0,0,0,0,0,0,0,0,0,0,117,1610612869,1610612869,3221225589,149,133,
0,0,0,0,0,0,0,0,0,0,149,0,0,0,133,133,
0,0,0,0,0,0,0,0,0,0,149,0,0,0,149,133,
0,0,0,0,0,0,0,0,117,1610612869,3221225589,0,1610612856,120,149,133,
0,0,0,0,0,0,0,0,149,0,117,120,133,136,136,3221225592,
0,0,0,0,0,117,1610612869,1610612869,3221225589,0,133,133,133,152,136,117,
0,0,0,0,0,133,0,0,0,0,133,133,133,136,152,133,
0,0,0,0,0,149,0,0,0,0,133,133,133,136,136,133,
2684354693,2684354709,2684354709,2684354709,2684354709,3221225589,0,0,0,0,133,133,133,152,152,133,
0,0,0,0,0,0,0,0,0,0,133,133,133,136,136,133,
0,0,0,0,0,0,0,0,0,0,149,149,149,152,152,149,
0,0,0,0,0,0,0,0,0,0,0,0,0,0,0,0,
0,0,0,0,0,0,0,0,0,0,0,0,0,0,0,0,
0,0,0,0,0,0,0,0,0,0,0,0,0,0,0,0,
0,0,0,0,0,0,0,0,0,0,0,0,0,0,0,0
</chunk>
   <chunk x="16" y="0" width="16" height="16">
0,0,0,0,0,0,0,0,0,0,186,188,189,242,243,244,
0,0,0,0,0,0,0,0,0,0,186,188,189,242,243,244,
0,0,0,0,0,0,0,0,0,0,186,188,189,242,243,244,
0,0,0,0,0,0,0,0,0,0,186,188,189,242,243,244,
0,0,0,0,0,0,0,0,0,1610612856,186,188,189,242,243,244,
2684354693,2684354693,2684354693,2684354693,120,0,0,0,0,133,186,188,189,242,243,244,
2684354677,136,117,2684354677,3221225605,0,0,0,0,133,186,188,189,242,243,244,
133,152,133,133,3221225605,0,0,0,0,133,186,188,189,242,243,244,
133,133,133,133,3221225592,1610612869,1610612869,1610612869,1610612869,2684354680,186,188,189,242,243,244,
133,133,133,133,0,0,0,0,0,0,186,188,189,242,243,244,
133,133,133,149,0,0,0,0,0,0,186,188,189,242,243,244,
149,149,149,0,0,0,0,0,0,0,186,188,189,242,243,244,
0,0,0,0,0,0,0,0,0,0,0,0,0,0,0,0,
0,0,0,0,0,0,0,0,0,0,0,0,0,0,0,0,
0,0,0,0,0,0,0,0,0,0,0,0,0,0,0,0,
0,0,0,0,0,0,0,0,0,0,0,0,0,0,0,0
</chunk>
   <chunk x="32" y="0" width="16" height="16">
245,246,190,189,242,243,244,245,246,190,189,242,243,244,245,246,
245,246,190,189,242,243,244,245,246,190,189,242,243,244,245,246,
245,246,190,189,242,243,244,245,246,190,189,242,243,244,245,246,
245,246,190,189,242,243,244,245,246,190,189,242,243,244,245,246,
245,246,190,189,242,243,244,245,246,190,189,242,243,244,245,246,
245,246,190,189,242,243,244,245,246,190,189,242,243,244,245,246,
245,246,190,189,242,243,244,245,246,190,189,242,243,244,245,246,
245,246,190,189,242,243,244,245,246,190,189,242,243,244,245,246,
245,246,190,189,242,243,244,245,246,190,189,242,243,244,245,246,
245,246,190,189,242,243,244,245,246,190,189,242,243,244,245,246,
245,246,190,189,242,243,244,245,246,190,189,242,243,244,245,246,
245,246,190,189,242,243,244,245,246,190,189,242,243,244,245,246,
0,0,0,0,0,0,0,0,0,0,0,0,0,0,0,0,
0,0,0,0,0,0,0,0,0,0,0,0,0,0,0,0,
0,0,0,0,0,0,0,0,0,0,0,0,0,0,0,0,
0,0,0,0,0,0,0,0,0,0,0,0,0,0,0,0
</chunk>
   <chunk x="48" y="0" width="16" height="16">
190,189,242,243,244,245,246,190,189,242,243,244,245,246,190,2684354805,
190,189,242,243,244,245,246,190,189,242,243,244,245,246,190,2684354806,
190,189,242,243,244,245,246,190,189,242,243,244,245,246,190,2684354750,
190,189,242,243,244,245,246,190,189,242,243,244,245,246,190,2684354749,
190,189,242,243,244,245,246,190,189,242,243,244,245,246,190,2684354802,
190,189,242,243,244,245,246,190,189,242,243,244,245,246,190,2684354803,
190,189,242,243,244,245,246,190,189,242,243,244,245,246,190,2684354804,
190,189,242,243,244,245,246,190,189,242,243,244,245,246,190,2684354805,
190,189,242,243,244,245,246,190,189,242,243,244,245,246,190,2684354806,
190,189,242,243,244,245,246,190,189,242,243,244,245,246,190,2684354750,
190,189,242,243,244,245,246,190,189,242,243,244,245,246,190,2684354749,
190,189,242,243,244,245,246,190,189,242,243,244,245,246,190,2684354802,
0,0,0,0,0,0,0,0,0,0,0,0,0,0,0,0,
0,0,0,0,0,0,0,0,0,0,0,0,0,0,0,0,
0,0,0,0,0,0,0,0,0,0,0,0,0,0,0,0,
0,0,0,0,0,0,0,0,0,0,0,0,0,0,0,0
</chunk>
   <chunk x="64" y="0" width="16" height="16">
0,0,0,0,0,0,0,0,0,0,0,0,0,0,0,0,
0,0,0,0,0,0,0,0,0,0,0,0,0,0,0,0,
186,187,187,188,0,0,0,0,0,0,0,0,0,0,0,0,
186,187,187,188,3758096533,3758096533,3758096533,3758096533,3758096533,3758096533,3758096533,3758096533,3758096533,3758096517,120,0,
186,187,187,188,3758096533,3758096533,3758096533,3758096533,3758096533,3758096533,3758096533,3758096533,3758096517,120,133,0,
186,187,187,188,3758096533,3758096533,3758096533,3758096533,3758096533,3758096533,3758096533,3758096517,120,133,149,0,
186,187,187,188,3758096533,3758096533,3758096533,3758096533,3758096533,3758096533,3758096517,120,133,149,1610612853,2684354709,
186,187,187,188,0,0,0,0,0,0,0,133,133,1610612853,2684354709,2684354693,
186,187,187,188,0,0,0,0,0,0,0,149,1610612853,2684354709,2684354693,2684354709,
186,187,187,188,0,0,0,0,0,0,0,7,0,0,0,0,
186,187,187,188,0,0,0,0,0,0,0,23,0,0,0,0,
0,0,0,0,0,0,0,0,0,0,39,39,0,0,0,0,
0,0,0,0,0,0,0,0,0,0,0,0,0,0,0,0,
0,0,0,0,0,0,0,0,0,0,0,0,0,0,0,0,
0,0,0,0,0,0,0,0,0,0,0,0,0,0,0,0,
0,0,0,0,0,0,0,0,0,0,0,0,0,0,0,0
</chunk>
   <chunk x="80" y="0" width="16" height="16">
0,0,0,0,0,0,0,0,0,0,0,0,0,0,0,0,
0,0,0,0,0,0,0,0,0,0,0,0,0,0,0,0,
0,0,0,0,0,0,0,0,0,0,0,0,0,0,0,0,
2684354678,2684354678,2684354678,0,0,3221225621,0,0,0,0,0,0,0,0,0,0,
2684354679,2684354679,2684354679,0,3221225621,3221225605,3221225621,0,0,0,204,0,0,0,0,0,
3221225623,3221225622,3221225623,3221225622,3221225605,3221225621,3221225605,0,0,0,204,0,0,0,0,0,
2684354693,2684354709,2684354709,2684354693,2684354680,3221225605,3221225621,0,0,0,205,1610612940,1610612940,1610612940,1610612940,1610612940,
2684354709,2684354709,2684354693,2684354709,2684354693,2684354680,3221225605,0,0,0,204,0,0,0,0,0,
2684354693,2684354709,2684354693,2684354709,2684354709,2684354693,2684354680,0,0,0,0,0,0,0,0,0,
0,0,0,0,0,0,0,0,0,0,0,0,0,0,0,0,
0,0,0,0,0,0,0,0,0,0,0,0,0,0,0,0,
0,0,0,0,0,0,0,0,0,0,0,0,0,0,0,0,
0,0,0,0,0,0,0,0,0,0,0,0,0,0,0,0,
0,0,0,0,0,0,0,0,0,0,0,0,0,0,0,0,
0,0,0,0,0,0,0,0,0,0,0,0,0,0,0,0,
0,0,0,0,0,0,0,0,0,0,0,0,0,0,0,0
</chunk>
   <chunk x="96" y="0" width="16" height="16">
0,0,0,0,0,0,0,0,0,0,0,0,0,0,0,0,
0,0,0,0,0,0,0,0,0,0,0,0,0,0,0,0,
0,0,0,0,0,0,0,0,0,0,0,0,204,0,204,204,
225,2684354769,2684354769,2684354769,2684354769,2684354769,2684354769,2684354769,2684354769,2684354769,2684354785,0,204,0,204,204,
209,230,230,230,230,230,230,230,230,230,3221225681,0,204,0,0,204,
209,230,230,229,230,230,230,230,230,230,3221225681,0,204,0,204,204,
209,230,230,230,230,230,230,230,230,230,3221225681,2684354764,205,2684354764,205,205,
1610612961,1610612945,1610612945,1610612945,1610612945,1610612945,1610612945,1610612945,1610612945,1610612945,3221225697,0,204,0,204,204,
0,0,0,0,0,3221225676,0,0,0,0,0,0,204,0,0,204,
0,0,0,0,0,3221225676,0,0,0,0,0,0,0,0,0,0,
0,0,0,0,0,0,0,0,0,0,0,0,0,0,0,0,
0,0,0,0,0,0,0,0,0,0,0,0,0,0,0,0,
0,0,0,0,0,0,0,0,0,0,0,0,0,0,0,0,
0,0,0,0,0,0,0,0,0,0,0,0,0,0,0,0,
0,0,0,0,0,0,0,0,0,0,0,0,0,0,0,0,
0,0,0,0,0,0,0,0,0,0,0,0,0,0,0,0
</chunk>
   <chunk x="112" y="0" width="16" height="16">
0,0,0,0,0,0,0,0,0,0,0,0,0,0,0,0,
0,0,0,0,0,0,0,0,0,0,0,0,204,0,0,204,
0,0,204,0,0,0,0,229,229,0,0,0,204,0,0,204,
0,204,204,0,0,0,0,209,229,3221225681,0,0,204,0,0,204,
0,204,204,0,0,204,0,1610612961,1610612945,3221225697,0,0,204,0,0,204,
0,204,204,0,0,204,0,0,0,0,0,0,204,0,0,204,
2684354764,205,205,3758096588,3758096588,205,206,206,206,206,206,206,205,206,206,205,
0,204,204,0,0,204,0,0,0,0,0,0,204,0,0,204,
204,0,204,0,0,204,0,0,0,0,0,0,204,0,0,204,
0,0,0,0,0,0,0,0,0,0,0,0,204,0,0,204,
0,0,0,0,0,0,0,0,0,0,0,0,204,0,0,204,
0,0,0,0,0,0,0,0,0,0,206,206,205,206,206,205,
0,0,0,0,0,0,0,0,0,0,0,0,2147483852,0,0,2147483852,
0,0,0,0,0,0,0,0,0,0,0,0,0,0,0,0,
0,0,0,0,0,0,0,0,0,0,0,0,0,0,0,0,
0,0,0,0,0,0,0,0,0,0,0,0,0,0,0,0
</chunk>
   <chunk x="128" y="0" width="16" height="16">
0,0,0,0,0,0,0,0,0,0,0,0,0,0,0,0,
0,0,0,0,0,229,0,0,0,0,0,0,0,0,0,0,
0,209,241,229,229,229,210,210,210,210,229,229,0,0,0,0,
0,209,229,229,229,229,229,229,229,229,229,229,229,229,229,229,
0,209,229,229,229,226,2147483874,229,229,229,229,229,229,229,229,229,
0,209,241,229,229,227,3221225699,229,230,229,230,229,230,229,230,229,
536871116,209,229,229,229,227,3221225699,229,229,229,229,229,229,229,229,229,
0,229,229,229,229,227,3221225699,229,229,229,0,0,0,0,0,229,
0,229,229,0,229,1610612962,3221225698,229,241,210,210,229,229,210,210,241,
0,0,0,0,229,229,229,229,229,229,229,229,0,229,229,229,
0,0,0,0,0,0,0,0,0,0,0,0,0,0,0,0,
206,206,0,0,0,0,0,0,0,0,0,0,0,0,0,0,
0,0,0,0,0,0,0,0,0,0,0,0,0,0,0,0,
0,0,0,0,0,0,0,0,0,0,0,0,0,0,0,0,
0,0,0,0,0,0,0,0,0,0,0,0,0,0,0,0,
0,0,0,0,0,0,0,0,0,0,0,0,0,0,0,0
</chunk>
   <chunk x="144" y="0" width="16" height="16">
0,0,0,0,0,0,0,0,0,0,0,0,0,0,0,0,
0,0,0,0,0,229,229,229,229,229,229,229,229,229,229,229,
2147483857,0,209,210,210,210,210,210,210,210,210,210,210,210,210,210,
2147483857,0,209,229,229,229,229,228,229,229,229,229,229,229,229,229,
2147483857,0,209,229,229,229,0,229,229,241,241,241,241,241,241,229,
2147483857,0,209,229,229,0,0,0,0,229,229,229,229,229,229,229,
2147483857,0,209,229,229,229,229,229,0,0,0,0,0,229,229,229,
2147483857,0,209,226,2684354786,229,229,229,229,0,0,0,0,229,229,229,
2147483857,0,209,1610612962,3221225698,229,229,229,210,210,210,210,210,210,210,229,
2147483857,0,209,229,229,229,229,229,228,228,228,228,228,228,228,229,
2147483817,0,0,0,0,0,0,0,0,0,0,0,0,0,0,0,
0,0,0,0,0,0,0,0,0,0,0,0,0,0,0,0,
0,0,0,0,0,0,0,0,0,0,0,0,0,0,0,0,
0,0,0,0,0,0,0,0,0,0,0,0,0,0,0,0,
0,0,0,0,0,0,0,0,0,0,0,0,0,0,0,0,
0,0,0,0,0,0,0,0,0,0,0,0,0,0,0,0
</chunk>
   <chunk x="160" y="0" width="16" height="16">
0,0,0,0,0,0,0,0,0,0,0,0,0,0,0,0,
229,229,229,229,3221225681,0,242,243,244,245,246,242,243,244,245,246,
210,210,210,210,3221225681,0,242,243,244,245,246,242,243,244,245,246,
229,226,2684354786,229,3221225681,0,242,243,244,245,246,242,243,244,245,246,
229,227,3221225699,229,3221225681,0,242,243,244,245,246,242,243,244,245,246,
229,227,3221225699,229,3221225681,0,242,243,244,245,246,242,243,244,245,246,
229,227,3221225699,229,3221225681,189,242,243,244,245,246,242,243,244,245,246,
229,227,3221225699,229,3221225681,0,242,243,244,245,246,242,243,244,245,246,
229,227,3221225699,229,3221225681,0,242,243,244,245,246,242,243,244,245,246,
229,1610612962,3221225698,229,3221225681,0,242,243,244,245,246,242,243,244,245,246,
0,0,0,0,2147483817,0,242,243,244,245,246,242,243,244,245,246,
0,0,0,0,0,0,242,243,244,245,246,242,242,243,244,245,
0,0,0,0,0,0,0,0,0,0,0,0,0,0,0,0,
0,0,0,0,0,0,0,0,0,0,0,0,0,0,0,0,
0,0,0,0,0,0,0,0,0,0,0,0,0,0,0,0,
0,0,0,0,0,0,0,0,0,0,0,0,0,0,0,0
</chunk>
   <chunk x="176" y="0" width="16" height="16">
0,0,0,0,0,0,0,0,0,0,0,0,0,0,0,0,
242,243,244,245,246,190,22,22,22,0,0,0,0,0,0,0,
242,243,244,245,246,190,22,22,7,0,0,0,0,0,0,0,
242,243,244,245,246,190,22,22,22,7,0,0,0,0,0,0,
242,243,244,245,246,190,22,22,22,22,7,0,0,0,0,0,
242,243,244,245,246,190,22,22,22,22,23,0,0,0,0,0,
242,243,244,245,246,190,22,22,22,22,23,0,0,0,0,0,
242,243,244,245,246,190,22,22,22,22,22,7,0,0,0,0,
242,243,244,245,246,190,22,22,22,22,22,23,0,0,0,0,
242,243,244,245,246,190,22,22,22,22,22,22,7,0,0,0,
242,243,244,245,246,190,22,22,22,22,22,22,22,0,0,0,
242,243,244,245,246,190,0,0,0,22,22,0,0,22,0,22,
0,0,0,0,0,0,0,0,0,0,22,22,0,0,0,0,
0,0,0,0,0,0,0,0,0,0,0,0,0,0,0,0,
0,0,0,0,0,0,0,0,0,0,0,0,0,0,0,0,
0,0,0,0,0,0,0,0,0,0,0,0,0,0,0,0
</chunk>
   <chunk x="192" y="0" width="16" height="16">
0,0,0,0,0,22,22,0,0,0,0,0,0,0,0,0,
0,22,22,0,22,22,0,22,0,0,0,22,0,0,0,0,
0,22,22,22,22,22,22,22,22,22,23,0,0,0,0,0,
0,22,22,22,22,22,22,22,22,22,23,0,0,0,0,17,
0,33,22,22,20,21,22,22,22,20,21,7,0,0,0,17,
0,0,17,22,22,22,22,22,22,22,22,22,7,0,0,17,
0,0,17,22,22,22,22,22,22,22,22,22,23,0,0,33,
0,0,17,22,22,22,22,22,22,22,22,22,23,0,0,0,
0,0,17,22,22,22,22,22,22,22,22,22,22,7,0,0,
0,0,17,22,22,22,20,21,22,22,22,22,22,22,4,2,
1,3,22,22,22,22,22,22,22,22,22,22,22,22,22,20,
22,0,0,22,22,22,22,22,22,22,22,22,22,22,22,22,
0,0,0,0,0,22,22,22,22,22,22,22,22,22,22,22,
0,0,0,0,5,22,22,22,22,22,22,18,23,0,5,5,
0,0,0,0,0,17,22,20,21,22,19,22,18,7,0,0,
0,0,0,0,0,33,35,22,22,22,22,22,22,22,6,7
</chunk>
   <chunk x="208" y="0" width="16" height="16">
0,0,0,0,0,0,0,0,0,0,0,0,0,0,0,0,
0,0,0,0,0,0,0,0,0,0,0,0,0,0,0,0,
0,0,0,0,0,22,22,0,0,0,0,0,0,0,0,0,
22,0,22,22,22,22,22,22,22,0,0,0,0,0,0,0,
22,22,22,22,22,22,22,22,22,22,22,22,22,22,0,0,
22,20,21,22,22,22,22,22,22,22,22,22,22,22,22,0,
22,22,22,22,22,22,22,22,22,22,22,22,22,22,22,0,
17,22,22,22,22,22,22,22,22,22,22,22,22,22,22,0,
17,22,22,22,22,22,22,22,22,22,22,22,22,22,22,0,
22,22,22,22,22,0,0,0,0,0,0,0,0,0,0,0,
21,22,0,22,0,0,0,0,0,0,0,0,0,0,0,0,
22,22,0,0,0,0,0,0,0,0,0,0,0,0,0,0,
22,22,0,0,0,0,0,0,0,0,0,0,0,0,0,0,
0,0,0,0,0,0,0,0,0,0,0,0,0,0,0,0,
0,0,0,0,0,0,0,0,0,0,0,0,0,0,0,0,
0,0,0,0,0,0,0,0,0,0,0,0,0,0,0,0
</chunk>
   <chunk x="192" y="16" width="16" height="16">
0,0,0,0,0,0,0,17,22,22,22,22,20,21,22,39,
0,0,0,0,0,0,0,33,37,22,22,22,22,22,39,0,
0,0,0,0,0,0,0,0,0,33,37,35,22,23,0,0,
0,0,0,0,0,0,0,0,0,0,0,0,33,39,0,0,
0,0,0,0,0,0,0,0,0,0,0,0,0,0,0,0,
0,0,0,0,0,0,0,0,0,0,0,0,0,0,0,0,
0,0,0,0,0,0,3,0,0,0,0,0,0,0,0,0,
0,0,0,0,0,0,0,0,0,0,0,0,0,0,0,0,
0,0,0,1,2,3,4,5,6,4,2,4,2,3,4,5,
0,0,0,17,18,22,19,22,22,22,22,22,22,19,22,22,
0,0,0,33,22,22,22,22,20,21,35,22,20,21,22,22,
0,0,0,0,17,18,20,21,22,22,3,22,22,22,22,22,
0,0,0,0,33,34,35,22,22,20,21,22,22,22,4,22,
0,0,22,0,0,0,33,22,22,20,21,37,22,22,22,22,
0,0,22,0,1,2,3,34,20,21,22,5,22,19,22,22,
0,0,0,0,17,22,22,5,22,20,21,22,22,22,38,39
</chunk>
   <chunk x="208" y="16" width="16" height="16">
0,0,0,0,0,0,0,0,0,0,0,0,0,0,0,0,
0,0,0,0,0,0,0,0,0,0,0,0,0,0,0,0,
0,0,0,0,0,0,0,0,0,0,0,0,0,0,0,0,
2684354581,0,0,0,0,0,0,0,0,0,0,0,0,0,0,0,
0,0,0,0,0,0,0,0,0,0,0,0,0,0,0,0,
0,0,0,0,0,0,0,0,0,0,0,0,0,0,0,0,
0,0,0,0,0,0,0,0,0,0,0,0,0,0,0,0,
0,0,0,0,0,0,0,0,0,0,0,0,0,0,0,0,
6,7,0,0,0,0,0,0,0,0,0,0,0,0,0,0,
22,23,0,0,0,0,0,0,0,0,0,0,0,0,0,0,
38,39,17,0,0,0,0,0,0,0,0,0,0,0,0,0,
7,0,22,0,0,0,0,0,0,0,0,0,0,0,0,0,
6,7,22,0,0,0,0,0,0,0,0,0,0,0,0,0,
22,23,0,0,0,0,0,0,0,0,0,0,0,0,0,0,
38,39,0,0,0,0,0,0,0,0,0,0,0,0,0,0,
0,0,0,0,0,0,0,0,0,0,0,0,0,0,0,0
</chunk>
   <chunk x="192" y="32" width="16" height="16">
0,0,0,0,33,34,22,20,21,22,22,20,21,39,0,0,
0,0,0,0,1,2,22,22,22,22,18,22,23,0,0,0,
0,0,0,0,1,1,1,22,18,22,20,21,23,0,0,0,
0,0,0,0,17,22,19,22,22,18,22,22,23,0,0,0,
0,0,0,0,33,35,35,22,22,22,22,22,23,0,0,0,
0,0,0,0,0,0,1,22,3,4,22,22,23,0,0,0,
0,0,0,0,0,0,17,22,20,21,22,22,22,7,0,0,
0,0,22,7,0,0,33,22,22,22,22,19,22,23,0,0,
0,0,22,22,7,0,0,33,34,35,36,37,38,39,0,0,
0,0,22,22,22,0,0,0,0,0,0,0,0,0,0,0,
0,0,22,19,22,22,0,0,0,0,0,0,0,0,0,1,
0,0,22,22,22,39,0,0,0,0,0,0,0,0,1,22,
0,0,22,38,39,0,1,2,3,4,5,6,7,22,22,22,
0,0,0,0,0,0,17,18,19,20,21,22,23,0,0,0,
0,0,22,0,0,0,33,35,22,22,38,0,0,0,0,0,
0,0,22,0,0,0,0,0,33,22,6,22,0,0,0,0
</chunk>
   <chunk x="208" y="32" width="16" height="16">
0,0,0,0,0,0,0,0,0,0,0,0,0,0,0,0,
0,0,0,0,0,0,0,0,0,0,0,0,0,0,0,0,
0,0,0,0,0,0,0,0,0,0,0,0,0,0,0,0,
0,0,0,0,0,0,0,0,0,0,0,0,0,0,0,0,
0,0,0,0,0,0,0,0,0,0,0,0,0,0,0,0,
0,0,0,0,0,0,0,0,0,0,0,0,0,0,0,0,
0,0,0,0,0,0,0,0,0,0,0,0,0,0,0,0,
0,0,0,0,0,0,0,0,0,0,0,0,0,0,0,0,
0,1,22,0,0,0,0,0,0,0,0,0,0,0,0,0,
1,22,22,0,0,0,0,0,0,0,0,0,0,0,0,0,
22,22,22,0,0,0,0,0,0,0,0,0,0,0,0,0,
22,22,22,0,0,0,0,0,0,0,0,0,0,0,0,0,
22,22,22,0,0,0,0,0,0,0,0,0,0,0,0,0,
0,22,22,0,0,0,0,0,0,0,0,0,0,0,0,0,
0,22,22,0,0,0,0,0,0,0,0,0,0,0,0,0,
0,22,22,0,0,0,0,0,0,0,0,0,0,0,0,0
</chunk>
   <chunk x="192" y="48" width="16" height="16">
0,0,22,0,0,0,0,0,0,33,36,22,22,0,0,0,
0,0,22,0,0,0,0,0,0,0,0,33,22,22,0,0,
0,0,22,0,0,0,0,0,0,0,0,1,22,18,22,22,
0,0,22,0,0,0,0,0,0,0,0,33,22,22,22,22,
0,0,22,0,0,0,0,0,0,0,0,0,17,22,19,22,
0,0,22,0,0,0,0,0,0,0,0,0,17,18,22,37,
0,0,22,0,0,0,0,0,0,0,0,1,22,36,39,0,
0,0,22,0,0,0,0,0,0,0,0,33,39,0,0,0,
0,0,22,0,0,0,22,22,0,0,0,0,0,0,0,0,
0,0,22,22,0,0,22,22,7,0,0,0,0,0,0,0,
0,0,22,0,22,22,22,22,23,0,0,0,0,0,0,0,
0,0,22,22,22,22,20,21,22,7,0,0,0,0,0,0,
0,0,22,22,22,22,22,22,22,22,7,0,0,0,0,0,
0,0,22,22,22,22,36,22,22,22,22,22,0,0,0,0,
0,0,22,22,22,39,0,33,35,22,22,22,22,0,0,0,
0,0,22,22,22,39,0,0,0,33,22,22,22,0,0,22
</chunk>
   <chunk x="208" y="48" width="16" height="16">
0,22,22,0,0,0,0,0,0,0,0,0,0,0,0,0,
0,22,22,0,0,0,0,0,0,0,0,0,0,0,0,0,
0,22,22,0,0,0,0,0,0,0,0,0,0,0,0,0,
22,22,22,0,0,0,0,0,0,0,0,0,0,0,0,0,
22,22,22,0,0,0,0,0,0,0,0,0,0,0,0,0,
39,17,22,0,0,0,0,0,0,0,0,0,0,0,0,0,
0,17,22,0,0,0,0,0,0,0,0,0,0,0,0,0,
0,22,22,0,0,0,0,0,0,0,0,0,0,0,0,0,
0,22,22,0,0,0,0,0,0,0,0,0,0,0,0,0,
0,22,22,0,0,0,0,0,0,0,0,0,0,0,0,0,
0,22,22,0,0,0,0,0,0,0,0,0,0,0,0,0,
0,22,22,0,0,0,0,0,0,0,0,0,0,0,0,0,
22,22,22,0,0,0,0,0,0,0,0,0,0,0,0,0,
22,22,22,0,0,0,0,0,0,0,0,0,0,0,0,0,
0,22,22,0,0,0,0,0,0,0,0,0,0,0,0,0,
22,22,22,0,0,0,0,0,0,0,0,0,0,0,0,0
</chunk>
   <chunk x="192" y="64" width="16" height="16">
0,0,22,22,22,0,0,0,0,0,33,22,22,22,0,22,
0,0,22,22,39,0,0,0,0,0,0,33,22,22,22,22,
0,0,22,39,0,0,0,0,0,0,0,0,33,22,22,22,
0,0,23,0,0,0,0,0,0,0,0,0,0,33,22,20,
0,0,22,7,0,0,0,0,0,0,0,0,0,0,33,22,
0,0,22,22,7,0,0,0,0,0,0,0,0,0,0,22,
0,0,22,22,22,7,0,0,0,0,0,0,0,0,0,0,
0,0,22,22,22,22,5,7,0,0,0,0,0,0,0,0,
0,0,22,22,22,22,22,22,7,0,0,0,0,0,0,0,
0,0,22,22,22,22,22,22,23,0,0,0,0,0,0,0,
0,0,22,22,22,20,21,22,39,0,0,0,0,0,0,1,
0,0,22,22,22,22,22,39,0,0,0,0,0,1,3,22,
0,0,22,22,22,22,39,0,0,0,0,0,1,22,22,20,
0,0,0,22,22,39,0,0,0,0,1,2,22,22,22,22,
0,0,0,0,0,0,0,0,0,1,22,22,22,22,22,23,
0,0,0,0,0,0,0,0,0,22,22,22,22,20,21,22
</chunk>
   <chunk x="208" y="64" width="16" height="16">
22,22,22,0,0,0,0,0,0,0,0,0,0,0,0,0,
22,22,22,0,0,0,0,0,0,0,0,0,0,0,0,0,
22,22,22,0,0,0,0,0,0,0,0,0,0,0,0,0,
21,22,22,0,0,0,0,0,0,0,0,0,0,0,0,0,
22,22,22,0,0,0,0,0,0,0,0,0,0,0,0,0,
22,22,0,0,0,0,0,0,0,0,0,0,0,0,0,0,
22,22,0,0,0,0,0,0,0,0,0,0,0,0,0,0,
0,0,0,0,0,0,0,22,22,22,0,0,0,0,0,0,
0,0,0,0,22,22,22,22,22,22,22,22,0,0,0,0,
17,22,22,22,22,22,34,35,36,37,22,19,22,22,0,0,
22,22,22,22,22,23,0,0,0,0,33,35,36,39,20,0,
22,22,35,22,20,21,7,0,0,0,0,0,0,0,0,0,
21,22,3,22,22,22,22,3,7,0,0,0,0,0,0,0,
22,22,22,22,20,21,22,22,22,7,0,0,0,0,0,0,
17,22,19,22,22,22,22,22,19,22,7,0,0,0,0,0,
22,22,22,22,20,21,22,22,22,22,23,0,0,0,0,0
</chunk>
   <chunk x="224" y="64" width="16" height="16">
0,0,0,0,0,0,0,0,0,0,0,0,0,0,0,0,
0,0,0,0,0,0,0,0,0,0,0,0,0,0,0,0,
0,0,0,0,0,0,0,0,0,0,0,0,0,0,0,0,
0,0,0,0,0,0,0,0,0,0,0,0,0,0,0,0,
0,0,0,0,0,0,0,0,0,0,0,0,0,0,0,0,
0,0,0,0,0,0,0,0,0,0,0,0,0,0,0,0,
0,0,0,0,0,0,0,0,0,0,0,0,0,0,0,0,
0,0,0,0,0,0,0,0,0,22,22,0,0,0,0,0,
0,0,0,0,0,0,0,0,22,22,22,22,22,22,22,0,
0,0,0,0,0,0,0,0,17,22,36,22,22,18,23,0,
0,0,0,0,0,0,0,1,22,34,6,22,35,22,23,0,
0,0,0,0,0,0,0,17,22,6,22,22,5,22,23,0,
0,0,0,0,0,1,6,22,22,20,21,22,22,22,23,0,
0,0,0,0,0,17,22,22,22,22,22,22,22,22,22,7,
0,0,0,0,1,22,0,0,0,22,22,22,22,22,22,22,
0,0,1,3,22,22,34,22,22,37,22,22,18,19,20,21
</chunk>
   <chunk x="240" y="64" width="16" height="16">
0,0,0,0,0,0,0,0,0,0,0,0,0,0,0,0,
0,0,0,0,0,0,0,0,0,0,0,0,0,0,0,0,
0,0,0,0,0,0,0,0,0,0,0,0,0,0,0,0,
0,0,0,0,0,0,0,0,0,0,0,0,0,0,0,0,
0,0,0,0,0,0,0,0,0,0,0,0,0,0,0,0,
0,0,0,0,0,0,0,0,0,0,0,0,0,0,0,0,
0,0,0,0,0,0,0,0,0,0,0,0,0,0,0,0,
0,0,0,0,0,0,0,0,0,0,0,0,0,0,0,0,
0,0,0,0,0,0,0,0,0,0,0,0,0,0,0,0,
0,0,0,0,0,0,0,0,0,0,0,0,0,0,1,2,
0,0,0,0,0,0,0,0,0,0,0,0,0,0,0,22,
0,0,0,0,0,0,0,0,0,0,0,0,0,0,0,22,
0,0,0,0,0,0,0,0,22,22,22,22,22,22,22,22,
0,0,0,0,0,0,0,0,17,22,22,22,22,22,22,22,
7,0,0,0,0,0,0,0,2147483671,22,18,19,20,21,22,22,
22,3,7,0,0,0,0,0,17,22,22,22,22,22,22,22
</chunk>
   <chunk x="256" y="64" width="16" height="16">
0,0,0,0,0,0,0,0,0,0,0,0,0,0,0,0,
0,0,0,0,0,0,0,0,0,0,0,0,0,0,0,0,
0,0,0,0,0,0,0,0,0,0,0,0,0,0,0,0,
0,0,0,0,0,0,0,0,0,0,0,0,0,0,0,0,
0,0,0,0,0,0,0,0,0,0,0,0,0,0,0,0,
0,0,0,0,0,0,0,0,0,0,0,0,0,0,0,0,
0,0,0,0,0,0,0,0,0,0,0,0,0,0,0,0,
0,0,0,0,0,0,0,0,0,0,0,0,0,22,22,22,
0,0,0,0,0,0,0,0,0,0,0,0,0,22,22,22,
3,4,5,6,7,0,0,0,0,0,0,0,0,22,22,39,
22,22,22,22,22,7,0,0,0,0,0,0,0,22,23,0,
22,22,22,38,22,22,3,2,3,4,5,6,22,22,22,7,
22,22,39,0,17,22,22,22,22,22,22,22,22,36,18,19,
22,39,0,0,17,22,22,22,22,22,22,22,23,0,17,22,
23,0,0,1,22,22,22,22,22,22,22,22,23,0,17,22,
22,7,1,22,22,22,22,22,35,36,37,38,22,5,22,22
</chunk>
   <chunk x="272" y="64" width="16" height="16">
0,0,0,0,0,0,0,0,0,0,0,0,0,0,0,0,
0,0,0,0,0,0,0,0,0,0,0,0,0,0,0,0,
0,0,0,0,0,0,0,0,0,0,0,0,0,0,0,0,
0,0,0,0,0,0,0,0,0,0,0,0,0,0,0,0,
0,0,0,0,0,0,0,0,0,0,0,0,0,0,0,0,
0,0,0,0,0,0,0,0,0,0,0,0,0,0,0,0,
0,0,0,0,0,0,0,0,0,0,0,0,0,0,0,0,
22,22,22,22,22,22,22,22,22,0,0,22,22,22,22,22,
22,22,22,22,22,22,39,0,0,0,17,22,22,22,22,22,
33,22,22,22,22,23,0,0,0,1,22,22,22,22,22,22,
0,17,35,22,22,39,0,0,0,17,22,22,22,22,22,22,
1,22,3,22,23,0,0,0,1,22,22,22,22,22,22,22,
20,21,22,22,39,0,0,0,17,22,22,22,22,22,22,22,
22,22,22,2147483665,0,0,0,0,17,37,22,22,22,22,22,22,
35,22,22,39,0,0,0,1,23,0,17,22,22,22,22,22,
3,22,23,0,0,0,1,22,22,3,22,22,22,22,22,22
</chunk>
   <chunk x="288" y="64" width="16" height="16">
0,0,0,0,0,0,0,0,0,0,0,0,0,0,0,0,
0,0,0,0,0,0,0,0,0,0,0,0,0,0,0,0,
0,0,0,0,0,0,0,0,0,0,0,0,0,0,0,0,
0,0,0,0,0,0,0,0,0,0,0,0,0,0,0,0,
0,0,0,0,0,0,0,0,0,0,0,0,0,0,0,0,
0,0,0,0,0,0,0,0,0,0,0,0,0,0,0,0,
0,0,0,0,0,0,0,0,0,0,0,0,0,0,0,0,
22,22,0,0,0,0,0,0,0,0,0,0,0,0,0,0,
22,22,0,0,0,0,0,0,0,0,0,0,0,0,0,0,
22,22,0,0,0,0,0,0,0,0,0,0,0,0,0,0,
22,22,0,0,0,0,0,0,0,0,0,0,0,0,0,0,
22,22,0,0,0,0,0,0,0,0,0,0,0,0,0,0,
22,22,0,0,0,0,0,0,0,0,0,0,0,0,0,0,
22,22,0,0,0,0,0,0,0,0,0,0,0,0,0,0,
22,22,0,0,0,0,0,0,0,0,0,0,0,0,0,0,
22,22,0,0,0,0,0,0,0,0,0,0,0,0,0,0
</chunk>
   <chunk x="192" y="80" width="16" height="16">
0,0,0,0,0,0,0,0,0,22,22,22,22,22,22,22,
0,0,0,0,0,0,0,0,0,0,22,22,22,22,22,22,
0,0,0,0,0,0,0,0,0,0,0,0,0,0,0,0,
0,0,0,0,0,0,0,0,0,0,0,0,0,0,0,0,
0,0,0,0,0,0,0,0,0,0,0,0,0,0,0,0,
0,0,0,0,0,0,0,0,0,0,0,0,0,0,0,0,
0,0,0,0,0,0,0,0,0,0,0,0,0,0,0,0,
0,0,0,0,0,0,0,0,0,0,0,0,0,0,0,0,
0,0,0,0,0,0,0,0,0,0,0,0,0,0,0,0,
0,0,0,0,0,0,0,0,0,0,0,0,0,0,0,0,
0,0,0,0,0,0,0,0,0,0,0,0,0,0,0,0,
0,0,0,0,0,0,0,0,0,0,0,0,0,0,0,0,
0,0,0,0,0,0,0,0,0,0,0,0,0,0,0,0,
0,0,0,0,0,0,0,0,0,0,0,0,0,0,0,0,
0,0,0,0,0,0,0,0,0,0,0,0,0,0,0,0,
0,0,0,0,0,0,0,0,0,0,0,0,0,0,0,0
</chunk>
   <chunk x="208" y="80" width="16" height="16">
37,22,22,22,22,22,22,22,22,22,22,7,0,0,0,0,
4,22,22,22,22,22,22,22,22,22,22,22,0,0,0,0,
0,0,0,22,22,22,22,22,22,22,22,22,22,22,22,22,
0,0,0,0,0,0,0,0,0,0,0,0,0,0,0,0,
0,0,0,0,0,0,0,0,0,0,0,0,0,0,0,0,
0,0,0,0,0,0,0,0,0,0,0,0,0,0,0,0,
0,0,0,0,0,0,0,0,0,0,0,0,0,0,0,0,
0,0,0,0,0,0,0,0,0,0,0,0,0,0,0,0,
0,0,0,0,0,0,0,0,0,0,0,0,0,0,0,0,
0,0,0,0,0,0,0,0,0,0,0,0,0,0,0,0,
0,0,0,0,0,0,0,0,0,0,0,0,0,0,0,0,
0,0,0,0,0,0,0,0,0,0,0,0,0,0,0,0,
0,0,0,0,0,0,0,0,0,0,0,0,0,0,0,0,
0,0,0,0,0,0,0,0,0,0,0,0,0,0,0,0,
0,0,0,0,0,0,0,0,0,0,0,0,0,0,0,0,
0,0,0,0,0,0,0,0,0,0,0,0,0,0,0,0
</chunk>
   <chunk x="224" y="80" width="16" height="16">
0,0,17,22,22,22,4,22,22,6,22,22,22,22,22,22,
2,3,22,22,0,0,0,0,0,0,0,0,0,0,0,0,
22,19,0,0,0,0,0,0,0,0,0,0,0,0,0,0,
0,0,0,0,0,0,0,0,0,0,0,0,0,0,0,0,
0,0,0,0,0,0,0,0,0,0,0,0,0,0,0,0,
0,0,0,0,0,0,0,0,0,0,0,0,0,0,0,0,
0,0,0,0,0,0,0,0,0,0,0,0,0,0,0,0,
0,0,0,0,0,0,0,0,0,0,0,0,0,0,0,0,
0,0,0,0,0,0,0,0,0,0,0,0,0,0,0,0,
0,0,0,0,0,0,0,0,0,0,0,0,0,0,0,0,
0,0,0,0,0,0,0,0,0,0,0,0,0,0,0,0,
0,0,0,0,0,0,0,0,0,0,0,0,0,0,0,0,
0,0,0,0,0,0,0,0,0,0,0,0,0,0,0,0,
0,0,0,0,0,0,0,0,0,0,0,0,0,0,0,0,
0,0,0,0,0,0,0,0,0,0,0,0,0,0,0,0,
0,0,0,0,0,0,0,0,0,0,0,0,0,0,0,0
</chunk>
   <chunk x="240" y="80" width="16" height="16">
22,22,22,3,4,5,5,2,20,0,0,0,22,22,22,22,
0,0,0,0,0,0,22,22,22,0,0,0,22,22,22,22,
0,0,0,0,0,0,0,0,0,0,0,22,22,22,22,22,
0,0,0,0,0,0,0,0,0,0,0,0,0,0,0,0,
0,0,0,0,0,0,0,0,0,0,0,0,0,0,0,0,
0,0,0,0,0,0,0,0,0,0,0,0,0,0,0,0,
0,0,0,0,0,0,0,0,0,0,0,0,0,0,0,0,
0,0,0,0,0,0,0,0,0,0,0,0,0,0,0,0,
0,0,0,0,0,0,0,0,0,0,0,0,0,0,0,0,
0,0,0,0,0,0,0,0,0,0,0,0,0,0,0,0,
0,0,0,0,0,0,0,0,0,0,0,0,0,0,0,0,
0,0,0,0,0,0,0,0,0,0,0,0,0,0,0,0,
0,0,0,0,0,0,0,0,0,0,0,0,0,0,0,0,
0,0,0,0,0,0,0,0,0,0,0,0,0,0,0,0,
0,0,0,0,0,0,0,0,0,0,0,0,0,0,0,0,
0,0,0,0,0,0,0,0,0,0,0,0,0,0,0,0
</chunk>
   <chunk x="256" y="80" width="16" height="16">
22,22,22,22,22,22,22,39,0,0,0,0,0,22,22,22,
22,22,22,22,22,22,22,0,0,0,0,0,0,22,22,22,
22,22,22,22,0,0,0,0,0,0,0,0,0,22,22,22,
0,0,0,0,0,0,0,0,0,0,0,0,0,0,0,0,
0,0,0,0,0,0,0,0,0,0,0,0,0,0,0,0,
0,0,0,0,0,0,0,0,0,0,0,0,0,0,0,0,
0,0,0,0,0,0,0,0,0,0,0,0,0,0,0,0,
0,0,0,0,0,0,0,0,0,0,0,0,0,0,0,0,
0,0,0,0,0,0,0,0,0,0,0,0,0,0,0,0,
0,0,0,0,0,0,0,0,0,0,0,0,0,0,0,0,
0,0,0,0,0,0,0,0,0,0,0,0,0,0,0,0,
0,0,0,0,0,0,0,0,0,0,0,0,0,0,0,0,
0,0,0,0,0,0,0,0,0,0,0,0,0,0,0,0,
0,0,0,0,0,0,0,0,0,0,0,0,0,0,0,0,
0,0,0,0,0,0,0,0,0,0,0,0,0,0,0,0,
0,0,0,0,0,0,0,0,0,0,0,0,0,0,0,0
</chunk>
   <chunk x="272" y="80" width="16" height="16">
22,22,39,0,0,1,22,22,22,22,22,22,22,22,22,22,
22,39,0,0,1,22,22,22,22,22,22,22,22,22,22,22,
22,22,22,22,22,22,22,22,22,22,22,22,22,22,22,22,
0,0,0,0,0,0,0,0,0,0,0,0,0,0,0,0,
0,0,0,0,0,0,0,0,0,0,0,0,0,0,0,0,
0,0,0,0,0,0,0,0,0,0,0,0,0,0,0,0,
0,0,0,0,0,0,0,0,0,0,0,0,0,0,0,0,
0,0,0,0,0,0,0,0,0,0,0,0,0,0,0,0,
0,0,0,0,0,0,0,0,0,0,0,0,0,0,0,0,
0,0,0,0,0,0,0,0,0,0,0,0,0,0,0,0,
0,0,0,0,0,0,0,0,0,0,0,0,0,0,0,0,
0,0,0,0,0,0,0,0,0,0,0,0,0,0,0,0,
0,0,0,0,0,0,0,0,0,0,0,0,0,0,0,0,
0,0,0,0,0,0,0,0,0,0,0,0,0,0,0,0,
0,0,0,0,0,0,0,0,0,0,0,0,0,0,0,0,
0,0,0,0,0,0,0,0,0,0,0,0,0,0,0,0
</chunk>
   <chunk x="288" y="80" width="16" height="16">
22,22,0,0,0,0,0,0,0,0,0,0,0,0,0,0,
22,22,0,0,0,0,0,0,0,0,0,0,0,0,0,0,
22,22,0,0,0,0,0,0,0,0,0,0,0,0,0,0,
0,0,0,0,0,0,0,0,0,0,0,0,0,0,0,0,
0,0,0,0,0,0,0,0,0,0,0,0,0,0,0,0,
0,0,0,0,0,0,0,0,0,0,0,0,0,0,0,0,
0,0,0,0,0,0,0,0,0,0,0,0,0,0,0,0,
0,0,0,0,0,0,0,0,0,0,0,0,0,0,0,0,
0,0,0,0,0,0,0,0,0,0,0,0,0,0,0,0,
0,0,0,0,0,0,0,0,0,0,0,0,0,0,0,0,
0,0,0,0,0,0,0,0,0,0,0,0,0,0,0,0,
0,0,0,0,0,0,0,0,0,0,0,0,0,0,0,0,
0,0,0,0,0,0,0,0,0,0,0,0,0,0,0,0,
0,0,0,0,0,0,0,0,0,0,0,0,0,0,0,0,
0,0,0,0,0,0,0,0,0,0,0,0,0,0,0,0,
0,0,0,0,0,0,0,0,0,0,0,0,0,0,0,0
</chunk>
  </data>
 </layer>
 <layer id="13" name="Ground Back" width="37" height="135">
  <data encoding="csv">
   <chunk x="-16" y="0" width="16" height="16">
0,0,0,0,0,0,0,0,0,0,0,0,0,0,0,0,
0,0,0,0,0,0,0,0,0,0,0,0,0,0,0,0,
0,0,0,0,0,0,0,0,0,0,0,0,0,0,0,0,
0,0,0,0,0,0,0,0,0,0,0,0,0,0,0,0,
0,0,0,0,0,0,0,0,0,0,0,0,0,0,0,0,
0,0,0,0,0,0,0,0,0,0,0,0,0,0,0,0,
0,0,0,0,0,0,0,0,0,0,0,0,0,0,0,0,
0,0,0,0,0,0,0,0,0,0,0,0,0,0,0,0,
0,0,0,0,0,0,0,0,0,0,0,0,0,0,0,0,
0,0,0,113,114,115,116,113,1610612865,1610612865,1610612865,1610612865,1610612865,116,0,0,
0,0,0,129,0,0,129,129,0,0,0,0,0,2684354674,0,0,
0,0,0,145,0,0,129,129,0,0,0,0,0,2684354675,0,0,
0,0,0,0,0,0,0,0,0,0,0,0,0,0,0,0,
0,0,0,0,0,0,0,0,0,0,0,0,0,0,0,0,
0,0,0,0,0,0,0,0,0,0,0,0,0,0,0,0,
0,0,0,0,0,0,0,0,0,0,0,0,0,0,0,0
</chunk>
   <chunk x="0" y="0" width="16" height="16">
0,0,0,0,0,0,0,0,0,0,0,0,0,0,0,0,
2684354674,0,0,0,0,0,0,0,0,0,0,0,0,0,0,0,
2684354675,113,114,115,114,115,114,115,114,114,115,116,98,0,0,0,
161,162,0,0,0,0,0,0,0,0,0,1610612849,2684354689,2684354689,2684354689,2684354689,
0,0,0,0,0,0,0,0,0,0,0,0,0,0,0,0,
0,0,0,0,0,0,0,0,0,0,0,0,0,0,0,0,
0,0,0,0,0,0,0,0,0,0,0,0,0,0,0,0,
0,0,0,0,0,0,113,114,115,114,116,0,113,116,0,0,
0,0,0,0,0,0,129,0,0,0,129,0,129,2684354674,0,0,
113,114,115,114,115,116,145,0,0,0,1610612849,2684354689,2684354676,2684354675,0,0,
129,0,0,0,0,129,129,0,0,0,0,0,0,2684354674,0,0,
129,0,0,0,0,129,145,0,0,0,0,0,0,2684354675,0,0,
0,0,0,0,0,0,0,0,0,0,0,0,0,0,0,0,
0,0,0,0,0,0,0,0,0,0,0,0,0,0,0,0,
0,0,0,0,0,0,0,0,0,0,0,0,0,0,0,0,
0,0,0,0,0,0,0,0,0,0,0,0,0,0,0,0
</chunk>
   <chunk x="16" y="0" width="16" height="16">
0,0,0,0,0,0,0,0,0,129,0,0,0,0,0,0,
145,0,145,0,0,0,0,0,0,129,0,0,0,0,0,0,
145,0,145,0,0,0,0,0,0,129,0,0,0,0,0,0,
2684354676,0,1610612849,2684354705,2684354689,2684354705,2684354689,2684354705,2684354705,2684354676,0,0,0,0,0,0,
0,0,0,0,0,0,0,0,0,0,0,0,0,0,0,0,
0,0,0,0,0,0,0,0,0,0,0,0,0,0,0,0,
0,0,0,0,0,0,0,0,0,0,0,0,0,0,0,0,
0,0,0,0,0,0,0,0,0,0,0,0,0,0,0,0,
0,0,0,0,0,0,0,0,0,0,0,0,0,0,0,0,
0,0,0,0,0,0,0,0,0,0,0,0,0,0,0,0,
0,0,0,0,0,0,0,0,0,0,0,0,0,0,0,0,
0,0,0,0,0,0,0,0,0,0,0,0,0,0,0,0,
0,0,0,0,0,0,0,0,0,0,0,0,0,0,0,0,
0,0,0,0,0,0,0,0,0,0,0,0,0,0,0,0,
0,0,0,0,0,0,0,0,0,0,0,0,0,0,0,0,
0,0,0,0,0,0,0,0,0,0,0,0,0,0,0,0
</chunk>
   <chunk x="48" y="0" width="16" height="16">
0,0,0,0,0,0,0,0,0,0,0,0,0,0,0,0,
0,0,0,0,0,0,0,0,0,0,0,0,0,0,0,0,
0,0,0,0,0,0,0,0,0,0,0,0,0,0,0,0,
0,0,0,0,0,0,0,0,0,0,0,0,0,0,0,0,
0,0,0,0,0,0,0,0,0,0,0,0,0,0,0,0,
0,0,0,0,0,0,0,0,0,0,0,0,0,0,0,0,
0,0,0,0,0,0,0,0,0,0,0,0,0,0,0,0,
0,0,0,0,0,0,0,0,0,0,0,0,175,176,0,0,
0,0,0,0,0,175,176,0,0,0,0,0,191,192,0,0,
0,0,0,0,0,191,192,0,0,0,0,0,207,208,0,0,
0,0,0,0,0,207,208,0,0,0,0,0,207,208,0,0,
0,0,0,0,0,0,0,0,0,0,0,0,0,0,0,0,
0,0,0,0,0,0,0,0,0,0,0,0,0,0,0,0,
0,0,0,0,0,0,0,0,0,0,0,0,0,0,0,0,
0,0,0,0,0,0,0,0,0,0,0,0,0,0,0,0,
0,0,0,0,0,0,0,0,0,0,0,0,0,0,0,0
</chunk>
   <chunk x="64" y="0" width="16" height="16">
0,0,0,0,0,0,0,0,0,0,0,0,0,0,0,0,
0,0,0,0,0,0,0,0,0,0,0,0,0,0,0,0,
3221225680,3221225679,0,0,0,0,0,0,0,0,0,0,0,0,0,3221225680,
3221225680,3221225679,0,0,0,0,0,0,0,0,0,0,0,0,0,3221225664,
3221225664,3221225663,0,0,0,0,0,0,0,0,0,0,0,0,0,3221225648,
3221225648,3221225647,0,0,0,0,0,0,0,0,0,0,0,0,0,0,
0,0,0,0,0,0,0,0,0,0,0,0,0,0,0,0,
0,0,0,0,0,0,0,0,0,0,0,175,176,0,0,0,
0,0,0,0,175,176,0,0,0,0,0,191,192,0,0,175,
0,0,0,0,191,192,0,0,0,0,0,207,208,0,0,191,
0,0,0,0,207,208,0,0,0,0,0,207,208,0,0,207,
0,0,0,0,0,0,0,0,0,0,0,0,0,0,0,0,
0,0,0,0,0,0,0,0,0,0,0,0,0,0,0,0,
0,0,0,0,0,0,0,0,0,0,0,0,0,0,0,0,
0,0,0,0,0,0,0,0,0,0,0,0,0,0,0,0,
0,0,0,0,0,0,0,0,0,0,0,0,0,0,0,0
</chunk>
   <chunk x="80" y="0" width="16" height="16">
0,0,0,0,0,0,0,0,0,0,0,0,0,0,0,0,
0,0,0,0,0,0,0,0,0,0,0,0,0,0,0,0,
3221225679,0,0,0,0,0,0,0,0,0,0,0,0,0,0,0,
3221225663,0,0,0,0,0,0,0,209,2147483857,0,0,0,0,0,0,
3221225647,0,0,0,0,0,0,0,209,2147483857,0,0,0,0,0,0,
0,0,0,0,0,0,0,0,209,2147483857,0,0,0,0,0,0,
0,0,0,0,0,0,0,0,209,2147483857,0,0,0,0,0,0,
0,0,0,0,0,0,0,0,209,2147483857,0,0,0,0,0,0,
176,0,0,0,0,0,0,0,209,2147483857,0,0,0,0,0,0,
192,0,0,0,0,0,0,0,209,2147483857,0,230,230,230,230,230,
208,0,0,0,0,0,0,0,209,2147483857,0,230,230,230,230,230,
0,0,0,0,0,0,0,0,209,2147483857,230,230,230,230,230,230,
0,0,0,0,0,0,0,0,0,0,0,0,0,0,0,0,
0,0,0,0,0,0,0,0,0,0,0,0,0,0,0,0,
0,0,0,0,0,0,0,0,0,0,0,0,0,0,0,0,
0,0,0,0,0,0,0,0,0,0,0,0,0,0,0,0
</chunk>
   <chunk x="96" y="0" width="16" height="16">
0,0,0,0,0,0,0,0,0,0,0,0,0,0,0,0,
0,0,0,0,0,0,0,0,0,0,0,0,40,41,42,0,
0,0,0,0,0,0,0,0,0,0,0,0,40,41,42,0,
0,0,0,0,0,0,0,0,0,0,0,0,40,41,42,0,
0,0,0,0,0,0,0,0,0,0,0,0,56,57,58,0,
0,0,0,0,0,0,0,0,0,0,0,0,0,0,0,0,
0,0,0,0,0,0,0,0,0,0,0,0,0,0,0,0,
0,0,0,0,0,0,0,0,0,0,0,53,54,54,54,54,
0,0,0,0,0,0,0,0,0,0,0,69,70,70,70,70,
0,0,0,0,0,0,0,0,0,0,0,40,41,41,42,0,
0,0,0,0,0,0,0,0,0,0,0,40,41,41,42,0,
0,0,0,0,0,0,0,0,0,0,0,40,41,41,42,0,
0,0,0,0,0,0,0,0,0,0,0,0,0,0,0,0,
0,0,0,0,0,0,0,0,0,0,0,0,0,0,0,0,
0,0,0,0,0,0,0,0,0,0,0,0,0,0,0,0,
0,0,0,0,0,0,0,0,0,0,0,0,0,0,0,0
</chunk>
   <chunk x="112" y="0" width="16" height="16">
0,0,0,0,0,0,0,0,0,0,0,0,0,0,0,0,
0,0,0,0,0,0,0,0,0,0,40,41,42,0,0,0,
0,0,0,0,0,0,0,0,0,0,40,41,42,0,0,0,
0,0,0,0,0,0,0,0,0,0,40,41,42,0,0,0,
0,0,0,0,0,0,0,0,0,0,56,57,58,0,0,0,
0,0,0,0,0,0,0,0,0,0,0,0,0,0,0,0,
0,0,0,0,0,0,0,0,0,0,0,0,0,0,0,0,
54,55,0,0,0,0,0,0,0,0,0,0,0,0,0,0,
70,70,0,0,0,0,0,0,0,0,0,0,0,0,0,0,
0,0,0,0,0,0,0,0,0,0,0,0,0,0,0,0,
0,0,0,0,0,0,0,0,0,0,0,0,0,0,0,0,
0,0,0,0,0,0,0,0,0,0,0,0,0,0,0,0,
0,0,0,0,0,0,0,0,0,0,0,0,0,0,0,0,
0,0,0,0,0,0,0,0,0,0,0,0,0,0,0,0,
0,0,0,0,0,0,0,0,0,0,0,0,0,0,0,0,
0,0,0,0,0,0,0,0,0,0,0,0,0,0,0,0
</chunk>
   <chunk x="128" y="0" width="16" height="16">
0,0,0,0,0,0,0,0,0,0,0,0,0,0,0,0,
0,209,230,230,230,230,230,230,230,0,0,0,0,0,0,0,
0,0,0,0,0,0,0,0,0,0,0,0,0,0,0,0,
0,0,0,0,0,0,0,0,0,0,0,0,0,0,0,0,
0,0,0,0,0,0,0,0,0,0,0,0,0,0,0,0,
0,0,0,0,0,0,0,0,0,0,0,0,0,0,0,0,
0,0,0,0,0,0,0,0,0,0,0,0,0,0,0,0,
0,0,0,230,0,0,0,0,0,0,0,0,0,0,0,0,
0,195,0,230,0,0,0,0,0,0,0,0,0,0,0,0,
0,197,0,230,0,0,0,0,0,0,0,0,230,230,0,0,
0,0,0,230,230,230,230,230,230,230,230,230,230,230,230,230,
0,0,0,230,230,0,0,0,0,0,0,0,0,0,0,0,
0,0,0,0,0,0,0,0,0,0,0,0,0,0,0,0,
0,0,0,0,0,0,0,0,0,0,0,0,0,0,0,0,
0,0,0,0,0,0,0,0,0,0,0,0,0,0,0,0,
0,0,0,0,0,0,0,0,0,0,0,0,0,0,0,0
</chunk>
   <chunk x="144" y="0" width="16" height="16">
0,0,0,0,0,0,0,0,0,0,0,0,0,0,0,0,
0,0,0,230,230,230,0,0,0,0,0,0,0,0,0,0,
0,0,0,0,0,0,0,0,0,0,0,0,0,0,0,0,
0,0,0,0,0,0,0,0,0,0,0,0,0,0,0,0,
0,0,0,0,0,111,216,217,218,112,0,0,0,0,0,0,
0,0,0,0,0,127,78,14,77,128,0,0,0,0,0,0,
0,0,0,0,0,95,3221225549,3221225486,3221225550,96,0,0,0,0,0,0,
0,0,0,0,0,0,0,0,0,0,0,0,0,0,0,0,
0,0,0,0,0,0,0,0,0,0,0,0,0,0,0,0,
0,0,0,0,0,0,0,0,0,0,0,0,0,0,0,0,
230,230,230,230,230,230,230,230,230,230,230,0,0,0,0,0,
0,0,0,0,0,0,0,0,0,0,0,0,0,0,0,0,
0,0,0,0,0,0,0,0,0,0,0,0,0,0,0,0,
0,0,0,0,0,0,0,0,0,0,0,0,0,0,0,0,
0,0,0,0,0,0,0,0,0,0,0,0,0,0,0,0,
0,0,0,0,0,0,0,0,0,0,0,0,0,0,0,0
</chunk>
   <chunk x="192" y="16" width="16" height="16">
0,0,0,0,0,0,0,0,0,0,0,0,0,0,0,0,
0,0,0,0,0,0,0,0,0,0,0,0,0,0,0,0,
0,0,0,0,0,0,0,0,0,0,0,0,0,0,0,0,
0,0,0,0,0,0,0,0,0,0,0,0,0,0,0,0,
0,0,0,0,0,0,0,0,0,0,0,0,0,0,0,0,
0,0,0,0,0,0,0,0,0,0,0,0,0,0,0,0,
0,0,0,0,0,0,0,0,0,0,0,0,0,0,0,0,
0,0,0,0,0,0,0,0,0,0,0,0,0,0,0,0,
0,0,0,0,0,0,0,0,0,0,0,0,0,0,0,0,
0,0,0,0,0,0,0,0,0,0,0,0,0,0,0,0,
0,0,0,0,0,0,0,0,0,0,0,0,0,0,0,0,
0,0,0,0,0,0,0,0,0,0,0,0,50,51,51,51,
0,0,0,0,0,0,0,0,0,0,0,0,66,67,67,67,
0,0,0,51,51,51,52,0,0,0,0,0,0,0,0,0,
0,0,0,67,67,67,68,0,0,0,0,0,0,0,0,0,
0,0,0,0,0,0,0,0,0,0,0,0,0,0,0,0
</chunk>
   <chunk x="208" y="16" width="16" height="16">
0,0,0,0,0,0,0,0,0,0,0,0,0,0,0,0,
0,0,0,0,0,0,0,0,0,0,0,0,0,0,0,0,
0,0,0,0,0,0,0,0,0,0,0,0,0,0,0,0,
0,0,0,0,0,0,0,0,0,0,0,0,0,0,0,0,
0,0,0,0,0,0,0,0,0,0,0,0,0,0,0,0,
0,0,0,0,0,0,0,0,0,0,0,0,0,0,0,0,
0,0,0,0,0,0,0,0,0,0,0,0,0,0,0,0,
0,0,0,0,0,0,0,0,0,0,0,0,0,0,0,0,
0,0,0,0,0,0,0,0,0,0,0,0,0,0,0,0,
0,0,0,0,0,0,0,0,0,0,0,0,0,0,0,0,
0,0,0,0,0,0,0,0,0,0,0,0,0,0,0,0,
51,51,0,0,0,0,0,0,0,0,0,0,0,0,0,0,
67,67,0,0,0,0,0,0,0,0,0,0,0,0,0,0,
0,0,0,0,0,0,0,0,0,0,0,0,0,0,0,0,
0,0,0,0,0,0,0,0,0,0,0,0,0,0,0,0,
0,0,0,0,0,0,0,0,0,0,0,0,0,0,0,0
</chunk>
   <chunk x="192" y="32" width="16" height="16">
0,0,0,0,0,0,0,0,0,0,0,0,0,0,0,0,
0,0,0,0,50,51,52,0,0,0,0,0,0,50,51,52,
0,0,0,0,66,67,68,0,0,0,0,0,0,66,67,68,
0,0,0,0,0,0,0,0,0,0,0,0,0,0,0,0,
0,0,0,0,0,0,0,0,50,51,52,0,0,0,0,0,
0,0,0,0,0,0,0,0,66,67,68,0,0,0,0,0,
0,0,0,0,0,0,0,0,0,0,0,0,0,0,0,0,
0,0,0,0,0,0,0,0,0,0,0,0,0,0,50,51,
0,0,0,0,0,0,0,0,0,0,0,0,0,0,66,67,
0,0,0,0,50,51,52,0,0,0,0,0,0,0,0,0,
0,0,0,0,66,67,68,0,0,0,0,0,0,0,0,0,
0,0,0,0,0,0,0,0,0,0,0,0,0,0,0,0,
0,0,0,0,0,0,0,0,0,0,0,0,111,181,182,183,
0,0,0,0,0,0,0,0,0,0,0,111,127,78,15,15,
0,0,0,112,0,0,0,0,0,0,0,127,2684354670,31,31,31,
0,0,0,128,112,0,0,0,0,0,0,95,110,31,31,31
</chunk>
   <chunk x="208" y="32" width="16" height="16">
0,0,0,0,0,0,0,0,0,0,0,0,0,0,0,0,
0,0,0,0,0,0,0,0,0,0,0,0,0,0,0,0,
0,0,0,0,0,0,0,0,0,0,0,0,0,0,0,0,
0,0,0,0,0,0,0,0,0,0,0,0,0,0,0,0,
0,0,0,0,0,0,0,0,0,0,0,0,0,0,0,0,
0,0,0,0,0,0,0,0,0,0,0,0,0,0,0,0,
0,0,0,0,0,0,0,0,0,0,0,0,0,0,0,0,
52,0,0,0,0,0,0,0,0,0,0,0,0,0,0,0,
68,0,0,0,0,0,0,0,0,0,0,0,0,0,0,0,
0,0,0,0,0,0,0,0,0,0,0,0,0,0,0,0,
0,0,0,0,0,0,0,0,0,0,0,0,0,0,0,0,
0,0,0,0,0,0,0,0,0,0,0,0,0,0,0,0,
184,25,0,0,0,0,0,0,0,0,0,0,0,0,0,0,
15,15,0,0,0,0,0,0,0,0,0,0,0,0,0,0,
31,31,0,0,0,0,0,0,0,0,0,0,0,0,0,0,
31,31,0,0,0,0,0,0,0,0,0,0,0,0,0,0
</chunk>
   <chunk x="192" y="48" width="16" height="16">
0,0,0,3221225582,128,112,0,0,0,0,0,0,95,110,31,31,
0,0,0,31,3221225582,128,112,0,0,0,0,0,0,95,110,31,
0,0,0,31,31,3221225582,128,112,0,0,0,0,0,0,95,110,
0,0,0,31,31,31,3221225582,128,112,0,0,0,0,0,0,95,
0,0,0,31,31,31,31,3221225582,128,112,0,0,0,0,0,0,
0,0,0,31,31,31,31,31,3221225582,128,0,0,0,0,0,0,
0,0,0,31,31,31,31,31,31,3221225597,0,0,0,0,0,0,
0,0,0,31,31,31,31,31,1610612846,96,0,0,0,0,0,0,
0,0,0,31,31,31,31,1610612846,96,0,0,0,0,0,0,111,
0,0,0,31,31,31,1610612846,96,0,0,0,0,0,0,111,127,
0,0,0,31,31,1610612846,96,0,0,0,0,0,0,111,127,2684354670,
0,0,0,31,1610612846,96,0,0,0,0,0,0,111,127,2684354670,31,
0,0,0,1073741901,96,0,0,0,0,0,0,111,127,2684354670,31,31,
0,0,0,0,0,0,0,0,0,0,111,127,2684354670,31,31,31,
0,0,0,0,0,0,0,0,0,0,127,2684354670,31,31,31,31,
0,0,0,0,0,0,0,0,0,0,125,31,31,31,31,31
</chunk>
   <chunk x="208" y="48" width="16" height="16">
31,31,0,0,0,0,0,0,0,0,0,0,0,0,0,0,
31,31,0,0,0,0,0,0,0,0,0,0,0,0,0,0,
31,31,0,0,0,0,0,0,0,0,0,0,0,0,0,0,
110,31,0,0,0,0,0,0,0,0,0,0,0,0,0,0,
95,110,0,0,0,0,0,0,0,0,0,0,0,0,0,0,
0,95,40,0,0,0,0,0,0,0,0,0,0,0,0,0,
0,111,0,0,0,0,0,0,0,0,0,0,0,0,0,0,
111,127,0,0,0,0,0,0,0,0,0,0,0,0,0,0,
127,2684354670,0,0,0,0,0,0,0,0,0,0,0,0,0,0,
2684354670,31,0,0,0,0,0,0,0,0,0,0,0,0,0,0,
31,31,0,0,0,0,0,0,0,0,0,0,0,0,0,0,
31,31,0,0,0,0,0,0,0,0,0,0,0,0,0,0,
31,31,0,0,0,0,0,0,0,0,0,0,0,0,0,0,
31,31,0,0,0,0,0,0,0,0,0,0,0,0,0,0,
31,31,0,0,0,0,0,0,0,0,0,0,0,0,0,0,
31,31,0,0,0,0,0,0,0,0,0,0,0,0,0,0
</chunk>
   <chunk x="192" y="64" width="16" height="16">
0,0,0,0,0,0,0,0,0,0,95,1073741902,3221225486,3221225487,3221225486,3221225487,
0,0,0,0,0,0,0,0,0,0,0,0,0,0,0,0,
0,0,0,0,0,0,0,0,0,0,0,0,0,0,0,0,
0,0,0,0,0,0,0,0,0,0,0,0,0,0,0,0,
0,0,0,0,0,0,0,0,0,50,51,51,2147483699,2147483699,2147483699,2147483699,
0,0,0,0,0,0,0,0,0,66,67,67,2147483715,2147483715,2147483715,2147483715,
0,0,0,0,0,0,0,0,0,0,0,0,0,0,0,0,
0,0,41,0,0,0,0,0,0,0,0,0,0,0,0,0,
0,0,41,0,0,0,0,0,0,0,0,0,0,0,0,0,
0,0,41,0,0,0,0,0,0,0,0,0,0,0,0,0,
0,0,0,0,0,0,0,0,0,0,0,0,0,0,0,0,
0,0,0,0,0,0,0,0,0,0,0,0,0,0,0,0,
0,0,0,0,0,0,0,0,0,0,0,0,0,0,0,0,
0,0,0,0,0,0,0,0,0,0,0,0,0,0,0,0,
0,0,0,0,0,0,0,0,0,0,0,0,0,0,0,0,
0,0,0,0,0,0,0,0,0,0,0,0,0,0,0,0
</chunk>
   <chunk x="208" y="64" width="16" height="16">
3221225486,3221225487,0,0,0,0,0,0,0,0,0,0,0,0,0,0,
0,0,0,0,0,0,0,0,0,0,0,0,0,0,0,0,
0,0,0,0,0,0,0,0,0,0,0,0,0,0,0,0,
0,0,0,0,0,0,0,0,0,0,0,0,0,0,0,0,
2147483699,2147483698,0,0,0,0,0,0,0,0,0,0,0,0,0,0,
2147483715,2147483714,41,0,0,0,0,0,0,0,0,0,0,0,0,0,
0,0,41,0,0,0,0,0,0,0,0,0,0,0,0,0,
41,41,41,0,0,0,0,0,0,0,0,0,0,0,0,0,
0,0,0,0,0,0,0,0,0,0,0,0,0,0,0,0,
0,0,0,0,0,0,0,0,0,0,0,0,0,0,0,0,
0,0,0,0,0,0,0,0,0,0,0,0,0,0,0,0,
0,0,0,0,0,0,0,0,0,0,0,0,0,0,0,0,
0,0,0,0,0,0,0,0,0,0,0,0,0,0,0,0,
0,0,0,0,0,0,0,0,0,0,0,0,0,0,0,0,
0,0,0,0,0,0,0,0,0,0,0,0,0,0,0,0,
0,0,0,0,0,0,0,0,0,0,0,0,0,0,0,0
</chunk>
   <chunk x="224" y="64" width="16" height="16">
0,0,0,0,0,0,0,0,0,0,0,0,0,0,0,0,
0,0,0,0,0,0,0,0,0,0,0,0,0,0,0,0,
0,0,0,0,0,0,0,0,0,0,0,0,0,0,0,0,
0,0,0,0,0,0,0,0,0,0,0,0,0,0,0,0,
0,0,0,0,0,0,0,0,0,0,0,0,0,0,0,0,
0,0,0,0,0,0,0,0,0,0,0,0,0,0,0,0,
0,0,0,0,0,0,0,0,0,0,0,0,0,0,0,0,
0,0,0,0,0,0,0,0,0,0,0,0,0,0,0,0,
0,0,0,0,0,0,0,0,0,0,0,0,0,0,0,0,
0,0,0,0,0,0,0,0,0,0,0,0,0,0,0,0,
0,0,0,0,0,0,0,0,0,0,0,0,0,0,0,0,
0,0,0,0,0,0,0,0,0,0,0,0,0,0,0,0,
0,0,0,0,0,0,0,0,0,0,0,0,0,0,0,0,
0,0,0,0,0,0,53,54,54,55,0,0,0,0,0,0,
0,0,0,0,0,0,9,70,70,70,54,55,0,0,0,0,
0,0,0,0,0,0,0,0,0,0,0,0,0,0,0,0
</chunk>
   <chunk x="240" y="64" width="16" height="16">
0,0,0,0,0,0,0,0,0,0,0,0,0,0,0,0,
0,0,0,0,0,0,0,0,0,0,0,0,0,0,0,0,
0,0,0,0,0,0,0,0,0,0,0,0,0,0,0,0,
0,0,0,0,0,0,0,0,0,0,0,0,0,0,0,0,
0,0,0,0,0,0,0,0,0,0,0,0,0,0,0,0,
0,0,0,0,0,0,0,0,0,0,0,0,0,0,0,0,
0,0,0,0,0,0,0,0,0,0,0,0,0,0,0,0,
0,0,0,0,0,0,0,0,0,0,0,0,0,0,0,41,
0,0,0,0,0,0,0,0,0,0,0,0,0,0,0,41,
0,0,0,0,0,0,0,0,0,0,0,0,0,0,0,41,
0,0,0,0,0,0,0,0,0,0,0,0,0,0,0,41,
0,0,0,0,0,0,0,0,0,0,0,0,0,0,0,0,
0,0,0,0,0,0,0,0,0,0,0,0,0,0,0,0,
0,0,0,0,0,0,0,0,0,0,0,0,0,0,0,0,
0,0,0,0,0,0,0,0,0,0,0,0,0,0,0,0,
0,0,0,0,0,0,0,0,53,54,54,54,55,0,0,0
</chunk>
   <chunk x="256" y="64" width="16" height="16">
0,0,0,0,0,0,0,0,0,0,0,0,0,0,0,0,
0,0,0,0,0,0,0,0,0,0,0,0,0,0,0,0,
0,0,0,0,0,0,0,0,0,0,0,0,0,0,0,0,
0,0,0,0,0,0,0,0,0,0,0,0,0,0,0,0,
0,0,0,0,0,0,0,0,0,0,0,0,0,0,0,0,
0,0,0,0,0,0,0,0,0,0,0,0,0,0,0,0,
0,0,0,0,0,0,0,0,0,0,0,0,0,0,0,0,
41,0,0,0,0,0,0,0,0,0,0,0,41,3221225512,0,0,
0,0,0,0,0,0,0,0,0,0,0,0,40,3221225512,0,0,
0,0,0,0,0,0,0,0,0,0,0,0,40,3221225512,0,0,
0,0,0,0,0,0,0,0,0,0,0,0,40,3221225512,0,0,
0,0,0,0,0,0,0,0,0,0,0,0,1073741893,3221225541,0,0,
0,0,0,0,0,0,0,0,0,0,0,0,3221225527,3221225525,0,0,
0,0,0,0,0,0,0,0,0,0,0,0,0,0,0,0,
0,0,0,0,0,0,0,0,0,0,0,0,0,0,0,0,
0,0,0,0,0,0,0,0,0,0,0,0,53,55,0,0
</chunk>
   <chunk x="272" y="64" width="16" height="16">
0,0,0,0,0,0,0,0,0,0,0,0,0,0,0,0,
0,0,0,0,0,0,0,0,0,0,0,0,0,0,0,0,
0,0,0,0,0,0,0,0,0,0,0,0,0,0,0,0,
0,0,0,0,0,0,0,0,0,0,0,0,0,0,0,0,
0,0,0,0,0,0,0,0,0,0,0,0,0,0,0,0,
0,0,0,0,0,0,0,0,0,0,0,0,0,0,0,0,
0,0,0,0,0,0,0,0,0,0,0,0,0,0,0,0,
0,0,0,0,0,0,0,0,0,0,0,0,41,41,41,41,
0,0,0,0,0,0,0,0,0,0,0,0,0,0,0,0,
0,0,0,0,0,0,0,0,0,0,0,0,0,0,0,0,
0,0,0,0,0,0,0,0,0,0,0,0,0,0,0,0,
0,0,0,0,0,0,0,0,0,0,0,0,0,0,0,0,
0,0,0,0,0,0,0,0,0,0,0,0,0,0,0,0,
0,0,0,0,0,0,0,0,0,0,0,0,0,0,0,0,
0,0,0,0,0,0,0,0,0,0,0,0,0,0,0,0,
0,0,0,0,0,0,0,0,0,0,0,0,0,0,0,0
</chunk>
   <chunk x="288" y="64" width="16" height="16">
0,0,0,0,0,0,0,0,0,0,0,0,0,0,0,0,
0,0,0,0,0,0,0,0,0,0,0,0,0,0,0,0,
0,0,0,0,0,0,0,0,0,0,0,0,0,0,0,0,
0,0,0,0,0,0,0,0,0,0,0,0,0,0,0,0,
0,0,0,0,0,0,0,0,0,0,0,0,0,0,0,0,
0,0,0,0,0,0,0,0,0,0,0,0,0,0,0,0,
0,0,0,0,0,0,0,0,0,0,0,0,0,0,0,0,
41,0,0,0,0,0,0,0,0,0,0,0,0,0,0,0,
41,0,0,0,0,0,0,0,0,0,0,0,0,0,0,0,
41,0,0,0,0,0,0,0,0,0,0,0,0,0,0,0,
41,0,0,0,0,0,0,0,0,0,0,0,0,0,0,0,
41,0,0,0,0,0,0,0,0,0,0,0,0,0,0,0,
41,0,0,0,0,0,0,0,0,0,0,0,0,0,0,0,
41,0,0,0,0,0,0,0,0,0,0,0,0,0,0,0,
41,0,0,0,0,0,0,0,0,0,0,0,0,0,0,0,
41,0,0,0,0,0,0,0,0,0,0,0,0,0,0,0
</chunk>
   <chunk x="192" y="80" width="16" height="16">
0,0,0,0,0,0,0,0,0,0,0,0,0,0,0,0,
0,0,0,0,0,0,0,0,0,0,0,25,25,25,25,25,
0,0,0,0,0,0,0,0,0,0,0,0,0,0,0,41,
0,0,0,0,0,0,0,0,0,0,0,0,0,0,0,0,
0,0,0,0,0,0,0,0,0,0,0,0,0,0,0,0,
0,0,0,0,0,0,0,0,0,0,0,0,0,0,0,0,
0,0,0,0,0,0,0,0,0,0,0,0,0,0,0,0,
0,0,0,0,0,0,0,0,0,0,0,0,0,0,0,0,
0,0,0,0,0,0,0,0,0,0,0,0,0,0,0,0,
0,0,0,0,0,0,0,0,0,0,0,0,0,0,0,0,
0,0,0,0,0,0,0,0,0,0,0,0,0,0,0,0,
0,0,0,0,0,0,0,0,0,0,0,0,0,0,0,0,
0,0,0,0,0,0,0,0,0,0,0,0,0,0,0,0,
0,0,0,0,0,0,0,0,0,0,0,0,0,0,0,0,
0,0,0,0,0,0,0,0,0,0,0,0,0,0,0,0,
0,0,0,0,0,0,0,0,0,0,0,0,0,0,0,0
</chunk>
   <chunk x="208" y="80" width="16" height="16">
0,0,0,0,0,0,0,0,0,0,0,0,0,0,0,0,
25,25,25,25,25,25,41,41,41,25,25,25,25,25,25,25,
41,41,41,41,0,0,0,0,0,0,0,0,0,0,0,0,
0,0,0,0,0,0,0,0,0,0,0,0,0,0,0,0,
0,0,0,0,0,0,0,0,0,0,0,0,0,0,0,0,
0,0,0,0,0,0,0,0,0,0,0,0,0,0,0,0,
0,0,0,0,0,0,0,0,0,0,0,0,0,0,0,0,
0,0,0,0,0,0,0,0,0,0,0,0,0,0,0,0,
0,0,0,0,0,0,0,0,0,0,0,0,0,0,0,0,
0,0,0,0,0,0,0,0,0,0,0,0,0,0,0,0,
0,0,0,0,0,0,0,0,0,0,0,0,0,0,0,0,
0,0,0,0,0,0,0,0,0,0,0,0,0,0,0,0,
0,0,0,0,0,0,0,0,0,0,0,0,0,0,0,0,
0,0,0,0,0,0,0,0,0,0,0,0,0,0,0,0,
0,0,0,0,0,0,0,0,0,0,0,0,0,0,0,0,
0,0,0,0,0,0,0,0,0,0,0,0,0,0,0,0
</chunk>
   <chunk x="224" y="80" width="16" height="16">
0,0,0,53,54,54,54,54,54,54,54,54,54,54,54,54,
25,25,26,69,70,70,70,70,70,70,70,70,70,70,70,70,
0,0,42,40,57,57,57,57,57,57,57,57,57,57,57,57,
0,0,0,0,0,0,0,0,0,0,0,0,0,0,0,0,
0,0,0,0,0,0,0,0,0,0,0,0,0,0,0,0,
0,0,0,0,0,0,0,0,0,0,0,0,0,0,0,0,
0,0,0,0,0,0,0,0,0,0,0,0,0,0,0,0,
0,0,0,0,0,0,0,0,0,0,0,0,0,0,0,0,
0,0,0,0,0,0,0,0,0,0,0,0,0,0,0,0,
0,0,0,0,0,0,0,0,0,0,0,0,0,0,0,0,
0,0,0,0,0,0,0,0,0,0,0,0,0,0,0,0,
0,0,0,0,0,0,0,0,0,0,0,0,0,0,0,0,
0,0,0,0,0,0,0,0,0,0,0,0,0,0,0,0,
0,0,0,0,0,0,0,0,0,0,0,0,0,0,0,0,
0,0,0,0,0,0,0,0,0,0,0,0,0,0,0,0,
0,0,0,0,0,0,0,0,0,0,0,0,0,0,0,0
</chunk>
   <chunk x="240" y="80" width="16" height="16">
54,54,54,54,54,54,54,55,69,70,70,70,71,0,0,0,
70,70,70,70,70,70,70,71,9,41,41,41,10,0,0,0,
57,57,57,57,57,57,57,58,58,57,57,57,57,0,0,0,
0,0,0,0,0,0,0,0,0,0,0,0,0,0,0,0,
0,0,0,0,0,0,0,0,0,0,0,0,0,0,0,0,
0,0,0,0,0,0,0,0,0,0,0,0,0,0,0,0,
0,0,0,0,0,0,0,0,0,0,0,0,0,0,0,0,
0,0,0,0,0,0,0,0,0,0,0,0,0,0,0,0,
0,0,0,0,0,0,0,0,0,0,0,0,0,0,0,0,
0,0,0,0,0,0,0,0,0,0,0,0,0,0,0,0,
0,0,0,0,0,0,0,0,0,0,0,0,0,0,0,0,
0,0,0,0,0,0,0,0,0,0,0,0,0,0,0,0,
0,0,0,0,0,0,0,0,0,0,0,0,0,0,0,0,
0,0,0,0,0,0,0,0,0,0,0,0,0,0,0,0,
0,0,0,0,0,0,0,0,0,0,0,0,0,0,0,0,
0,0,0,0,0,0,0,0,0,0,0,0,0,0,0,0
</chunk>
   <chunk x="256" y="80" width="16" height="16">
0,0,0,0,0,0,0,0,0,0,0,0,69,71,0,0,
0,0,0,0,0,0,0,0,0,0,0,0,69,71,0,0,
0,0,0,0,0,0,0,0,0,0,0,0,0,0,0,0,
0,0,0,0,0,0,0,0,0,0,0,0,0,0,0,0,
0,0,0,0,0,0,0,0,0,0,0,0,0,0,0,0,
0,0,0,0,0,0,0,0,0,0,0,0,0,0,0,0,
0,0,0,0,0,0,0,0,0,0,0,0,0,0,0,0,
0,0,0,0,0,0,0,0,0,0,0,0,0,0,0,0,
0,0,0,0,0,0,0,0,0,0,0,0,0,0,0,0,
0,0,0,0,0,0,0,0,0,0,0,0,0,0,0,0,
0,0,0,0,0,0,0,0,0,0,0,0,0,0,0,0,
0,0,0,0,0,0,0,0,0,0,0,0,0,0,0,0,
0,0,0,0,0,0,0,0,0,0,0,0,0,0,0,0,
0,0,0,0,0,0,0,0,0,0,0,0,0,0,0,0,
0,0,0,0,0,0,0,0,0,0,0,0,0,0,0,0,
0,0,0,0,0,0,0,0,0,0,0,0,0,0,0,0
</chunk>
   <chunk x="272" y="80" width="16" height="16">
0,0,0,0,0,0,0,0,0,0,0,0,0,0,0,0,
0,0,0,0,0,0,0,0,0,0,0,41,41,41,41,41,
0,0,0,0,0,0,0,0,0,0,0,0,0,0,0,0,
0,0,0,0,0,0,0,0,0,0,0,0,0,0,0,0,
0,0,0,0,0,0,0,0,0,0,0,0,0,0,0,0,
0,0,0,0,0,0,0,0,0,0,0,0,0,0,0,0,
0,0,0,0,0,0,0,0,0,0,0,0,0,0,0,0,
0,0,0,0,0,0,0,0,0,0,0,0,0,0,0,0,
0,0,0,0,0,0,0,0,0,0,0,0,0,0,0,0,
0,0,0,0,0,0,0,0,0,0,0,0,0,0,0,0,
0,0,0,0,0,0,0,0,0,0,0,0,0,0,0,0,
0,0,0,0,0,0,0,0,0,0,0,0,0,0,0,0,
0,0,0,0,0,0,0,0,0,0,0,0,0,0,0,0,
0,0,0,0,0,0,0,0,0,0,0,0,0,0,0,0,
0,0,0,0,0,0,0,0,0,0,0,0,0,0,0,0,
0,0,0,0,0,0,0,0,0,0,0,0,0,0,0,0
</chunk>
   <chunk x="288" y="80" width="16" height="16">
41,0,0,0,0,0,0,0,0,0,0,0,0,0,0,0,
41,0,0,0,0,0,0,0,0,0,0,0,0,0,0,0,
0,0,0,0,0,0,0,0,0,0,0,0,0,0,0,0,
0,0,0,0,0,0,0,0,0,0,0,0,0,0,0,0,
0,0,0,0,0,0,0,0,0,0,0,0,0,0,0,0,
0,0,0,0,0,0,0,0,0,0,0,0,0,0,0,0,
0,0,0,0,0,0,0,0,0,0,0,0,0,0,0,0,
0,0,0,0,0,0,0,0,0,0,0,0,0,0,0,0,
0,0,0,0,0,0,0,0,0,0,0,0,0,0,0,0,
0,0,0,0,0,0,0,0,0,0,0,0,0,0,0,0,
0,0,0,0,0,0,0,0,0,0,0,0,0,0,0,0,
0,0,0,0,0,0,0,0,0,0,0,0,0,0,0,0,
0,0,0,0,0,0,0,0,0,0,0,0,0,0,0,0,
0,0,0,0,0,0,0,0,0,0,0,0,0,0,0,0,
0,0,0,0,0,0,0,0,0,0,0,0,0,0,0,0,
0,0,0,0,0,0,0,0,0,0,0,0,0,0,0,0
</chunk>
  </data>
 </layer>
 <layer id="9" name="Ground" width="37" height="135">
  <data encoding="csv">
   <chunk x="-32" y="0" width="16" height="16">
0,0,56,57,57,57,57,57,57,57,57,57,57,57,57,58,
0,0,0,0,0,0,0,0,0,0,0,0,0,0,0,0,
0,0,0,0,0,0,0,0,0,0,0,0,0,0,0,0,
0,0,0,0,0,0,0,0,0,0,0,0,0,0,0,0,
0,0,0,0,0,0,0,0,0,0,0,0,0,0,0,0,
0,0,0,0,0,0,0,0,0,0,0,0,0,0,0,0,
0,0,0,0,0,0,0,0,0,0,0,0,0,0,0,0,
0,0,0,0,0,0,0,0,0,0,0,0,0,0,0,0,
0,0,0,0,0,0,0,0,0,0,0,0,0,0,0,0,
0,0,0,0,0,0,0,0,0,0,0,0,0,0,0,0,
0,0,53,54,54,54,54,54,54,54,54,54,54,54,54,55,
0,0,69,70,70,70,70,70,70,70,70,70,70,70,70,71,
0,0,0,0,0,0,0,0,0,0,0,0,0,0,0,0,
0,0,0,0,0,0,0,0,0,0,0,0,0,0,0,0,
0,0,0,0,0,0,0,0,0,0,0,0,0,0,0,0,
0,0,0,0,0,0,0,0,0,0,0,0,0,0,0,0
</chunk>
   <chunk x="-16" y="0" width="16" height="16">
207,208,145,0,0,0,0,0,0,0,0,0,0,0,0,0,
3221225680,3221225679,145,146,147,146,147,146,147,146,147,146,147,113,114,115,
3221225664,3221225663,161,162,163,164,161,162,163,164,161,162,163,164,0,0,
3221225648,3221225647,0,0,0,0,0,0,0,0,0,0,0,0,0,0,
0,0,0,0,0,0,0,0,0,0,0,0,0,0,0,0,
0,0,0,0,0,0,0,0,0,0,0,0,0,0,0,0,
0,0,0,0,0,0,0,0,0,0,0,0,0,0,0,0,
0,0,0,0,0,0,0,0,0,0,0,0,0,0,0,0,
175,176,0,0,0,0,0,0,0,0,0,0,0,0,0,0,
191,192,0,0,0,0,0,0,0,0,0,0,0,0,0,0,
207,208,0,0,0,0,0,0,0,0,0,0,0,0,113,2684354689,
207,208,113,114,115,114,115,114,115,114,115,116,0,0,145,0,
0,0,0,0,0,0,0,0,0,0,0,0,0,0,0,0,
0,0,0,0,0,0,0,0,0,0,0,0,0,0,0,0,
0,0,0,0,0,0,0,0,0,0,0,0,0,0,0,0,
0,0,0,0,0,0,0,0,0,0,0,0,0,0,0,0
</chunk>
   <chunk x="0" y="0" width="16" height="16">
129,0,0,0,0,0,0,0,0,0,0,0,0,0,0,0,
114,115,114,115,114,115,114,115,114,115,114,115,116,0,0,0,
0,0,0,0,0,0,0,0,0,0,0,0,3221225588,3221225587,3221225586,3221225587,
0,0,0,0,0,0,0,0,0,0,0,0,0,0,0,0,
0,0,0,0,0,0,0,0,0,0,0,0,0,0,0,0,
0,0,0,0,0,0,0,0,0,0,0,0,0,0,0,0,
0,0,0,0,0,0,0,0,0,0,0,0,0,0,0,0,
0,0,0,0,0,0,0,0,0,0,0,146,147,0,0,0,
0,0,0,0,0,0,0,0,0,0,0,2684354674,2684354674,0,146,147,
0,0,0,0,0,0,0,0,1610612852,2684354689,116,2684354675,2684354675,0,2684354674,2684354674,
114,115,116,0,113,114,115,116,2684354674,0,2684354674,2684354674,2684354674,0,2684354675,2684354675,
0,0,129,0,129,0,0,129,2684354675,0,2684354675,2684354675,2684354675,0,129,129,
0,0,0,0,0,0,0,0,0,0,0,0,0,0,0,0,
0,0,0,0,0,0,0,0,0,0,0,0,0,0,0,0,
0,0,0,0,0,0,0,0,0,0,0,0,0,0,0,0,
0,0,0,0,0,0,0,0,0,0,0,0,0,0,0,0
</chunk>
   <chunk x="16" y="0" width="16" height="16">
129,0,129,0,0,0,0,0,0,0,0,129,3221225680,3221225679,0,0,
0,0,0,0,0,0,0,1610612852,2684354689,2684354689,2684354689,2684354676,3221225664,3221225663,57,57,
3221225586,3221225587,3221225586,3221225587,3221225586,3221225587,3221225586,3221225585,0,0,0,0,3221225648,3221225647,0,0,
0,0,0,0,0,0,0,0,0,0,0,0,0,0,0,0,
0,0,0,0,0,0,0,0,0,0,0,0,0,0,0,0,
0,0,0,0,0,0,0,0,0,0,0,0,0,0,0,0,
0,0,0,0,0,0,0,0,0,0,0,0,0,0,0,0,
0,0,0,0,0,0,0,0,0,0,0,0,0,0,0,0,
146,147,146,147,146,147,0,0,0,0,0,0,0,0,0,0,
2684354674,2684354674,2684354674,2684354674,2684354674,2684354674,113,114,114,114,114,2684354708,2684354692,116,0,0,
2684354675,2684354675,2684354675,2684354675,2684354675,2684354675,129,0,0,0,0,0,0,145,0,0,
129,129,129,129,129,129,145,0,0,0,0,0,0,145,0,0,
0,0,0,0,0,0,0,0,0,0,0,0,0,0,0,0,
0,0,0,0,0,0,0,0,0,0,0,0,0,0,0,0,
0,0,0,0,0,0,0,0,0,0,0,0,0,0,0,0,
0,0,0,0,0,0,0,0,0,0,0,0,0,0,0,0
</chunk>
   <chunk x="32" y="0" width="16" height="16">
0,0,0,0,0,0,0,0,0,0,3221225680,3221225679,0,0,0,0,
57,57,57,57,57,57,57,57,57,57,3221225664,3221225663,57,57,57,57,
0,0,0,0,0,0,0,0,0,0,3221225648,3221225647,0,0,0,0,
0,0,0,0,0,0,0,0,0,0,0,0,0,0,0,0,
0,0,0,0,0,0,0,0,0,0,0,0,0,0,0,0,
0,0,0,0,0,0,0,0,0,0,0,0,0,0,0,0,
0,175,176,0,0,0,0,0,0,0,0,0,0,0,0,0,
0,191,192,0,0,0,0,0,0,0,0,0,0,0,0,0,
0,207,208,0,0,175,176,0,0,0,0,0,0,0,0,0,
0,207,208,0,0,191,192,0,0,0,175,176,0,0,0,0,
0,207,208,0,0,207,208,0,0,0,191,192,0,0,0,0,
0,207,208,0,0,207,208,0,0,0,207,208,0,0,0,0,
0,0,0,0,0,0,0,0,0,0,0,0,0,0,0,0,
0,0,0,0,0,0,0,0,0,0,0,0,0,0,0,0,
0,0,0,0,0,0,0,0,0,0,0,0,0,0,0,0,
0,0,0,0,0,0,0,0,0,0,0,0,0,0,0,0
</chunk>
   <chunk x="48" y="0" width="16" height="16">
0,2147483840,2147483904,2147483903,2147483902,2147483901,2147483900,2147483899,2147483898,2147483897,2147483896,2147483895,2147483904,2147483903,2147483902,2147483901,
57,3221225664,3221225728,3221225727,3221225726,3221225725,3221225724,3221225723,3221225722,3221225721,3221225720,3221225719,3221225728,3221225727,3221225726,3221225725,
0,3221225648,3221225712,3221225711,3221225710,3221225709,3221225708,3221225707,3221225706,3221225705,3221225704,3221225703,3221225712,3221225711,3221225710,3221225709,
0,0,0,0,0,0,0,0,0,0,0,0,0,0,0,0,
0,0,0,0,0,0,0,0,0,0,0,0,0,0,0,0,
0,0,0,0,0,0,0,0,0,0,0,0,0,0,0,0,
0,0,0,0,0,0,0,0,50,52,0,0,0,0,0,0,
0,0,0,0,0,0,0,0,66,68,0,0,0,0,0,0,
0,0,0,0,0,0,0,0,0,0,0,0,0,0,0,0,
0,0,0,0,0,0,0,0,0,0,0,0,0,0,0,0,
0,175,231,232,233,234,235,236,237,238,239,240,231,232,233,234,
0,191,247,248,249,250,251,252,253,254,255,256,247,248,249,250,
0,0,0,0,0,0,0,0,0,0,0,0,0,0,0,0,
0,0,0,0,0,0,0,0,0,0,0,0,0,0,0,0,
0,0,0,0,0,0,0,0,0,0,0,0,0,0,0,0,
0,0,0,0,0,0,0,0,0,0,0,0,0,0,0,0
</chunk>
   <chunk x="64" y="0" width="16" height="16">
2147483900,2147483899,2147483898,2147483897,2147483896,2147483895,2147483904,2147483903,2147483902,2147483901,2147483900,2147483899,2147483898,2147483897,2147483896,2147483895,
3221225724,3221225723,3221225722,3221225721,3221225720,3221225719,3221225728,3221225727,3221225726,3221225725,3221225724,3221225723,3221225722,3221225721,3221225720,3221225719,
3221225708,3221225707,3221225706,3221225705,3221225704,3221225703,3221225712,3221225711,3221225710,3221225709,3221225708,3221225707,3221225706,3221225705,3221225704,3221225703,
0,0,0,0,0,0,0,0,0,0,0,0,0,0,0,0,
0,0,0,0,0,0,0,0,0,0,0,0,0,0,0,0,
0,0,0,0,0,0,0,0,0,0,0,0,0,0,0,0,
0,0,0,0,0,0,0,50,52,0,0,0,0,0,0,0,
0,0,0,0,0,0,0,66,68,0,0,0,0,0,0,0,
0,0,0,0,0,0,0,0,0,0,0,0,0,0,0,0,
0,0,0,0,0,0,0,0,0,0,0,0,0,0,0,0,
235,236,237,238,239,240,231,232,233,234,235,236,237,238,239,240,
251,252,253,254,255,256,247,248,249,250,251,252,253,254,255,256,
0,0,0,0,0,0,0,0,0,0,0,0,0,0,0,0,
0,0,0,0,0,0,0,0,0,0,0,0,0,0,0,0,
0,0,0,0,0,0,0,0,0,0,0,0,0,0,0,0,
0,0,0,0,0,0,0,0,0,0,0,0,0,0,0,0
</chunk>
   <chunk x="80" y="0" width="16" height="16">
192,0,0,0,0,0,0,0,0,0,0,0,0,0,0,0,
1073742016,40,41,41,41,41,41,41,41,41,41,41,41,41,41,41,
1073742000,40,41,41,41,41,41,41,41,41,41,43,57,57,57,57,
0,56,57,44,41,41,41,43,57,57,57,58,0,0,0,0,
0,0,0,56,57,44,43,58,0,0,0,0,0,0,0,0,
0,0,0,0,0,56,58,0,0,0,0,0,0,0,0,0,
0,0,0,0,0,0,0,0,0,0,0,0,53,54,55,0,
0,0,0,0,0,0,0,0,0,53,54,55,69,70,71,0,
0,53,54,54,54,54,54,54,55,69,70,71,40,41,42,53,
0,69,70,70,70,70,70,70,71,40,41,42,40,41,42,40,
176,40,41,41,41,41,41,41,42,40,41,42,40,41,42,40,
192,40,41,41,41,41,41,41,42,40,41,40,40,41,42,40,
0,0,0,0,0,0,0,0,0,0,0,0,0,0,0,0,
0,0,0,0,0,0,0,0,0,0,0,0,0,0,0,0,
0,0,0,0,0,0,0,0,0,0,0,0,0,0,0,0,
0,0,0,0,0,0,0,0,0,0,0,0,0,0,0,0
</chunk>
   <chunk x="96" y="0" width="16" height="16">
0,0,0,0,0,0,0,0,0,0,0,0,0,0,0,0,
41,42,3221225664,3221225728,3221225727,3221225726,3221225725,3221225724,3221225723,3221225722,3221225721,3221225720,3221225719,3221225663,29,31,
57,58,3221225648,3221225712,3221225711,3221225710,3221225709,3221225708,3221225707,3221225706,3221225705,3221225704,3221225703,3221225647,45,46,
0,0,0,0,0,0,0,0,0,0,0,0,0,0,0,0,
49,50,51,52,0,0,0,0,0,0,0,0,0,0,0,0,
65,66,67,68,0,0,49,50,51,52,0,0,0,0,0,0,
0,0,0,0,0,0,65,66,67,68,0,0,0,0,0,0,
0,0,0,0,0,0,0,0,0,0,0,0,0,0,0,0,
54,55,0,0,0,0,0,0,0,0,0,0,0,0,24,25,
70,42,175,231,232,233,234,235,236,237,238,239,240,176,40,41,
41,42,191,247,248,249,250,251,252,253,254,255,256,192,40,41,
41,42,3221225664,3221225728,3221225727,3221225726,3221225725,3221225724,3221225723,3221225722,3221225721,3221225720,3221225719,3221225663,40,41,
0,0,0,0,0,0,0,0,0,0,0,0,0,0,0,0,
0,0,0,0,0,0,0,0,0,0,0,0,0,0,0,0,
0,0,0,0,0,0,0,0,0,0,0,0,0,0,0,0,
0,0,0,0,0,0,0,0,0,0,0,0,0,0,0,0
</chunk>
   <chunk x="112" y="0" width="16" height="16">
0,0,0,0,0,0,0,0,0,0,0,0,0,0,0,0,
31,31,31,31,31,31,31,31,31,31,32,0,43,57,1073741832,57,
47,47,47,12,30,30,11,47,47,47,48,0,0,0,0,0,
0,0,0,1610612814,31,31,2684354637,0,0,0,0,0,0,0,0,0,
0,0,0,95,3221225549,3221225550,96,0,0,0,0,0,0,0,0,0,
0,0,0,0,0,0,0,0,0,0,0,0,0,0,0,0,
0,0,0,0,0,0,0,0,0,0,0,0,0,0,0,0,
0,0,0,0,0,0,0,0,0,0,0,0,0,0,0,0,
181,182,183,184,177,213,216,217,218,215,212,193,194,195,194,195,
13,14,15,15,15,15,15,15,15,15,16,197,198,199,198,199,
29,31,31,31,31,31,31,31,31,31,32,0,0,0,0,0,
29,31,31,31,31,31,31,31,31,31,32,0,0,0,0,0,
0,0,0,0,0,0,0,0,0,0,0,0,0,0,0,0,
0,0,0,0,0,0,0,0,0,0,0,0,0,0,0,0,
0,0,0,0,0,0,0,0,0,0,0,0,0,0,0,0,
0,0,0,0,0,0,0,0,0,0,0,0,0,0,0,0
</chunk>
   <chunk x="128" y="0" width="16" height="16">
0,0,0,0,0,0,0,0,0,0,0,0,0,0,0,0,
1073741832,57,57,44,41,43,57,57,58,45,12,31,31,31,31,31,
0,0,0,56,1073741832,58,0,0,0,0,45,46,46,46,46,46,
0,0,0,0,0,0,0,0,0,0,0,0,0,0,0,0,
0,0,0,0,0,0,0,0,0,0,0,0,0,0,0,0,
0,0,0,0,0,0,0,0,0,0,0,0,0,0,0,0,
0,53,54,55,0,0,0,0,50,51,51,51,51,51,51,52,
0,69,70,71,0,0,0,0,66,67,67,67,67,67,67,68,
196,40,41,42,0,0,0,0,0,0,0,24,26,0,0,0,
200,40,41,42,0,0,0,0,0,0,0,40,42,0,0,0,
0,40,41,42,24,25,25,25,25,25,25,60,59,25,25,25,
0,40,41,42,40,41,41,41,41,41,41,41,41,41,41,41,
0,40,41,42,0,0,0,0,0,0,0,0,0,0,0,0,
0,40,41,42,0,0,0,0,0,0,0,0,0,0,0,0,
0,40,41,42,0,0,0,0,0,0,0,0,0,0,0,0,
0,0,0,0,0,0,0,0,0,0,0,0,0,0,0,0
</chunk>
   <chunk x="144" y="0" width="16" height="16">
0,0,0,0,0,0,0,0,0,0,0,0,0,0,0,0,
31,31,11,48,56,57,57,57,57,57,57,57,57,57,57,57,
46,46,48,0,0,0,0,0,0,0,0,0,0,0,0,0,
0,0,0,0,0,0,0,0,0,0,0,0,0,0,0,0,
0,0,0,0,0,0,0,0,0,0,0,0,0,0,0,0,
0,0,0,0,0,0,0,111,216,217,218,213,213,213,213,112,
0,0,0,0,0,0,0,127,78,14,14,14,14,14,14,128,
0,0,0,0,0,0,0,95,3221225549,3221225487,3221225487,3221225487,3221225487,3221225487,3221225487,96,
0,0,0,0,0,0,0,0,0,0,0,0,0,0,0,0,
0,0,0,0,0,0,0,0,0,0,0,0,0,0,0,0,
25,25,25,25,25,25,25,25,181,182,183,213,213,213,214,213,
41,41,41,41,41,41,41,42,13,14,14,14,14,14,14,14,
0,0,0,0,0,0,0,0,0,0,0,0,0,0,0,0,
0,0,0,0,0,0,0,0,0,0,0,0,0,0,0,0,
0,0,0,0,0,0,0,0,0,0,0,0,0,0,0,0,
0,0,0,0,0,0,0,0,0,0,0,0,0,0,0,0
</chunk>
   <chunk x="160" y="0" width="16" height="16">
0,0,0,0,0,0,0,0,0,0,0,0,0,0,0,0,
57,57,57,57,58,2147483740,46,46,46,46,46,46,46,46,46,46,
0,0,0,0,0,93,0,0,0,0,0,0,0,0,0,0,
0,0,0,0,0,93,0,0,0,0,0,0,0,0,0,0,
0,0,0,0,0,93,0,0,0,0,0,0,0,0,0,0,
0,0,0,0,0,1073741918,0,0,0,0,0,0,0,0,0,0,
0,0,0,0,0,0,0,0,0,0,0,0,0,0,0,0,
0,0,0,0,0,221,0,0,0,0,0,0,0,0,0,0,
0,0,0,0,0,94,0,0,0,0,0,0,0,0,0,0,
0,0,0,0,0,93,0,0,0,0,0,0,0,0,0,0,
213,213,215,220,221,93,2147483863,213,213,214,213,216,217,218,213,213,
14,14,14,14,14,3221225548,14,14,14,14,14,14,14,14,14,14,
0,0,0,0,0,0,0,0,0,0,0,0,0,0,0,0,
0,0,0,0,0,0,0,0,0,0,0,0,0,0,0,0,
0,0,0,0,0,0,0,0,0,0,0,0,0,0,0,0,
0,0,0,0,0,0,0,0,0,0,0,0,0,0,0,0
</chunk>
   <chunk x="176" y="0" width="16" height="16">
0,0,0,0,0,0,0,0,0,0,0,0,0,0,0,0,
46,46,47,47,92,56,57,57,57,57,57,57,57,57,44,41,
0,0,0,0,93,0,0,0,0,0,0,0,0,0,56,57,
0,0,0,0,93,0,0,0,0,0,0,0,0,0,0,0,
0,0,0,0,3221225566,0,0,0,0,0,0,0,0,0,0,0,
0,0,0,0,0,0,0,0,0,0,0,0,0,0,0,0,
0,0,0,0,0,0,0,0,0,0,0,0,0,0,0,0,
0,0,0,0,221,0,0,0,0,0,0,0,0,0,0,0,
0,0,0,0,94,0,0,0,0,0,0,0,0,0,0,0,
0,0,0,0,93,0,0,0,0,0,0,0,0,0,0,0,
214,213,213,215,93,0,0,0,0,0,0,0,0,24,26,0,
14,14,14,14,1073741916,24,25,25,25,25,25,25,25,60,59,25,
0,0,0,0,0,41,41,41,41,41,41,41,41,41,41,41,
0,0,0,0,0,0,0,0,0,0,0,0,0,0,0,0,
0,0,0,0,0,0,0,0,0,0,0,0,0,0,0,0,
0,0,0,0,0,0,0,0,0,0,0,0,0,0,0,0
</chunk>
   <chunk x="192" y="0" width="16" height="16">
0,0,0,0,0,0,0,0,0,0,0,0,0,0,0,0,
41,41,41,43,57,57,57,57,57,57,57,57,57,44,41,41,
44,41,43,58,0,0,0,0,0,0,0,0,0,56,57,57,
56,57,58,0,0,0,0,0,0,0,0,0,0,0,0,0,
0,0,0,0,0,0,0,0,0,0,0,0,0,0,0,0,
0,0,0,0,0,0,0,0,0,0,0,0,0,0,0,0,
0,0,0,0,0,0,0,0,50,51,52,0,0,0,0,0,
0,0,0,0,0,0,0,0,66,67,68,0,0,0,0,0,
0,0,0,0,0,0,0,0,0,0,0,0,0,0,0,0,
0,0,0,0,0,0,0,0,0,0,0,0,0,0,0,0,
0,0,0,0,0,0,0,0,0,0,0,0,0,0,0,0,
25,25,25,26,0,0,0,0,0,0,0,0,0,0,0,0,
41,41,41,59,25,25,25,26,0,0,0,0,0,24,25,25,
0,0,41,43,57,57,57,58,0,0,0,0,0,56,57,57,
0,0,41,42,0,0,0,0,0,0,0,0,0,0,0,0,
0,0,41,42,0,0,0,0,0,50,51,52,0,0,0,0
</chunk>
   <chunk x="208" y="0" width="16" height="16">
0,0,0,41,41,41,41,41,41,41,41,0,0,0,0,0,
41,41,41,41,41,41,41,41,41,41,41,41,41,41,41,41,
44,41,43,57,57,57,57,44,41,41,41,41,41,41,41,41,
56,57,58,0,0,0,0,56,44,41,41,41,41,41,41,41,
0,0,0,0,0,0,0,0,56,57,57,57,57,57,44,41,
0,0,0,0,0,0,0,0,0,0,0,0,0,0,40,41,
0,0,0,0,0,0,0,0,0,0,0,0,0,0,40,41,
0,0,0,0,0,0,0,0,0,0,0,0,0,0,40,41,
0,0,0,0,0,0,0,0,0,0,0,0,0,0,40,41,
0,0,0,24,25,25,25,25,25,25,25,25,25,25,60,41,
0,24,25,60,41,41,41,41,41,41,41,41,41,41,41,41,
0,40,41,41,41,41,41,41,41,41,41,41,41,41,41,41,
26,40,41,0,0,0,0,0,0,0,0,0,0,0,0,0,
58,40,41,0,0,0,0,0,0,0,0,0,0,0,0,0,
0,40,41,0,0,0,0,0,0,0,0,0,0,0,0,0,
0,40,41,0,0,0,0,0,0,0,0,0,0,0,0,0
</chunk>
   <chunk x="224" y="0" width="16" height="16">
0,0,0,0,0,0,0,0,0,0,0,0,0,0,0,0,
41,0,0,0,0,0,0,0,0,0,0,0,0,0,0,0,
41,0,0,0,0,0,0,0,0,0,0,0,0,0,0,0,
41,0,0,0,0,0,0,0,0,0,0,0,0,0,0,0,
41,0,0,0,0,0,0,0,0,0,0,0,0,0,0,0,
41,0,0,0,0,0,0,0,0,0,0,0,0,0,0,0,
41,0,0,0,0,0,0,0,0,0,0,0,0,0,0,0,
41,0,0,0,0,0,0,0,0,0,0,0,0,0,0,0,
41,0,0,0,0,0,0,0,0,0,0,0,0,0,0,0,
41,0,0,0,0,0,0,0,0,0,0,0,0,0,0,0,
41,0,0,0,0,0,0,0,0,0,0,0,0,0,0,0,
41,0,0,0,0,0,0,0,0,0,0,0,0,0,0,0,
0,0,0,0,0,0,0,0,0,0,0,0,0,0,0,0,
0,0,0,0,0,0,0,0,0,0,0,0,0,0,0,0,
0,0,0,0,0,0,0,0,0,0,0,0,0,0,0,0,
0,0,0,0,0,0,0,0,0,0,0,0,0,0,0,0
</chunk>
   <chunk x="192" y="16" width="16" height="16">
0,0,41,42,0,0,0,0,0,66,67,68,0,0,0,0,
0,0,41,42,0,0,0,0,0,0,0,0,0,0,0,0,
0,0,41,42,0,0,0,0,0,0,0,0,0,0,0,0,
0,0,41,59,26,0,0,0,0,0,0,0,0,0,24,25,
0,0,41,41,59,25,26,0,0,0,0,0,0,24,60,41,
0,0,41,41,41,41,59,26,0,0,0,0,24,60,41,41,
0,0,41,41,41,41,43,58,0,0,0,0,40,41,41,41,
0,0,43,57,57,57,58,0,0,0,0,0,56,57,57,57,
0,0,42,0,0,0,0,0,0,0,0,0,0,0,0,0,
0,0,42,0,0,0,0,0,0,0,0,0,0,0,0,0,
0,0,42,0,0,0,0,0,0,0,0,0,0,0,0,0,
0,0,42,0,0,0,0,0,0,0,0,0,0,0,0,0,
0,0,42,0,0,0,0,0,0,0,0,0,0,0,0,0,
0,0,42,0,0,0,0,0,0,0,0,0,0,0,0,0,
0,0,42,0,0,0,0,0,0,0,0,0,0,0,0,0,
0,0,42,0,0,0,0,0,0,0,0,0,0,0,0,0
</chunk>
   <chunk x="208" y="16" width="16" height="16">
0,40,41,0,0,0,0,0,0,0,0,0,0,0,0,0,
0,40,41,0,0,0,0,0,0,0,0,0,0,0,0,0,
0,40,41,0,0,0,0,0,0,0,0,0,0,0,0,0,
25,60,41,0,0,0,0,0,0,0,0,0,0,0,0,0,
41,41,41,0,0,0,0,0,0,0,0,0,0,0,0,0,
41,41,41,0,0,0,0,0,0,0,0,0,0,0,0,0,
41,41,41,0,0,0,0,0,0,0,0,0,0,0,0,0,
57,57,44,0,0,0,0,0,0,0,0,0,0,0,0,0,
0,0,40,0,0,0,0,0,0,0,0,0,0,0,0,0,
0,0,40,0,0,0,0,0,0,0,0,0,0,0,0,0,
0,0,40,0,0,0,0,0,0,0,0,0,0,0,0,0,
0,0,40,0,0,0,0,0,0,0,0,0,0,0,0,0,
0,0,40,0,0,0,0,0,0,0,0,0,0,0,0,0,
0,0,40,0,0,0,0,0,0,0,0,0,0,0,0,0,
0,0,40,0,0,0,0,0,0,0,0,0,0,0,0,0,
0,0,40,0,0,0,0,0,0,0,0,0,0,0,0,0
</chunk>
   <chunk x="192" y="32" width="16" height="16">
0,0,42,0,0,0,0,0,0,0,0,0,0,0,0,0,
0,0,42,0,0,0,0,0,0,0,0,0,0,0,0,0,
0,0,42,0,0,0,0,0,0,0,0,0,0,0,0,0,
0,0,42,0,0,0,0,0,0,0,0,0,0,0,0,0,
0,0,42,0,0,0,0,0,0,0,0,0,0,0,0,0,
0,0,42,0,0,0,0,0,0,0,0,0,0,0,0,0,
0,0,42,0,0,0,0,0,0,0,0,0,0,0,0,0,
0,0,42,0,0,0,0,0,0,0,0,0,0,0,0,0,
0,0,42,0,0,0,0,0,0,0,0,0,0,0,0,0,
0,0,42,0,0,0,0,0,0,0,0,0,0,0,0,0,
0,0,42,0,0,0,0,0,0,0,0,0,0,0,0,0,
0,0,42,0,0,0,0,0,0,0,0,0,0,0,0,0,
0,0,42,0,0,0,0,0,0,0,0,0,0,0,0,0,
0,0,42,0,0,0,0,0,0,0,0,0,0,0,0,0,
0,0,42,0,0,0,0,0,0,0,0,0,0,0,0,0,
0,0,42,0,0,0,0,0,0,0,0,0,0,0,0,0
</chunk>
   <chunk x="208" y="32" width="16" height="16">
0,0,40,0,0,0,0,0,0,0,0,0,0,0,0,0,
0,0,40,0,0,0,0,0,0,0,0,0,0,0,0,0,
0,0,40,0,0,0,0,0,0,0,0,0,0,0,0,0,
0,0,40,0,0,0,0,0,0,0,0,0,0,0,0,0,
0,0,40,0,0,0,0,0,0,0,0,0,0,0,0,0,
0,0,40,0,0,0,0,0,0,0,0,0,0,0,0,0,
0,0,40,0,0,0,0,0,0,0,0,0,0,0,0,0,
0,0,40,0,0,0,0,0,0,0,0,0,0,0,0,0,
0,0,40,0,0,0,0,0,0,0,0,0,0,0,0,0,
0,0,40,0,0,0,0,0,0,0,0,0,0,0,0,0,
0,0,40,0,0,0,0,0,0,0,0,0,0,0,0,0,
0,0,40,0,0,0,0,0,0,0,0,0,0,0,0,0,
0,0,40,0,0,0,0,0,0,0,0,0,0,0,0,0,
0,0,40,0,0,0,0,0,0,0,0,0,0,0,0,0,
0,0,40,0,0,0,0,0,0,0,0,0,0,0,0,0,
0,0,40,0,0,0,0,0,0,0,0,0,0,0,0,0
</chunk>
   <chunk x="192" y="48" width="16" height="16">
0,0,42,0,0,0,0,0,0,0,0,0,0,0,0,0,
0,0,42,0,0,0,0,0,0,0,0,0,0,0,0,0,
0,0,42,0,0,0,0,0,0,0,0,0,0,0,0,0,
0,0,42,0,0,0,0,0,0,0,0,0,0,0,0,0,
0,0,42,0,0,0,0,0,0,0,0,0,0,0,0,0,
0,0,42,0,0,0,0,0,0,0,0,0,0,0,0,0,
0,0,42,0,0,0,0,0,0,0,0,0,0,0,0,0,
0,0,42,0,0,0,0,0,0,0,0,0,0,0,0,0,
0,0,42,0,0,0,0,0,0,0,0,0,0,0,0,0,
0,0,42,0,0,0,0,0,0,0,0,0,50,51,51,51,
0,0,42,0,0,0,0,0,0,0,0,0,66,67,67,67,
0,0,42,0,0,0,0,0,0,0,0,0,0,0,0,0,
0,0,42,0,0,0,0,0,0,0,0,0,0,0,0,0,
0,0,42,0,0,0,0,0,0,0,0,0,0,0,0,0,
0,0,10,51,51,52,0,0,0,0,0,0,0,0,0,0,
0,0,10,67,67,68,0,0,0,0,0,0,0,0,0,0
</chunk>
   <chunk x="208" y="48" width="16" height="16">
0,0,40,0,0,0,0,0,0,0,0,0,0,0,0,0,
0,0,40,0,0,0,0,0,0,0,0,0,0,0,0,0,
0,0,40,0,0,0,0,0,0,0,0,0,0,0,0,0,
0,0,40,0,0,0,0,0,0,0,0,0,0,0,0,0,
0,0,40,0,0,0,0,0,0,0,0,0,0,0,0,0,
0,0,40,0,0,0,0,0,0,0,0,0,0,0,0,0,
0,0,40,0,0,0,0,0,0,0,0,0,0,0,0,0,
0,0,40,0,0,0,0,0,0,0,0,0,0,0,0,0,
0,0,40,0,0,0,0,0,0,0,0,0,0,0,0,0,
51,51,9,0,0,0,0,0,0,0,0,0,0,0,0,0,
67,67,9,0,0,0,0,0,0,0,0,0,0,0,0,0,
0,0,40,0,0,0,0,0,0,0,0,0,0,0,0,0,
0,0,40,0,0,0,0,0,0,0,0,0,0,0,0,0,
0,0,40,0,0,0,0,0,0,0,0,0,0,0,0,0,
0,0,40,0,0,0,0,0,0,0,0,0,0,0,0,0,
0,0,40,0,0,0,0,0,0,0,0,0,0,0,0,0
</chunk>
   <chunk x="192" y="64" width="16" height="16">
0,0,42,0,0,0,0,0,0,0,0,0,0,0,0,0,
0,0,42,0,0,0,0,0,0,0,0,0,0,0,0,0,
0,0,42,0,0,0,0,0,0,0,0,0,0,0,0,0,
0,0,42,0,0,0,0,0,0,0,0,0,0,0,0,0,
0,0,42,0,0,0,0,0,0,0,0,0,0,0,0,0,
0,0,42,0,0,0,0,0,0,0,0,0,0,0,0,0,
0,0,42,0,0,0,0,0,0,0,0,0,0,0,0,0,
0,0,42,0,0,0,0,0,0,0,0,0,0,0,0,0,
0,0,42,0,0,0,0,0,0,0,0,0,0,0,0,0,
0,0,42,0,0,0,0,0,0,0,0,0,0,0,0,0,
0,0,42,0,0,0,0,0,0,0,0,0,0,0,0,0,
0,0,42,0,0,0,0,0,0,0,0,0,0,0,0,0,
0,0,10,54,55,0,0,0,0,0,0,0,0,0,0,0,
0,0,59,70,10,54,55,0,0,0,0,0,0,0,0,0,
0,0,41,41,59,70,10,54,55,0,0,0,0,0,0,0,
0,0,41,41,41,41,59,70,10,54,55,0,0,0,0,0
</chunk>
   <chunk x="208" y="64" width="16" height="16">
0,0,40,0,0,0,0,0,0,0,0,0,0,0,0,0,
0,0,40,0,0,0,0,0,0,0,0,0,0,0,0,0,
0,0,40,0,0,0,0,0,0,0,0,0,0,0,0,0,
0,0,40,0,0,0,0,0,0,0,0,0,0,0,0,0,
0,0,40,0,0,0,0,0,0,0,0,0,0,0,0,0,
0,0,40,0,0,0,0,0,0,0,0,0,0,0,0,0,
24,25,60,41,41,41,41,41,41,41,41,41,41,41,41,41,
40,41,41,41,41,41,43,57,44,41,41,41,41,41,41,41,
40,41,41,41,43,57,58,0,56,57,57,57,44,41,41,41,
56,57,57,57,58,0,0,0,0,0,0,0,56,57,44,41,
0,0,0,0,0,0,0,0,0,0,0,0,0,0,56,57,
0,0,0,0,0,0,0,0,0,0,0,0,0,0,0,0,
0,0,0,0,0,0,0,0,0,0,0,0,0,0,0,0,
0,0,0,0,0,0,0,0,0,0,0,0,0,0,0,0,
0,0,0,0,0,0,0,0,0,0,0,0,0,0,0,0,
0,0,0,0,0,0,0,0,0,0,0,0,0,0,0,0
</chunk>
   <chunk x="224" y="64" width="16" height="16">
0,0,0,0,0,0,0,0,0,0,0,0,0,0,0,0,
0,0,0,0,0,0,0,0,0,0,0,0,0,0,0,0,
0,0,0,0,0,0,0,0,0,0,0,0,0,0,0,0,
0,0,0,0,0,0,0,0,0,0,0,0,0,0,0,0,
0,0,0,0,0,0,0,0,0,0,0,0,0,0,0,0,
0,0,0,0,41,41,41,41,0,0,0,0,0,0,0,0,
41,41,41,41,41,41,41,41,41,41,41,41,41,41,41,41,
41,41,41,41,41,41,41,41,41,41,41,41,41,41,41,41,
41,41,41,43,57,57,57,57,57,57,57,57,57,57,57,44,
41,43,57,58,0,0,0,0,0,0,0,0,0,0,0,56,
57,58,0,0,0,0,0,0,0,0,0,0,0,0,0,0,
0,0,0,0,0,0,0,0,0,0,0,0,0,0,0,0,
0,0,0,0,0,0,0,0,0,0,0,0,0,0,0,0,
0,0,0,0,0,50,51,51,51,51,51,51,51,52,0,0,
0,0,0,0,0,66,67,67,67,67,67,67,67,68,0,0,
0,0,0,0,0,0,0,0,0,0,0,0,0,0,0,0
</chunk>
   <chunk x="240" y="64" width="16" height="16">
0,0,0,0,0,0,0,0,0,0,0,0,0,0,0,0,
0,0,0,0,0,0,0,0,0,0,0,0,0,0,0,0,
0,0,0,0,0,0,0,0,0,0,0,0,0,0,0,0,
0,0,0,0,0,0,0,0,0,0,0,0,0,0,0,0,
0,0,0,0,0,0,0,0,0,0,0,0,0,0,0,0,
0,0,0,0,0,0,0,0,0,0,0,0,0,0,0,0,
41,41,41,41,41,41,41,41,41,41,41,41,41,41,41,41,
41,41,41,41,41,41,41,41,41,41,41,41,41,41,41,41,
41,41,41,41,41,41,41,41,41,41,41,41,41,41,41,43,
44,41,41,41,41,41,41,41,41,41,41,41,41,41,41,42,
40,41,41,41,41,41,41,41,41,41,41,41,41,41,41,42,
56,44,41,41,41,41,41,41,41,41,41,41,41,41,43,58,
0,56,44,41,41,43,57,57,57,57,57,57,57,57,58,0,
0,0,56,57,57,58,0,0,0,0,0,0,0,0,0,0,
0,0,0,0,0,0,0,0,0,0,0,0,0,0,0,0,
0,0,0,0,0,0,0,0,0,0,0,0,0,0,0,0
</chunk>
   <chunk x="256" y="64" width="16" height="16">
0,0,0,0,0,0,0,0,0,0,0,0,0,0,0,0,
0,0,0,0,0,0,0,0,0,0,0,0,0,0,0,0,
0,0,0,0,0,0,0,0,0,0,0,0,0,0,0,0,
0,0,0,0,0,0,0,0,0,0,0,0,0,0,0,0,
0,0,0,0,0,0,0,0,0,0,0,0,0,0,0,0,
0,0,0,0,0,0,0,41,41,41,0,0,0,0,0,0,
41,42,1073742015,3221225728,3221225727,3221225726,3221225725,3221225724,3221225723,3221225722,3221225721,3221225720,3221225719,3221225728,3221225727,3221225726,
43,58,1073741999,3221225712,3221225711,3221225710,3221225709,3221225708,3221225707,3221225706,3221225705,3221225704,3221225703,3221225712,3221225711,3221225710,
58,0,0,0,0,0,0,0,0,0,0,0,0,0,0,0,
0,0,0,0,0,0,0,0,0,0,0,0,0,0,0,0,
0,0,0,0,0,0,0,0,0,0,0,0,0,0,0,0,
0,0,0,0,0,0,0,0,0,0,0,0,0,0,0,0,
0,0,0,0,0,0,0,0,0,0,0,0,0,0,0,0,
0,0,0,0,0,0,0,0,0,0,0,0,0,0,0,0,
0,0,0,0,0,0,0,0,0,0,0,0,0,0,0,0,
0,0,0,0,0,0,0,0,0,0,0,0,0,0,0,0
</chunk>
   <chunk x="272" y="64" width="16" height="16">
0,0,0,0,0,0,0,0,0,0,0,0,0,0,0,0,
0,0,0,0,0,0,0,0,0,0,0,0,0,0,0,0,
0,0,0,0,0,0,0,0,0,0,0,0,0,0,0,0,
0,0,0,0,0,0,0,0,0,0,0,0,0,0,0,0,
0,0,0,0,0,0,0,0,0,0,0,0,0,0,0,0,
0,0,0,0,0,0,0,0,0,0,0,0,0,0,0,0,
3221225725,3221225724,3221225723,3221225722,3221225721,3221225720,3221225719,3221225728,3221225727,3221225726,3221225725,3221225724,3221225723,3221225722,3221225721,3221225720,
3221225709,3221225708,3221225707,3221225706,3221225705,3221225704,3221225703,3221225712,3221225711,3221225710,3221225709,3221225708,3221225707,3221225706,3221225705,3221225704,
0,0,0,0,0,0,0,0,0,0,0,0,0,0,0,0,
0,0,0,0,0,0,0,0,0,0,0,0,0,0,0,0,
0,0,0,0,0,0,0,0,0,0,0,0,0,0,0,0,
0,0,0,0,0,0,0,0,0,0,0,0,0,0,0,0,
0,0,0,0,0,0,0,0,0,0,0,0,0,0,0,0,
0,0,0,0,0,0,0,0,0,0,0,0,0,0,0,0,
0,0,0,0,0,0,0,0,0,0,0,0,0,0,0,0,
0,0,0,0,0,0,0,0,0,0,0,0,0,0,0,0
</chunk>
   <chunk x="288" y="64" width="16" height="16">
0,0,0,0,0,0,0,0,0,0,0,0,0,0,0,0,
0,0,0,0,0,0,0,0,0,0,0,0,0,0,0,0,
0,0,0,0,0,0,0,0,0,0,0,0,0,0,0,0,
0,0,0,0,0,0,0,0,0,0,0,0,0,0,0,0,
0,0,0,0,0,0,0,0,0,0,0,0,0,0,0,0,
0,0,0,0,0,0,0,0,0,0,0,0,0,0,0,0,
3221225719,0,0,0,0,0,0,0,0,0,0,0,0,0,0,0,
3221225703,0,0,0,0,0,0,0,0,0,0,0,0,0,0,0,
0,0,0,0,0,0,0,0,0,0,0,0,0,0,0,0,
0,0,0,0,0,0,0,0,0,0,0,0,0,0,0,0,
0,0,0,0,0,0,0,0,0,0,0,0,0,0,0,0,
0,0,0,0,0,0,0,0,0,0,0,0,0,0,0,0,
0,0,0,0,0,0,0,0,0,0,0,0,0,0,0,0,
0,0,0,0,0,0,0,0,0,0,0,0,0,0,0,0,
0,0,0,0,0,0,0,0,0,0,0,0,0,0,0,0,
0,0,0,0,0,0,0,0,0,0,0,0,0,0,0,0
</chunk>
   <chunk x="192" y="80" width="16" height="16">
0,0,41,41,41,41,41,41,59,70,10,0,0,0,0,0,
0,0,41,41,41,41,41,41,41,41,10,54,54,54,55,0,
0,0,41,41,41,41,41,41,41,41,59,70,70,70,10,24,
0,0,0,0,0,0,0,0,0,0,0,0,0,0,0,0,
0,0,0,0,0,0,0,0,0,0,0,0,0,0,0,0,
0,0,0,0,0,0,0,0,0,0,0,0,0,0,0,0,
0,0,0,0,0,0,0,0,0,0,0,0,0,0,0,0,
0,0,0,0,0,0,0,0,0,0,0,0,0,0,0,0,
0,0,0,0,0,0,0,0,0,0,0,0,0,0,0,0,
0,0,0,0,0,0,0,0,0,0,0,0,0,0,0,0,
0,0,0,0,0,0,0,0,0,0,0,0,0,0,0,0,
0,0,0,0,0,0,0,0,0,0,0,0,0,0,0,0,
0,0,0,0,0,0,0,0,0,0,0,0,0,0,0,0,
0,0,0,0,0,0,0,0,0,0,0,0,0,0,0,0,
0,0,0,0,0,0,0,0,0,0,0,0,0,0,0,0,
0,0,0,0,0,0,0,0,0,0,0,0,0,0,0,0
</chunk>
   <chunk x="208" y="80" width="16" height="16">
0,0,0,0,0,0,53,54,55,0,0,0,0,0,0,0,
0,0,0,0,0,0,69,70,71,0,0,0,0,0,0,0,
25,25,25,25,25,25,60,41,59,25,25,25,25,25,25,25,
0,0,0,0,0,0,0,0,0,0,0,0,0,0,0,0,
0,0,0,0,0,0,0,0,0,0,0,0,0,0,0,0,
0,0,0,0,0,0,0,0,0,0,0,0,0,0,0,0,
0,0,0,0,0,0,0,0,0,0,0,0,0,0,0,0,
0,0,0,0,0,0,0,0,0,0,0,0,0,0,0,0,
0,0,0,0,0,0,0,0,0,0,0,0,0,0,0,0,
0,0,0,0,0,0,0,0,0,0,0,0,0,0,0,0,
0,0,0,0,0,0,0,0,0,0,0,0,0,0,0,0,
0,0,0,0,0,0,0,0,0,0,0,0,0,0,0,0,
0,0,0,0,0,0,0,0,0,0,0,0,0,0,0,0,
0,0,0,0,0,0,0,0,0,0,0,0,0,0,0,0,
0,0,0,0,0,0,0,0,0,0,0,0,0,0,0,0,
0,0,0,0,0,0,0,0,0,0,0,0,0,0,0,0
</chunk>
   <chunk x="224" y="80" width="16" height="16">
0,0,0,0,0,0,0,0,0,0,0,0,0,0,0,0,
0,0,0,0,0,0,0,0,0,0,0,0,0,0,0,0,
25,25,25,25,25,25,25,25,25,25,25,25,25,25,25,25,
0,0,0,0,0,0,0,0,0,0,0,0,0,0,0,0,
0,0,0,0,0,0,0,0,0,0,0,0,0,0,0,0,
0,0,0,0,0,0,0,0,0,0,0,0,0,0,0,0,
0,0,0,0,0,0,0,0,0,0,0,0,0,0,0,0,
0,0,0,0,0,0,0,0,0,0,0,0,0,0,0,0,
0,0,0,0,0,0,0,0,0,0,0,0,0,0,0,0,
0,0,0,0,0,0,0,0,0,0,0,0,0,0,0,0,
0,0,0,0,0,0,0,0,0,0,0,0,0,0,0,0,
0,0,0,0,0,0,0,0,0,0,0,0,0,0,0,0,
0,0,0,0,0,0,0,0,0,0,0,0,0,0,0,0,
0,0,0,0,0,0,0,0,0,0,0,0,0,0,0,0,
0,0,0,0,0,0,0,0,0,0,0,0,0,0,0,0,
0,0,0,0,0,0,0,0,0,0,0,0,0,0,0,0
</chunk>
   <chunk x="240" y="80" width="16" height="16">
0,0,0,0,0,0,0,0,0,0,0,0,0,0,0,0,
0,0,0,0,0,0,0,0,0,0,0,0,0,0,0,0,
25,25,25,25,25,25,25,25,25,25,25,25,25,25,25,25,
0,0,0,0,0,0,0,0,0,0,0,0,0,0,0,0,
0,0,0,0,0,0,0,0,0,0,0,0,0,0,0,0,
0,0,0,0,0,0,0,0,0,0,0,0,0,0,0,0,
0,0,0,0,0,0,0,0,0,0,0,0,0,0,0,0,
0,0,0,0,0,0,0,0,0,0,0,0,0,0,0,0,
0,0,0,0,0,0,0,0,0,0,0,0,0,0,0,0,
0,0,0,0,0,0,0,0,0,0,0,0,0,0,0,0,
0,0,0,0,0,0,0,0,0,0,0,0,0,0,0,0,
0,0,0,0,0,0,0,0,0,0,0,0,0,0,0,0,
0,0,0,0,0,0,0,0,0,0,0,0,0,0,0,0,
0,0,0,0,0,0,0,0,0,0,0,0,0,0,0,0,
0,0,0,0,0,0,0,0,0,0,0,0,0,0,0,0,
0,0,0,0,0,0,0,0,0,0,0,0,0,0,0,0
</chunk>
   <chunk x="256" y="80" width="16" height="16">
0,0,0,0,0,0,0,0,0,0,0,0,0,0,0,0,
0,0,175,231,232,233,234,235,236,237,238,239,240,231,232,233,
25,26,191,247,248,249,250,251,252,253,254,255,256,247,248,249,
0,0,0,0,0,0,0,0,0,0,0,0,0,0,0,0,
0,0,0,0,0,0,0,0,0,0,0,0,0,0,0,0,
0,0,0,0,0,0,0,0,0,0,0,0,0,0,0,0,
0,0,0,0,0,0,0,0,0,0,0,0,0,0,0,0,
0,0,0,0,0,0,0,0,0,0,0,0,0,0,0,0,
0,0,0,0,0,0,0,0,0,0,0,0,0,0,0,0,
0,0,0,0,0,0,0,0,0,0,0,0,0,0,0,0,
0,0,0,0,0,0,0,0,0,0,0,0,0,0,0,0,
0,0,0,0,0,0,0,0,0,0,0,0,0,0,0,0,
0,0,0,0,0,0,0,0,0,0,0,0,0,0,0,0,
0,0,0,0,0,0,0,0,0,0,0,0,0,0,0,0,
0,0,0,0,0,0,0,0,0,0,0,0,0,0,0,0,
0,0,0,0,0,0,0,0,0,0,0,0,0,0,0,0
</chunk>
   <chunk x="272" y="80" width="16" height="16">
0,0,0,0,0,0,0,0,0,0,0,0,0,0,0,0,
234,235,236,237,238,239,240,231,232,233,234,235,236,237,238,239,
250,251,252,253,254,255,256,247,248,249,250,251,252,253,254,255,
0,0,0,0,0,0,0,0,0,0,0,0,0,0,0,0,
0,0,0,0,0,0,0,0,0,0,0,0,0,0,0,0,
0,0,0,0,0,0,0,0,0,0,0,0,0,0,0,0,
0,0,0,0,0,0,0,0,0,0,0,0,0,0,0,0,
0,0,0,0,0,0,0,0,0,0,0,0,0,0,0,0,
0,0,0,0,0,0,0,0,0,0,0,0,0,0,0,0,
0,0,0,0,0,0,0,0,0,0,0,0,0,0,0,0,
0,0,0,0,0,0,0,0,0,0,0,0,0,0,0,0,
0,0,0,0,0,0,0,0,0,0,0,0,0,0,0,0,
0,0,0,0,0,0,0,0,0,0,0,0,0,0,0,0,
0,0,0,0,0,0,0,0,0,0,0,0,0,0,0,0,
0,0,0,0,0,0,0,0,0,0,0,0,0,0,0,0,
0,0,0,0,0,0,0,0,0,0,0,0,0,0,0,0
</chunk>
   <chunk x="288" y="80" width="16" height="16">
0,0,0,0,0,0,0,0,0,0,0,0,0,0,0,0,
240,0,0,0,0,0,0,0,0,0,0,0,0,0,0,0,
256,0,0,0,0,0,0,0,0,0,0,0,0,0,0,0,
0,0,0,0,0,0,0,0,0,0,0,0,0,0,0,0,
0,0,0,0,0,0,0,0,0,0,0,0,0,0,0,0,
0,0,0,0,0,0,0,0,0,0,0,0,0,0,0,0,
0,0,0,0,0,0,0,0,0,0,0,0,0,0,0,0,
0,0,0,0,0,0,0,0,0,0,0,0,0,0,0,0,
0,0,0,0,0,0,0,0,0,0,0,0,0,0,0,0,
0,0,0,0,0,0,0,0,0,0,0,0,0,0,0,0,
0,0,0,0,0,0,0,0,0,0,0,0,0,0,0,0,
0,0,0,0,0,0,0,0,0,0,0,0,0,0,0,0,
0,0,0,0,0,0,0,0,0,0,0,0,0,0,0,0,
0,0,0,0,0,0,0,0,0,0,0,0,0,0,0,0,
0,0,0,0,0,0,0,0,0,0,0,0,0,0,0,0,
0,0,0,0,0,0,0,0,0,0,0,0,0,0,0,0
</chunk>
  </data>
 </layer>
 <layer id="22" name="Foreground" width="37" height="135">
  <data encoding="csv">
   <chunk x="112" y="0" width="16" height="16">
0,0,0,0,0,0,0,0,0,0,0,0,0,0,0,0,
0,0,0,0,0,0,0,0,0,0,0,0,0,0,0,0,
0,0,0,0,0,0,0,0,0,0,0,0,0,0,0,0,
0,0,0,0,0,0,0,0,0,0,0,0,0,0,0,0,
0,0,0,0,0,0,0,0,0,0,0,0,0,0,0,0,
0,0,0,0,0,0,0,0,0,0,0,0,0,0,0,0,
0,0,0,0,0,0,0,0,0,0,0,0,0,0,0,0,
0,0,0,0,0,0,0,0,0,0,0,0,0,0,0,0,
222,222,223,0,0,223,224,224,224,224,224,224,222,224,224,222,
0,0,0,0,0,0,0,0,0,0,0,0,0,0,0,0,
0,0,0,0,0,0,0,0,0,0,0,0,0,0,0,0,
0,0,0,0,0,0,0,0,0,0,0,0,0,0,0,0,
0,0,0,0,0,0,0,0,0,0,0,0,0,0,0,0,
0,0,0,0,0,0,0,0,0,0,0,0,0,0,0,0,
0,0,0,0,0,0,0,0,0,0,0,0,0,0,0,0,
0,0,0,0,0,0,0,0,0,0,0,0,0,0,0,0
</chunk>
   <chunk x="128" y="0" width="16" height="16">
0,0,0,0,0,0,0,0,0,0,0,0,0,0,0,0,
0,0,0,0,0,0,0,0,0,0,0,0,0,0,0,0,
0,0,0,0,0,0,0,0,0,0,0,0,0,0,0,0,
0,0,0,0,0,0,0,0,0,0,0,0,0,0,0,0,
0,0,0,0,0,0,0,0,0,0,0,0,0,0,0,0,
0,0,0,0,0,0,0,0,0,0,0,0,0,0,0,0,
0,0,0,0,0,0,0,0,0,0,0,0,0,0,0,0,
0,0,0,0,0,0,0,0,0,0,0,0,0,0,0,0,
224,0,0,0,0,0,0,0,0,0,0,0,0,0,0,0,
0,0,0,0,0,0,0,0,0,0,0,0,0,0,0,0,
0,0,0,0,0,0,0,0,0,0,0,0,0,0,0,0,
0,0,0,0,0,0,0,0,0,0,0,0,0,0,0,0,
0,0,0,0,0,0,0,0,0,0,0,0,0,0,0,0,
0,0,0,0,0,0,0,0,0,0,0,0,0,0,0,0,
0,0,0,0,0,0,0,0,0,0,0,0,0,0,0,0,
0,0,0,0,0,0,0,0,0,0,0,0,0,0,0,0
</chunk>
   <chunk x="144" y="0" width="16" height="16">
0,0,0,0,0,0,0,0,0,0,0,0,0,0,0,0,
0,0,0,0,0,0,0,0,0,0,0,0,0,0,0,0,
0,0,0,0,0,0,0,0,0,0,0,0,0,0,0,0,
0,0,0,0,0,0,0,0,0,0,0,0,0,0,0,0,
0,0,0,0,0,0,223,0,0,0,0,0,0,0,0,0,
0,0,0,0,0,0,0,0,223,0,224,0,0,224,223,0,
0,0,0,0,0,0,0,0,0,0,0,0,0,0,0,0,
0,0,0,0,0,0,0,0,0,0,0,0,0,0,0,0,
0,0,0,0,0,0,0,0,0,0,0,0,0,0,0,0,
0,0,0,0,0,0,0,0,0,0,0,0,0,0,0,0,
0,0,0,0,0,0,0,0,0,223,222,222,222,224,0,222,
0,0,0,0,0,0,0,0,0,0,0,0,0,0,0,0,
0,0,0,0,0,0,0,0,0,0,0,0,0,0,0,0,
0,0,0,0,0,0,0,0,0,0,0,0,0,0,0,0,
0,0,0,0,0,0,0,0,0,0,0,0,0,0,0,0,
0,0,0,0,0,0,0,0,0,0,0,0,0,0,0,0
</chunk>
   <chunk x="160" y="0" width="16" height="16">
0,0,0,0,0,0,0,0,0,0,0,0,0,0,0,0,
0,0,0,0,0,0,0,0,0,0,0,0,0,0,0,0,
0,0,0,0,0,0,0,0,0,0,0,0,0,0,0,0,
0,0,0,0,0,0,0,0,0,0,0,0,0,0,0,0,
0,0,0,0,0,0,0,0,0,0,0,0,0,0,0,0,
0,0,0,0,0,0,0,0,0,0,0,0,0,0,0,0,
0,0,0,0,0,0,0,0,0,0,0,0,0,0,0,0,
0,0,0,0,0,223,0,0,0,0,0,0,0,0,0,0,
0,0,0,0,0,0,0,0,0,0,0,0,0,0,0,0,
0,0,0,0,0,0,0,0,0,0,0,0,0,0,0,0,
222,0,224,0,223,0,223,0,0,0,0,0,0,0,0,0,
0,0,0,0,0,0,0,0,0,0,0,0,0,0,0,0,
0,0,0,0,0,0,0,0,0,0,0,0,0,0,0,0,
0,0,0,0,0,0,0,0,0,0,0,0,0,0,0,0,
0,0,0,0,0,0,0,0,0,0,0,0,0,0,0,0,
0,0,0,0,0,0,0,0,0,0,0,0,0,0,0,0
</chunk>
   <chunk x="176" y="0" width="16" height="16">
0,0,0,0,0,0,0,0,0,0,0,0,0,0,0,0,
0,0,0,0,0,0,0,0,0,0,0,0,0,0,0,0,
0,0,0,0,0,0,0,0,0,0,0,0,0,0,0,0,
0,0,0,0,0,0,0,0,0,0,0,0,0,0,0,0,
0,0,0,0,0,0,0,0,0,0,0,0,0,0,0,0,
0,0,0,0,0,0,0,0,0,0,0,0,0,0,0,0,
0,0,0,0,0,0,0,0,0,0,0,0,0,0,0,0,
0,0,0,0,223,0,0,0,0,0,0,0,0,0,0,0,
0,0,0,0,0,0,0,0,0,0,0,0,0,0,0,0,
0,0,0,0,0,0,0,0,0,0,0,0,0,0,0,0,
0,0,0,223,0,0,0,0,0,0,0,0,0,0,0,0,
0,0,0,0,0,0,0,0,0,0,0,0,0,0,0,0,
0,0,0,0,0,0,0,0,0,0,0,0,0,0,0,0,
0,0,0,0,0,0,0,0,0,0,0,0,0,0,0,0,
0,0,0,0,0,0,0,0,0,0,0,0,0,0,0,0,
0,0,0,0,0,0,0,0,0,0,0,0,0,0,0,0
</chunk>
  </data>
 </layer>
</map>
