<?xml version="1.0" encoding="UTF-8"?>
<map version="1.10" tiledversion="1.11.2" orientation="orthogonal" renderorder="right-down" width="37" height="135" tilewidth="64" tileheight="64" infinite="1" nextlayerid="23" nextobjectid="1">
 <tileset firstgid="1" name="TS_LEVEL.64x64" tilewidth="64" tileheight="64" tilecount="256" columns="16">
  <image source="Tileset/TS_LEVEL1.png" trans="ff00ff" width="1024" height="1024"/>
  <tile id="7">
   <objectgroup draworder="index" id="2">
    <object id="1" x="0" y="0" width="64" height="64"/>
   </objectgroup>
  </tile>
  <tile id="8">
   <objectgroup draworder="index" id="2">
    <object id="1" x="0" y="0" width="64" height="64"/>
   </objectgroup>
  </tile>
  <tile id="9">
   <objectgroup draworder="index" id="2">
    <object id="1" x="0" y="0" width="64" height="64"/>
   </objectgroup>
  </tile>
  <tile id="10">
   <objectgroup draworder="index" id="2">
    <object id="1" x="0.181818" y="0" width="63.8182" height="64.1818"/>
   </objectgroup>
  </tile>
  <tile id="11">
   <objectgroup draworder="index" id="2">
    <object id="1" x="0" y="0" width="64" height="64.9091"/>
   </objectgroup>
  </tile>
  <tile id="12">
   <objectgroup draworder="index" id="2">
    <object id="1" x="0.363636" y="0" width="64.1818" height="64.3636"/>
   </objectgroup>
  </tile>
  <tile id="13">
   <objectgroup draworder="index" id="2">
    <object id="1" x="0" y="-0.181818" width="64.3636" height="64"/>
   </objectgroup>
  </tile>
  <tile id="14">
   <objectgroup draworder="index" id="2">
    <object id="1" x="0.181818" y="0.181818" width="63.6364" height="64"/>
   </objectgroup>
  </tile>
  <tile id="15">
   <objectgroup draworder="index" id="2">
    <object id="1" x="0.181818" y="0" width="64.3636" height="64.3636"/>
   </objectgroup>
  </tile>
  <tile id="23">
   <objectgroup draworder="index" id="2">
    <object id="1" x="0" y="0.363636" width="63.8182" height="64"/>
   </objectgroup>
  </tile>
  <tile id="24">
   <objectgroup draworder="index" id="2">
    <object id="1" x="0.181818" y="0.181818" width="64" height="63.8182"/>
   </objectgroup>
  </tile>
  <tile id="25">
   <objectgroup draworder="index" id="2">
    <object id="1" x="0" y="0" width="64" height="63.8182"/>
   </objectgroup>
  </tile>
  <tile id="26">
   <objectgroup draworder="index" id="2">
    <object id="1" x="0.181818" y="-0.181818" width="64" height="64.3636"/>
   </objectgroup>
  </tile>
  <tile id="27">
   <objectgroup draworder="index" id="2">
    <object id="1" x="0.181818" y="0.181818" width="63.6364" height="64"/>
   </objectgroup>
  </tile>
  <tile id="28">
   <objectgroup draworder="index" id="2">
    <object id="1" x="-0.545455" y="0" width="64.7273" height="64"/>
   </objectgroup>
  </tile>
  <tile id="31">
   <objectgroup draworder="index" id="2">
    <object id="1" x="0.181818" y="0.181818" width="64.1818" height="64.1818"/>
   </objectgroup>
  </tile>
  <tile id="39">
   <objectgroup draworder="index" id="2">
    <object id="1" x="0" y="0" width="64" height="64"/>
   </objectgroup>
  </tile>
  <tile id="40">
   <objectgroup draworder="index" id="2">
    <object id="1" x="0" y="0" width="64" height="64"/>
   </objectgroup>
  </tile>
  <tile id="41">
   <objectgroup draworder="index" id="2">
    <object id="1" x="0" y="0" width="64.1818" height="64"/>
   </objectgroup>
  </tile>
  <tile id="42">
   <objectgroup draworder="index" id="2">
    <object id="1" x="0.363636" y="0" width="63.6364" height="64"/>
   </objectgroup>
  </tile>
  <tile id="43">
   <objectgroup draworder="index" id="2">
    <object id="1" x="0" y="0.181818" width="63.8182" height="63.6364"/>
   </objectgroup>
  </tile>
  <tile id="44">
   <objectgroup draworder="index" id="2">
    <object id="1" x="-0.545455" y="-0.181818" width="64.7273" height="64"/>
   </objectgroup>
  </tile>
  <tile id="45">
   <objectgroup draworder="index" id="2">
    <object id="1" x="0.181818" y="-0.181818" width="64.5455" height="64.5455"/>
   </objectgroup>
  </tile>
  <tile id="46">
   <objectgroup draworder="index" id="2">
    <object id="1" x="0" y="0.181818" width="64.7273" height="64.1818"/>
   </objectgroup>
  </tile>
  <tile id="47">
   <objectgroup draworder="index" id="2">
    <object id="1" x="-0.181818" y="0.181818" width="64.3636" height="64.1818"/>
   </objectgroup>
  </tile>
  <tile id="49">
   <objectgroup draworder="index" id="4">
    <object id="3" x="0" y="32" width="64.3636" height="32"/>
   </objectgroup>
  </tile>
  <tile id="50">
   <objectgroup draworder="index" id="2">
    <object id="1" x="-0.181818" y="32" width="64.1818" height="32"/>
   </objectgroup>
  </tile>
  <tile id="51">
   <objectgroup draworder="index" id="2">
    <object id="1" x="0.181818" y="32" width="64.1818" height="32.1818"/>
   </objectgroup>
  </tile>
  <tile id="52">
   <objectgroup draworder="index" id="2">
    <object id="1" x="-0.181818" y="32" width="64.3636" height="32"/>
   </objectgroup>
  </tile>
  <tile id="53">
   <objectgroup draworder="index" id="2">
    <object id="1" x="0.181818" y="32" width="64" height="32.5455"/>
   </objectgroup>
  </tile>
  <tile id="54">
   <objectgroup draworder="index" id="2">
    <object id="1" x="0.363636" y="32" width="64" height="32.3636"/>
   </objectgroup>
  </tile>
  <tile id="55">
   <objectgroup draworder="index" id="2">
    <object id="1" x="0.181818" y="-0.181818" width="64" height="64.5455"/>
   </objectgroup>
  </tile>
  <tile id="56">
   <objectgroup draworder="index" id="2">
    <object id="1" x="0.181818" y="0.363636" width="63.8182" height="63.6364"/>
   </objectgroup>
  </tile>
  <tile id="57">
   <objectgroup draworder="index" id="2">
    <object id="1" x="0.363636" y="0" width="63.6364" height="64.1818"/>
   </objectgroup>
  </tile>
  <tile id="58">
   <objectgroup draworder="index" id="2">
    <object id="1" x="-0.181818" y="0.181818" width="63.8182" height="63.6364"/>
   </objectgroup>
  </tile>
  <tile id="59">
   <objectgroup draworder="index" id="2">
    <object id="1" x="-0.181818" y="-0.181818" width="63.8182" height="64.1818"/>
   </objectgroup>
  </tile>
  <tile id="60">
   <objectgroup draworder="index" id="2">
    <object id="1" x="0" y="0" width="64.1818" height="64.7273"/>
   </objectgroup>
  </tile>
  <tile id="61">
   <objectgroup draworder="index" id="2">
    <object id="1" x="0.181818" y="0.181818" width="63.2727" height="64"/>
   </objectgroup>
  </tile>
  <tile id="62">
   <objectgroup draworder="index" id="2">
    <object id="1" x="0.181818" y="0" width="64.1818" height="64.7273"/>
   </objectgroup>
  </tile>
  <tile id="63">
   <objectgroup draworder="index" id="2">
    <object id="1" x="0.181818" y="0.181818" width="64" height="63.8182"/>
   </objectgroup>
  </tile>
  <tile id="65">
   <objectgroup draworder="index" id="2">
    <object id="1" x="0" y="0" width="63.8182" height="64.5455"/>
   </objectgroup>
  </tile>
  <tile id="66">
   <objectgroup draworder="index" id="2">
    <object id="1" x="0.181818" y="-0.181818" width="63.8182" height="64.1818"/>
   </objectgroup>
  </tile>
  <tile id="67">
   <objectgroup draworder="index" id="2">
    <object id="1" x="0.181818" y="-0.363636" width="63.8182" height="65.2727"/>
   </objectgroup>
  </tile>
  <tile id="68">
   <objectgroup draworder="index" id="2">
    <object id="1" x="-0.181818" y="-0.545455" width="64.3636" height="64.7273"/>
   </objectgroup>
  </tile>
  <tile id="69">
   <objectgroup draworder="index" id="2">
    <object id="1" x="0" y="0" width="64" height="64.3636"/>
   </objectgroup>
  </tile>
  <tile id="70">
   <objectgroup draworder="index" id="2">
    <object id="1" x="0.181818" y="0" width="64" height="63.8182"/>
   </objectgroup>
  </tile>
  <tile id="74">
   <objectgroup draworder="index" id="3">
    <object id="2" x="-0.181818" y="0" width="64.1818" height="64.1818"/>
   </objectgroup>
  </tile>
  <tile id="75">
   <objectgroup draworder="index" id="2">
    <object id="1" x="0.363636" y="0.181818" width="64.1818" height="64.1818"/>
   </objectgroup>
  </tile>
  <tile id="76">
   <objectgroup draworder="index" id="2">
    <object id="1" x="0.363636" y="0.181818" width="63.8182" height="63.8182"/>
   </objectgroup>
  </tile>
  <tile id="77">
   <objectgroup draworder="index" id="2">
    <object id="1" x="0" y="0" width="64.1818" height="64"/>
   </objectgroup>
  </tile>
  <tile id="78">
   <objectgroup draworder="index" id="2">
    <object id="1" x="63.8182" y="0.181818">
     <polygon points="0,0 -63.8182,63.8182 0.363636,63.6364"/>
    </object>
   </objectgroup>
  </tile>
  <tile id="79">
   <objectgroup draworder="index" id="2">
    <object id="1" x="0.181818" y="0">
     <polygon points="0,0 64.3636,64.5455 0,64"/>
    </object>
   </objectgroup>
  </tile>
  <tile id="91">
   <objectgroup draworder="index" id="2">
    <object id="1" x="-0.181818" y="-0.181818" width="64.5455" height="64.5455"/>
   </objectgroup>
  </tile>
  <tile id="92">
   <objectgroup draworder="index" id="2">
    <object id="1" x="0" y="-0.363636" width="64" height="64.9091"/>
   </objectgroup>
  </tile>
  <tile id="93">
   <objectgroup draworder="index" id="2">
    <object id="1" x="0" y="0" width="63.4545" height="63.4545"/>
   </objectgroup>
  </tile>
  <tile id="94">
   <objectgroup draworder="index" id="2">
    <object id="1" x="0.181818" y="0.363636">
     <polygon points="0,0 63.4545,63.2727 63.8182,-0.363636"/>
    </object>
   </objectgroup>
  </tile>
  <tile id="95">
   <objectgroup draworder="index" id="2">
    <object id="1" x="0.181818" y="0.181818">
     <polygon points="0,0 64,-0.363636 -0.181818,64.1818"/>
    </object>
   </objectgroup>
  </tile>
  <tile id="107">
   <objectgroup draworder="index" id="2">
    <object id="1" x="0" y="-0.181818" width="63.6364" height="64.5455"/>
   </objectgroup>
  </tile>
  <tile id="108">
   <objectgroup draworder="index" id="2">
    <object id="1" x="0.181818" y="0" width="63.2727" height="64.1818"/>
   </objectgroup>
  </tile>
  <tile id="109">
   <objectgroup draworder="index" id="2">
    <object id="1" x="0" y="0" width="63.8182" height="64"/>
   </objectgroup>
  </tile>
  <tile id="110">
   <objectgroup draworder="index" id="2">
    <object id="1" x="64.3636" y="26.9091">
     <polygon points="-0.363636,5.09091 -32.3636,37.0909 -0.181818,36.9091"/>
    </object>
   </objectgroup>
  </tile>
  <tile id="111">
   <objectgroup draworder="index" id="2">
    <object id="1" x="0.181818" y="30.3636">
     <polygon points="-0.181818,1.63636 31.8182,33.6364 -0.181818,33.6364"/>
    </object>
   </objectgroup>
  </tile>
  <tile id="112">
   <objectgroup draworder="index" id="2">
    <object id="1" x="63.4545" y="63.4545">
     <polygon points="0,0 -56.9091,0.545455 -50.5455,-19.8182 -27.6364,-52.7273 0.727273,-57.4545"/>
    </object>
   </objectgroup>
  </tile>
  <tile id="113">
   <objectgroup draworder="index" id="2">
    <object id="1" x="-0.181818" y="6.90909" width="64.3636" height="50.7273"/>
   </objectgroup>
  </tile>
  <tile id="114">
   <objectgroup draworder="index" id="2">
    <object id="1" x="0.363636" y="7.45455" width="64" height="49.4545"/>
   </objectgroup>
  </tile>
  <tile id="115">
   <objectgroup draworder="index" id="2">
    <object id="1" x="0" y="7.09091">
     <polygon points="0,0 30.3636,11.8182 49.4545,34 57.0909,56.7273 -0.181818,57.0909"/>
    </object>
   </objectgroup>
  </tile>
  <tile id="124">
   <objectgroup draworder="index" id="2">
    <object id="1" x="0.363636" y="0.363636" width="63.6364" height="63.6364"/>
   </objectgroup>
  </tile>
  <tile id="126">
   <objectgroup draworder="index" id="2">
    <object id="1" x="0" y="64">
     <polygon points="0,0 64,0 64,-64 32,-64 0,-32 0,0"/>
    </object>
   </objectgroup>
  </tile>
  <tile id="127">
   <objectgroup draworder="index" id="2">
    <object id="1" x="64" y="64">
     <polygon points="0,0 -64,0 -64,-64 -32,-64 0,-32"/>
    </object>
   </objectgroup>
  </tile>
  <tile id="128">
   <objectgroup draworder="index" id="2">
    <object id="1" x="6.54545" y="-1.09091" width="50.1818" height="65.4545"/>
   </objectgroup>
  </tile>
  <tile id="131">
   <objectgroup draworder="index" id="2">
    <object id="1" x="0.363636" y="0" width="63.0909" height="64.3636"/>
   </objectgroup>
  </tile>
  <tile id="144">
   <objectgroup draworder="index" id="2">
    <object id="1" x="7.27273" y="-0.363636" width="50.1818" height="64.1818"/>
   </objectgroup>
  </tile>
  <tile id="145">
   <objectgroup draworder="index" id="2">
    <object id="1" x="64.3636" y="11.6364">
     <polygon points="0,0 -26.7273,6.54545 -52.7273,35.4545 -57.4545,52.5455 -0.181818,53.0909"/>
    </object>
   </objectgroup>
  </tile>
  <tile id="146">
   <objectgroup draworder="index" id="2">
    <object id="1" x="-0.363636" y="12">
     <polygon points="0,0 19.6364,-0.181818 49.0909,26 58,51.4545 0.181818,52"/>
    </object>
   </objectgroup>
  </tile>
  <tile id="147">
   <objectgroup draworder="index" id="2">
    <object id="1" x="-0.363636" y="-0.181818" width="64.3636" height="64.3636"/>
   </objectgroup>
  </tile>
  <tile id="160">
   <objectgroup draworder="index" id="2">
    <object id="1" x="5.63636" y="-0.545455">
     <polygon points="0,0 14.1818,32.1818 37.6364,49.2727 59.0909,53.6364 58.1818,0.181818"/>
    </object>
   </objectgroup>
  </tile>
  <tile id="161">
   <objectgroup draworder="index" id="2">
    <object id="1" x="57.4545" y="-0.181818">
     <polygon points="0,0 -13.6364,32.5455 -33.6364,47.2727 -57.8182,54.3636 -57.8182,0"/>
    </object>
   </objectgroup>
  </tile>
  <tile id="162">
   <objectgroup draworder="index" id="2">
    <object id="1" x="6.54545" y="0.545455">
     <polygon points="0,0 24.5455,39.6364 57.2727,52.3636 57.6364,-0.909091"/>
    </object>
   </objectgroup>
  </tile>
  <tile id="163">
   <objectgroup draworder="index" id="2">
    <object id="1" x="57.4545" y="-0.545455">
     <polygon points="0,0 -16,33.8182 -57.4545,54 -57.2727,0.181818"/>
    </object>
   </objectgroup>
  </tile>
  <tile id="174">
   <objectgroup draworder="index" id="3">
    <object id="2" x="0" y="32" width="64" height="32"/>
   </objectgroup>
  </tile>
  <tile id="175">
   <objectgroup draworder="index" id="2">
    <object id="1" x="0" y="32" width="64" height="32"/>
   </objectgroup>
  </tile>
  <tile id="176">
   <objectgroup draworder="index" id="2">
    <object id="1" x="0.363636" y="32" width="64" height="32.5455"/>
   </objectgroup>
  </tile>
  <tile id="177">
   <objectgroup draworder="index" id="2">
    <object id="1" x="0.363636" y="32" width="64" height="32.3636"/>
   </objectgroup>
  </tile>
  <tile id="178">
   <objectgroup draworder="index" id="2">
    <object id="1" x="0.181818" y="32" width="64" height="32"/>
   </objectgroup>
  </tile>
  <tile id="179">
   <objectgroup draworder="index" id="2">
    <object id="1" x="0" y="32" width="64" height="32"/>
   </objectgroup>
  </tile>
  <tile id="180">
   <objectgroup draworder="index" id="2">
    <object id="1" x="0.181818" y="29.2727" width="64" height="34.9091"/>
   </objectgroup>
  </tile>
  <tile id="181">
   <objectgroup draworder="index" id="2">
    <object id="1" x="0.363636" y="32" width="64" height="32"/>
   </objectgroup>
  </tile>
  <tile id="182">
   <objectgroup draworder="index" id="2">
    <object id="1" x="0.363636" y="32" width="64" height="32"/>
   </objectgroup>
  </tile>
  <tile id="183">
   <objectgroup draworder="index" id="2">
    <object id="1" x="0.363636" y="32" width="64" height="32.5455"/>
   </objectgroup>
  </tile>
  <tile id="190">
   <objectgroup draworder="index" id="2">
    <object id="1" x="0" y="0" width="64" height="64"/>
   </objectgroup>
  </tile>
  <tile id="191">
   <objectgroup draworder="index" id="2">
    <object id="1" x="0" y="0" width="64" height="64"/>
   </objectgroup>
  </tile>
  <tile id="192">
   <objectgroup draworder="index" id="2">
    <object id="1" x="0" y="32" width="64" height="32"/>
   </objectgroup>
  </tile>
  <tile id="193">
   <objectgroup draworder="index" id="2">
    <object id="1" x="0" y="32" width="64" height="32"/>
   </objectgroup>
  </tile>
  <tile id="194">
   <objectgroup draworder="index" id="2">
    <object id="1" x="0" y="32" width="64" height="32"/>
   </objectgroup>
  </tile>
  <tile id="195">
   <objectgroup draworder="index" id="2">
    <object id="1" x="0" y="32" width="64" height="32"/>
   </objectgroup>
  </tile>
  <tile id="196">
   <objectgroup draworder="index" id="2">
    <object id="1" x="0" y="0" width="64" height="48"/>
   </objectgroup>
  </tile>
  <tile id="197">
   <objectgroup draworder="index" id="2">
    <object id="1" x="0" y="0" width="64" height="48"/>
   </objectgroup>
  </tile>
  <tile id="198">
   <objectgroup draworder="index" id="2">
    <object id="1" x="0" y="0" width="64" height="48"/>
   </objectgroup>
  </tile>
  <tile id="199">
   <objectgroup draworder="index" id="2">
    <object id="1" x="0" y="0" width="64" height="48"/>
   </objectgroup>
  </tile>
  <tile id="200">
   <objectgroup draworder="index" id="2">
    <object id="1" x="16" y="0" width="32" height="64"/>
   </objectgroup>
  </tile>
  <tile id="201">
   <objectgroup draworder="index" id="2">
    <object id="1" x="0" y="16" width="64" height="32"/>
   </objectgroup>
  </tile>
  <tile id="202">
   <objectgroup draworder="index" id="2">
    <object id="1" x="0" y="0" width="64" height="64"/>
   </objectgroup>
  </tile>
  <tile id="206">
   <objectgroup draworder="index" id="2">
    <object id="1" x="0" y="0" width="64" height="64"/>
   </objectgroup>
  </tile>
  <tile id="207">
   <objectgroup draworder="index" id="2">
    <object id="1" x="0" y="0" width="64" height="64"/>
   </objectgroup>
  </tile>
  <tile id="210">
   <objectgroup draworder="index" id="2">
    <object id="1" x="0" y="32" width="64" height="32"/>
   </objectgroup>
  </tile>
  <tile id="211">
   <objectgroup draworder="index" id="2">
    <object id="1" x="0" y="32" width="64" height="32"/>
   </objectgroup>
  </tile>
  <tile id="212">
   <objectgroup draworder="index" id="2">
    <object id="1" x="0" y="32" width="64" height="32"/>
   </objectgroup>
  </tile>
  <tile id="213">
   <objectgroup draworder="index" id="2">
    <object id="1" x="0" y="32" width="64" height="32"/>
   </objectgroup>
  </tile>
  <tile id="214">
   <objectgroup draworder="index" id="2">
    <object id="1" x="0" y="32" width="64" height="32"/>
   </objectgroup>
  </tile>
  <tile id="215">
   <objectgroup draworder="index" id="2">
    <object id="1" x="0" y="32" width="64" height="32"/>
   </objectgroup>
  </tile>
  <tile id="216">
   <objectgroup draworder="index" id="2">
    <object id="1" x="0" y="32" width="64" height="32"/>
   </objectgroup>
  </tile>
  <tile id="217">
   <objectgroup draworder="index" id="2">
    <object id="1" x="0" y="32" width="64" height="32"/>
   </objectgroup>
  </tile>
  <tile id="218">
   <objectgroup draworder="index" id="2">
    <object id="1" x="0" y="32" width="64" height="32"/>
   </objectgroup>
  </tile>
  <tile id="219">
   <objectgroup draworder="index" id="2">
    <object id="1" x="0" y="32" width="64" height="32"/>
   </objectgroup>
  </tile>
  <tile id="220">
   <objectgroup draworder="index" id="2">
    <object id="1" x="0" y="32" width="64" height="32"/>
   </objectgroup>
  </tile>
  <tile id="230">
   <objectgroup draworder="index" id="2">
    <object id="1" x="0" y="32" width="64" height="32"/>
   </objectgroup>
  </tile>
  <tile id="231">
   <objectgroup draworder="index" id="2">
    <object id="1" x="0" y="32" width="64" height="32"/>
   </objectgroup>
  </tile>
  <tile id="232">
   <objectgroup draworder="index" id="2">
    <object id="1" x="0" y="32" width="64" height="32"/>
   </objectgroup>
  </tile>
  <tile id="233">
   <objectgroup draworder="index" id="2">
    <object id="1" x="0" y="32" width="64" height="32"/>
   </objectgroup>
  </tile>
  <tile id="234">
   <objectgroup draworder="index" id="2">
    <object id="1" x="0" y="32" width="64" height="32"/>
   </objectgroup>
  </tile>
  <tile id="235">
   <objectgroup draworder="index" id="2">
    <object id="1" x="0" y="32" width="64" height="32"/>
   </objectgroup>
  </tile>
  <tile id="236">
   <objectgroup draworder="index" id="2">
    <object id="1" x="0" y="32" width="64" height="32"/>
   </objectgroup>
  </tile>
  <tile id="237">
   <objectgroup draworder="index" id="2">
    <object id="1" x="0" y="32" width="64" height="32"/>
   </objectgroup>
  </tile>
  <tile id="238">
   <objectgroup draworder="index" id="2">
    <object id="1" x="0" y="32" width="64" height="32"/>
   </objectgroup>
  </tile>
  <tile id="239">
   <objectgroup draworder="index" id="2">
    <object id="1" x="0" y="32" width="64" height="32"/>
   </objectgroup>
  </tile>
  <tile id="246">
   <objectgroup draworder="index" id="2">
    <object id="1" x="0" y="0" width="64" height="64"/>
   </objectgroup>
  </tile>
  <tile id="247">
   <objectgroup draworder="index" id="2">
    <object id="1" x="0" y="0" width="64" height="64"/>
   </objectgroup>
  </tile>
  <tile id="248">
   <objectgroup draworder="index" id="2">
    <object id="1" x="0" y="0" width="64" height="64"/>
   </objectgroup>
  </tile>
  <tile id="249">
   <objectgroup draworder="index" id="2">
    <object id="1" x="0" y="0" width="64" height="64"/>
   </objectgroup>
  </tile>
  <tile id="250">
   <objectgroup draworder="index" id="2">
    <object id="1" x="0" y="0" width="64" height="64"/>
   </objectgroup>
  </tile>
  <tile id="251">
   <objectgroup draworder="index" id="2">
    <object id="1" x="0" y="0" width="64" height="64"/>
   </objectgroup>
  </tile>
  <tile id="252">
   <objectgroup draworder="index" id="2">
    <object id="1" x="0" y="0" width="64" height="64"/>
   </objectgroup>
  </tile>
  <tile id="253">
   <objectgroup draworder="index" id="2">
    <object id="1" x="0" y="0" width="64" height="64"/>
   </objectgroup>
  </tile>
  <tile id="254">
   <objectgroup draworder="index" id="2">
    <object id="1" x="0" y="0" width="64" height="64"/>
   </objectgroup>
  </tile>
  <tile id="255">
   <objectgroup draworder="index" id="2">
    <object id="1" x="0" y="0" width="64" height="64"/>
   </objectgroup>
  </tile>
 </tileset>
 <layer id="19" name="Background" width="37" height="135">
  <data encoding="csv">
   <chunk x="192" y="-16" width="16" height="16">
0,0,0,0,0,0,0,0,0,0,0,0,0,0,0,0,
0,0,0,0,0,0,0,0,0,0,0,0,0,0,0,0,
0,0,0,0,0,0,0,0,0,0,0,0,0,0,0,0,
0,0,0,0,0,0,0,0,0,0,0,0,0,0,0,0,
0,0,0,0,0,0,0,0,0,0,0,0,0,0,0,0,
0,0,0,0,0,0,0,0,0,0,0,0,0,0,0,0,
0,0,0,0,0,0,0,0,0,0,0,0,0,0,0,0,
0,0,0,0,0,0,0,0,0,0,0,0,0,0,0,0,
0,0,0,0,0,0,0,0,0,0,0,0,0,0,0,0,
0,0,0,0,0,0,0,0,0,0,0,0,0,0,0,0,
0,0,0,0,0,0,0,0,0,0,0,0,0,0,0,0,
0,0,0,0,0,0,0,0,0,0,0,0,0,0,0,0,
0,0,0,0,0,0,0,0,0,0,0,0,0,0,0,0,
0,0,0,0,0,0,0,0,0,0,0,0,0,0,0,0,
0,0,0,0,0,0,0,0,0,0,0,0,0,0,0,0,
0,0,0,0,0,22,22,0,0,0,0,0,0,0,0,0
</chunk>
   <chunk x="-16" y="0" width="16" height="16">
0,0,0,0,133,133,136,136,136,136,136,136,136,133,133,0,
0,0,0,0,149,149,152,152,152,152,152,152,152,149,149,0,
0,0,0,0,149,133,152,136,136,136,136,136,136,133,149,0,
0,0,0,0,133,149,152,152,152,152,152,152,152,149,133,0,
0,0,0,0,149,3221225592,2684354709,2684354693,2684354709,2684354693,2684354709,2684354693,2684354693,3221225589,149,0,
0,0,0,0,1610612853,2684354709,2684354709,2684354709,2684354709,2684354709,2684354709,2684354709,2684354709,2684354693,2684354680,0,
0,0,0,0,117,118,118,118,118,118,118,118,118,118,151,0,
0,0,0,0,133,117,2684354709,2684354709,2684354709,2684354709,118,2684354709,2684354709,120,133,0,
0,0,0,0,149,133,150,151,117,2684354709,2684354709,2684354693,120,133,149,0,
0,0,117,118,166,149,133,133,133,0,0,0,133,149,133,117,
230,0,133,0,133,133,133,133,149,136,136,136,149,133,133,3221225605,
0,0,133,0,149,149,149,149,149,152,152,152,149,149,149,3221225605,
0,0,0,0,0,0,0,0,0,0,0,0,0,0,0,0,
0,0,0,0,0,0,0,0,0,0,0,0,0,0,0,0,
0,0,0,0,0,0,0,0,0,0,0,0,0,0,0,0,
0,0,0,0,0,0,0,0,0,0,0,0,0,0,0,0
</chunk>
   <chunk x="0" y="0" width="16" height="16">
0,0,0,0,0,0,0,0,0,0,0,0,0,133,133,133,
0,0,0,0,0,0,0,0,0,0,117,1610612869,1610612869,3221225589,149,133,
0,0,0,0,0,0,0,0,0,0,149,0,0,0,133,133,
0,0,0,0,0,0,0,0,0,0,149,0,0,0,149,133,
0,0,0,0,0,0,0,0,117,1610612869,3221225589,0,1610612856,120,149,133,
0,0,0,0,0,0,0,0,149,0,117,120,133,136,136,3221225592,
0,0,0,0,0,117,1610612869,1610612869,3221225589,0,133,133,133,152,136,117,
0,0,0,0,0,133,0,0,0,0,133,133,133,136,152,133,
0,0,0,0,0,149,0,0,0,0,133,133,133,136,136,133,
2684354693,2684354709,2684354709,2684354709,2684354709,3221225589,0,0,0,0,133,133,133,152,152,133,
0,0,0,0,0,0,0,0,0,0,133,133,133,136,136,133,
0,0,0,0,0,0,0,0,0,0,149,149,149,152,152,149,
0,0,0,0,0,0,0,0,0,0,0,0,0,0,0,0,
0,0,0,0,0,0,0,0,0,0,0,0,0,0,0,0,
0,0,0,0,0,0,0,0,0,0,0,0,0,0,0,0,
0,0,0,0,0,0,0,0,0,0,0,0,0,0,0,0
</chunk>
   <chunk x="16" y="0" width="16" height="16">
0,0,0,0,0,0,0,0,0,0,186,188,189,242,243,244,
0,0,0,0,0,0,0,0,0,0,186,188,189,242,243,244,
0,0,0,0,0,0,0,0,0,0,186,188,189,242,243,244,
0,0,0,0,0,0,0,0,0,0,186,188,189,242,243,244,
0,0,0,0,0,0,0,0,0,1610612856,186,188,189,242,243,244,
2684354693,2684354693,2684354693,2684354693,120,0,0,0,0,133,186,188,189,242,243,244,
2684354677,136,117,2684354677,3221225605,0,0,0,0,133,186,188,189,242,243,244,
133,152,133,133,3221225605,0,0,0,0,133,186,188,189,242,243,244,
133,133,133,133,3221225592,1610612869,1610612869,1610612869,1610612869,2684354680,186,188,189,242,243,244,
133,133,133,133,0,0,0,0,0,0,186,188,189,242,243,244,
133,133,133,149,0,0,0,0,0,0,186,188,189,242,243,244,
149,149,149,0,0,0,0,0,0,0,186,188,189,242,243,244,
0,0,0,0,0,0,0,0,0,0,0,0,0,0,0,0,
0,0,0,0,0,0,0,0,0,0,0,0,0,0,0,0,
0,0,0,0,0,0,0,0,0,0,0,0,0,0,0,0,
0,0,0,0,0,0,0,0,0,0,0,0,0,0,0,0
</chunk>
   <chunk x="32" y="0" width="16" height="16">
245,246,190,189,242,243,244,245,246,190,189,242,243,244,245,246,
245,246,190,189,242,243,244,245,246,190,189,242,243,244,245,246,
245,246,190,189,242,243,244,245,246,190,189,242,243,244,245,246,
245,246,190,189,242,243,244,245,246,190,189,242,243,244,245,246,
245,246,190,189,242,243,244,245,246,190,189,242,243,244,245,246,
245,246,190,189,242,243,244,245,246,190,189,242,243,244,245,246,
245,246,190,189,242,243,244,245,246,190,189,242,243,244,245,246,
245,246,190,189,242,243,244,245,246,190,189,242,243,244,245,246,
245,246,190,189,242,243,244,245,246,190,189,242,243,244,245,246,
245,246,190,189,242,243,244,245,246,190,189,242,243,244,245,246,
245,246,190,189,242,243,244,245,246,190,189,242,243,244,245,246,
245,246,190,189,242,243,244,245,246,190,189,242,243,244,245,246,
0,0,0,0,0,0,0,0,0,0,0,0,0,0,0,0,
0,0,0,0,0,0,0,0,0,0,0,0,0,0,0,0,
0,0,0,0,0,0,0,0,0,0,0,0,0,0,0,0,
0,0,0,0,0,0,0,0,0,0,0,0,0,0,0,0
</chunk>
   <chunk x="48" y="0" width="16" height="16">
190,189,242,243,244,245,246,190,189,242,243,244,245,246,190,2684354805,
190,189,242,243,244,245,246,190,189,242,243,244,245,246,190,2684354806,
190,189,242,243,244,245,246,190,189,242,243,244,245,246,190,2684354750,
190,189,242,243,244,245,246,190,189,242,243,244,245,246,190,2684354749,
190,189,242,243,244,245,246,190,189,242,243,244,245,246,190,2684354802,
190,189,242,243,244,245,246,190,189,242,243,244,245,246,190,2684354803,
190,189,242,243,244,245,246,190,189,242,243,244,245,246,190,2684354804,
190,189,242,243,244,245,246,190,189,242,243,244,245,246,190,2684354805,
190,189,242,243,244,245,246,190,189,242,243,244,245,246,190,2684354806,
190,189,242,243,244,245,246,190,189,242,243,244,245,246,190,2684354750,
190,189,242,243,244,245,246,190,189,242,243,244,245,246,190,2684354749,
190,189,242,243,244,245,246,190,189,242,243,244,245,246,190,2684354802,
0,0,0,0,0,0,0,0,0,0,0,0,0,0,0,0,
0,0,0,0,0,0,0,0,0,0,0,0,0,0,0,0,
0,0,0,0,0,0,0,0,0,0,0,0,0,0,0,0,
0,0,0,0,0,0,0,0,0,0,0,0,0,0,0,0
</chunk>
   <chunk x="64" y="0" width="16" height="16">
0,0,0,0,0,0,0,0,0,0,0,0,0,0,0,0,
0,0,0,0,0,0,0,0,0,0,0,0,0,0,0,0,
186,187,187,188,0,0,0,0,0,0,0,0,0,0,0,0,
186,187,187,188,3758096533,3758096533,3758096533,3758096533,3758096533,3758096533,3758096533,3758096533,3758096533,3758096517,120,0,
186,187,187,188,3758096533,3758096533,3758096533,3758096533,3758096533,3758096533,3758096533,3758096533,3758096517,120,133,0,
186,187,187,188,3758096533,3758096533,3758096533,3758096533,3758096533,3758096533,3758096533,3758096517,120,133,149,0,
186,187,187,188,3758096533,3758096533,3758096533,3758096533,3758096533,3758096533,3758096517,120,133,149,1610612853,2684354709,
186,187,187,188,0,0,0,0,0,0,0,133,133,1610612853,2684354709,2684354693,
186,187,187,188,0,0,0,0,0,0,0,149,1610612853,2684354709,2684354693,2684354709,
186,187,187,188,0,0,0,0,0,0,0,7,0,0,0,0,
186,187,187,188,0,0,0,0,0,0,0,23,0,0,0,0,
0,0,0,0,0,0,0,0,0,0,39,39,0,0,0,0,
0,0,0,0,0,0,0,0,0,0,0,0,0,0,0,0,
0,0,0,0,0,0,0,0,0,0,0,0,0,0,0,0,
0,0,0,0,0,0,0,0,0,0,0,0,0,0,0,0,
0,0,0,0,0,0,0,0,0,0,0,0,0,0,0,0
</chunk>
   <chunk x="80" y="0" width="16" height="16">
0,0,0,0,0,0,0,0,0,0,0,0,0,0,0,0,
0,0,0,0,0,0,0,0,0,0,0,0,0,0,0,0,
0,0,0,0,0,0,0,0,0,0,0,0,0,0,0,0,
2684354678,2684354678,2684354678,0,0,3221225621,0,0,0,0,0,0,0,0,0,0,
2684354679,2684354679,2684354679,0,3221225621,3221225605,3221225621,0,0,0,204,0,0,0,0,0,
3221225623,3221225622,3221225623,3221225622,3221225605,3221225621,3221225605,0,0,0,204,0,0,0,0,0,
2684354693,2684354709,2684354709,2684354693,2684354680,3221225605,3221225621,0,0,0,205,1610612940,1610612940,1610612940,1610612940,1610612940,
2684354709,2684354709,2684354693,2684354709,2684354693,2684354680,3221225605,0,0,0,204,0,0,0,0,0,
2684354693,2684354709,2684354693,2684354709,2684354709,2684354693,2684354680,0,0,0,0,0,0,0,0,0,
0,0,0,0,0,0,0,0,0,0,0,0,0,0,0,0,
0,0,0,0,0,0,0,0,0,0,0,0,0,0,0,0,
0,0,0,0,0,0,0,0,0,0,0,0,0,0,0,0,
0,0,0,0,0,0,0,0,0,0,0,0,0,0,0,0,
0,0,0,0,0,0,0,0,0,0,0,0,0,0,0,0,
0,0,0,0,0,0,0,0,0,0,0,0,0,0,0,0,
0,0,0,0,0,0,0,0,0,0,0,0,0,0,0,0
</chunk>
   <chunk x="96" y="0" width="16" height="16">
0,0,0,0,0,0,0,0,0,0,0,0,0,0,0,0,
0,0,0,0,0,0,0,0,0,0,0,0,0,0,0,0,
0,0,0,0,0,0,0,0,0,0,0,0,204,0,204,204,
225,2684354769,2684354769,2684354769,2684354769,2684354769,2684354769,2684354769,2684354769,2684354769,2684354785,0,204,0,204,204,
209,230,230,230,230,230,230,230,230,230,3221225681,0,204,0,0,204,
209,230,230,229,230,230,230,230,230,230,3221225681,0,204,0,204,204,
209,230,230,230,230,230,230,230,230,230,3221225681,2684354764,205,2684354764,205,205,
1610612961,1610612945,1610612945,1610612945,1610612945,1610612945,1610612945,1610612945,1610612945,1610612945,3221225697,0,204,0,204,204,
0,0,0,0,0,3221225676,0,0,0,0,0,0,204,0,0,204,
0,0,0,0,0,3221225676,0,0,0,0,0,0,0,0,0,0,
0,0,0,0,0,0,0,0,0,0,0,0,0,0,0,0,
0,0,0,0,0,0,0,0,0,0,0,0,0,0,0,0,
0,0,0,0,0,0,0,0,0,0,0,0,0,0,0,0,
0,0,0,0,0,0,0,0,0,0,0,0,0,0,0,0,
0,0,0,0,0,0,0,0,0,0,0,0,0,0,0,0,
0,0,0,0,0,0,0,0,0,0,0,0,0,0,0,0
</chunk>
   <chunk x="112" y="0" width="16" height="16">
0,0,0,0,0,0,0,0,0,0,0,0,0,0,0,0,
0,0,0,0,0,0,0,0,0,0,0,0,204,0,0,204,
0,0,204,0,0,0,0,229,229,0,0,0,204,0,0,204,
0,204,204,0,0,0,0,209,229,3221225681,0,0,204,0,0,204,
0,204,204,0,0,204,0,1610612961,1610612945,3221225697,0,0,204,0,0,204,
0,204,204,0,0,204,0,0,0,0,0,0,204,0,0,204,
2684354764,205,205,3758096588,3758096588,205,206,206,206,206,206,206,205,206,206,205,
0,204,204,0,0,204,0,0,0,0,0,0,204,0,0,204,
204,0,204,0,0,204,0,0,0,0,0,0,204,0,0,204,
0,0,0,0,0,0,0,0,0,0,0,0,204,0,0,204,
0,0,0,0,0,0,0,0,0,0,0,0,204,0,0,204,
0,0,0,0,0,0,0,0,0,0,206,206,205,206,206,205,
0,0,0,0,0,0,0,0,0,0,0,0,2147483852,0,0,2147483852,
0,0,0,0,0,0,0,0,0,0,0,0,0,0,0,0,
0,0,0,0,0,0,0,0,0,0,0,0,0,0,0,0,
0,0,0,0,0,0,0,0,0,0,0,0,0,0,0,0
</chunk>
   <chunk x="128" y="0" width="16" height="16">
0,0,0,0,0,0,0,0,0,0,0,0,0,0,0,0,
0,0,0,0,0,229,0,0,0,0,0,0,0,0,0,0,
0,209,241,229,229,229,210,210,210,210,229,229,0,0,0,0,
0,209,229,229,229,229,229,229,229,229,229,229,229,229,229,229,
0,209,229,229,229,226,2147483874,229,229,229,229,229,229,229,229,229,
0,209,241,229,229,227,3221225699,229,230,229,230,229,230,229,230,229,
536871116,209,229,229,229,227,3221225699,229,229,229,229,229,229,229,229,229,
0,229,229,229,229,227,3221225699,229,229,229,0,0,0,0,0,229,
0,229,229,0,229,1610612962,3221225698,229,241,210,210,229,229,210,210,241,
0,0,0,0,229,229,229,229,229,229,229,229,0,229,229,229,
0,0,0,0,0,0,0,0,0,0,0,0,0,0,0,0,
206,206,0,0,0,0,0,0,0,0,0,0,0,0,0,0,
0,0,0,0,0,0,0,0,0,0,0,0,0,0,0,0,
0,0,0,0,0,0,0,0,0,0,0,0,0,0,0,0,
0,0,0,0,0,0,0,0,0,0,0,0,0,0,0,0,
0,0,0,0,0,0,0,0,0,0,0,0,0,0,0,0
</chunk>
   <chunk x="144" y="0" width="16" height="16">
0,0,0,0,0,0,0,0,0,0,0,0,0,0,0,0,
0,0,0,0,0,229,229,229,229,229,229,229,229,229,229,229,
2147483857,0,209,210,210,210,210,210,210,210,210,210,210,210,210,210,
2147483857,0,209,229,229,229,229,228,229,229,229,229,229,229,229,229,
2147483857,0,209,229,229,229,0,229,229,241,241,241,241,241,241,229,
2147483857,0,209,229,229,0,0,0,0,229,229,229,229,229,229,229,
2147483857,0,209,229,229,229,229,229,0,0,0,0,0,229,229,229,
2147483857,0,209,226,2684354786,229,229,229,229,0,0,0,0,229,229,229,
2147483857,0,209,1610612962,3221225698,229,229,229,210,210,210,210,210,210,210,229,
2147483857,0,209,229,229,229,229,229,228,228,228,228,228,228,228,229,
2147483817,0,0,0,0,0,0,0,0,0,0,0,0,0,0,0,
0,0,0,0,0,0,0,0,0,0,0,0,0,0,0,0,
0,0,0,0,0,0,0,0,0,0,0,0,0,0,0,0,
0,0,0,0,0,0,0,0,0,0,0,0,0,0,0,0,
0,0,0,0,0,0,0,0,0,0,0,0,0,0,0,0,
0,0,0,0,0,0,0,0,0,0,0,0,0,0,0,0
</chunk>
   <chunk x="160" y="0" width="16" height="16">
0,0,0,0,0,0,0,0,0,0,0,0,0,0,0,0,
229,229,229,229,3221225681,0,242,243,244,245,246,242,243,244,245,246,
210,210,210,210,3221225681,0,242,243,244,245,246,242,243,244,245,246,
229,226,2684354786,229,3221225681,0,242,243,244,245,246,242,243,244,245,246,
229,227,3221225699,229,3221225681,0,242,243,244,245,246,242,243,244,245,246,
229,227,3221225699,229,3221225681,0,242,243,244,245,246,242,243,244,245,246,
229,227,3221225699,229,3221225681,189,242,243,244,245,246,242,243,244,245,246,
229,227,3221225699,229,3221225681,0,242,243,244,245,246,242,243,244,245,246,
229,227,3221225699,229,3221225681,0,242,243,244,245,246,242,243,244,245,246,
229,1610612962,3221225698,229,3221225681,0,242,243,244,245,246,242,243,244,245,246,
0,0,0,0,2147483817,0,242,243,244,245,246,242,243,244,245,246,
0,0,0,0,0,0,242,243,244,245,246,242,242,243,244,245,
0,0,0,0,0,0,0,0,0,0,0,0,0,0,0,0,
0,0,0,0,0,0,0,0,0,0,0,0,0,0,0,0,
0,0,0,0,0,0,0,0,0,0,0,0,0,0,0,0,
0,0,0,0,0,0,0,0,0,0,0,0,0,0,0,0
</chunk>
   <chunk x="176" y="0" width="16" height="16">
0,0,0,0,0,0,0,0,0,0,0,0,0,0,0,0,
242,243,244,245,246,190,22,22,22,0,0,0,0,0,0,0,
242,243,244,245,246,190,22,22,7,0,0,0,0,0,0,0,
242,243,244,245,246,190,22,22,22,7,0,0,0,0,0,0,
242,243,244,245,246,190,22,22,22,22,7,0,0,0,0,0,
242,243,244,245,246,190,22,22,22,22,23,0,0,0,0,0,
242,243,244,245,246,190,22,22,22,22,23,0,0,0,0,0,
242,243,244,245,246,190,22,22,22,22,22,7,0,0,0,0,
242,243,244,245,246,190,22,22,22,22,22,23,0,0,0,0,
242,243,244,245,246,190,22,22,22,22,22,22,7,0,0,0,
242,243,244,245,246,190,22,22,22,22,22,22,22,0,0,0,
242,243,244,245,246,190,0,0,0,22,22,0,0,22,0,22,
0,0,0,0,0,0,0,0,0,0,22,22,0,0,0,0,
0,0,0,0,0,0,0,0,0,0,0,0,0,0,0,0,
0,0,0,0,0,0,0,0,0,0,0,0,0,0,0,0,
0,0,0,0,0,0,0,0,0,0,0,0,0,0,0,0
</chunk>
   <chunk x="192" y="0" width="16" height="16">
0,0,0,0,0,22,22,0,0,0,0,0,0,0,0,0,
0,22,22,0,22,22,0,22,0,0,0,22,0,0,0,0,
0,22,22,22,22,22,22,22,22,22,23,0,0,0,0,0,
0,22,22,22,22,22,22,22,22,22,23,0,0,0,0,17,
0,33,22,22,20,21,22,22,22,20,21,7,0,0,0,17,
0,0,17,22,22,22,22,22,22,22,22,22,7,0,0,17,
0,0,17,22,22,22,22,22,22,22,22,22,23,0,0,33,
0,0,17,22,22,22,22,22,22,22,22,22,23,0,0,0,
0,0,17,22,22,22,22,22,22,22,22,22,22,7,0,0,
0,0,17,22,22,22,20,21,22,22,22,22,22,22,4,2,
1,3,22,22,22,22,22,22,22,22,22,22,22,22,22,20,
22,0,0,22,22,22,22,22,22,22,22,22,22,22,22,22,
0,0,0,0,0,22,22,22,22,22,22,22,22,22,22,22,
0,0,0,0,0,0,0,0,0,0,0,0,0,0,0,0,
0,0,0,0,0,0,0,0,0,0,0,0,0,0,0,0,
0,0,0,0,0,0,0,0,0,0,0,0,0,0,0,0
</chunk>
   <chunk x="208" y="0" width="16" height="16">
0,0,0,0,0,0,0,0,0,0,0,0,0,0,0,0,
0,0,0,0,0,0,0,0,0,0,0,0,0,0,0,0,
0,0,0,0,0,22,22,0,0,0,0,0,0,0,0,0,
22,22,22,22,22,22,22,22,22,22,22,22,22,22,22,22,
22,22,22,18,19,20,21,22,22,22,22,22,18,19,20,21,
22,20,21,22,22,22,22,18,19,20,21,22,22,22,22,22,
22,22,22,22,22,22,22,22,22,22,22,22,22,22,22,22,
17,22,22,22,18,19,20,21,18,19,20,21,22,22,22,22,
17,22,22,22,18,19,20,21,22,22,22,22,22,22,22,22,
22,22,22,22,22,22,22,22,22,22,22,18,19,20,21,22,
21,22,18,19,20,21,22,22,22,22,22,22,22,22,22,22,
22,22,22,22,22,22,22,22,22,22,22,22,22,22,22,22,
22,22,0,0,38,0,0,0,0,0,0,0,0,0,0,0,
0,0,0,0,0,0,0,0,0,0,0,0,0,0,0,0,
0,0,0,0,0,0,0,0,0,0,0,0,0,0,0,0,
0,0,0,0,0,0,0,0,0,0,0,0,0,0,0,0
</chunk>
  </data>
 </layer>
 <layer id="13" name="Ground Back" width="37" height="135">
  <data encoding="csv">
   <chunk x="-16" y="0" width="16" height="16">
0,0,0,0,0,0,0,0,0,0,0,0,0,0,0,0,
0,0,0,0,0,0,0,0,0,0,0,0,0,0,0,0,
0,0,0,0,0,0,0,0,0,0,0,0,0,0,0,0,
0,0,0,0,0,0,0,0,0,0,0,0,0,0,0,0,
0,0,0,0,0,0,0,0,0,0,0,0,0,0,0,0,
0,0,0,0,0,0,0,0,0,0,0,0,0,0,0,0,
0,0,0,0,0,0,0,0,0,0,0,0,0,0,0,0,
0,0,0,0,0,0,0,0,0,0,0,0,0,0,0,0,
0,0,0,0,0,0,0,0,0,0,0,0,0,0,0,0,
0,0,0,113,114,115,116,113,1610612865,1610612865,1610612865,1610612865,1610612865,116,0,0,
0,0,0,129,0,0,129,129,0,0,0,0,0,2684354674,0,0,
0,0,0,145,0,0,129,129,0,0,0,0,0,2684354675,0,0,
0,0,0,0,0,0,0,0,0,0,0,0,0,0,0,0,
0,0,0,0,0,0,0,0,0,0,0,0,0,0,0,0,
0,0,0,0,0,0,0,0,0,0,0,0,0,0,0,0,
0,0,0,0,0,0,0,0,0,0,0,0,0,0,0,0
</chunk>
   <chunk x="0" y="0" width="16" height="16">
0,0,0,0,0,0,0,0,0,0,0,0,0,0,0,0,
2684354674,0,0,0,0,0,0,0,0,0,0,0,0,0,0,0,
2684354675,113,114,115,114,115,114,115,114,114,115,116,98,0,0,0,
161,162,0,0,0,0,0,0,0,0,0,1610612849,2684354689,2684354689,2684354689,2684354689,
0,0,0,0,0,0,0,0,0,0,0,0,0,0,0,0,
0,0,0,0,0,0,0,0,0,0,0,0,0,0,0,0,
0,0,0,0,0,0,0,0,0,0,0,0,0,0,0,0,
0,0,0,0,0,0,113,114,115,114,116,0,113,116,0,0,
0,0,0,0,0,0,129,0,0,0,129,0,129,2684354674,0,0,
113,114,115,114,115,116,145,0,0,0,1610612849,2684354689,2684354676,2684354675,0,0,
129,0,0,0,0,129,129,0,0,0,0,0,0,2684354674,0,0,
129,0,0,0,0,129,145,0,0,0,0,0,0,2684354675,0,0,
0,0,0,0,0,0,0,0,0,0,0,0,0,0,0,0,
0,0,0,0,0,0,0,0,0,0,0,0,0,0,0,0,
0,0,0,0,0,0,0,0,0,0,0,0,0,0,0,0,
0,0,0,0,0,0,0,0,0,0,0,0,0,0,0,0
</chunk>
   <chunk x="16" y="0" width="16" height="16">
0,0,0,0,0,0,0,0,0,129,0,0,0,0,0,0,
145,0,145,0,0,0,0,0,0,129,0,0,0,0,0,0,
145,0,145,0,0,0,0,0,0,129,0,0,0,0,0,0,
2684354676,0,1610612849,2684354705,2684354689,2684354705,2684354689,2684354705,2684354705,2684354676,0,0,0,0,0,0,
0,0,0,0,0,0,0,0,0,0,0,0,0,0,0,0,
0,0,0,0,0,0,0,0,0,0,0,0,0,0,0,0,
0,0,0,0,0,0,0,0,0,0,0,0,0,0,0,0,
0,0,0,0,0,0,0,0,0,0,0,0,0,0,0,0,
0,0,0,0,0,0,0,0,0,0,0,0,0,0,0,0,
0,0,0,0,0,0,0,0,0,0,0,0,0,0,0,0,
0,0,0,0,0,0,0,0,0,0,0,0,0,0,0,0,
0,0,0,0,0,0,0,0,0,0,0,0,0,0,0,0,
0,0,0,0,0,0,0,0,0,0,0,0,0,0,0,0,
0,0,0,0,0,0,0,0,0,0,0,0,0,0,0,0,
0,0,0,0,0,0,0,0,0,0,0,0,0,0,0,0,
0,0,0,0,0,0,0,0,0,0,0,0,0,0,0,0
</chunk>
   <chunk x="48" y="0" width="16" height="16">
0,0,0,0,0,0,0,0,0,0,0,0,0,0,0,0,
0,0,0,0,0,0,0,0,0,0,0,0,0,0,0,0,
0,0,0,0,0,0,0,0,0,0,0,0,0,0,0,0,
0,0,0,0,0,0,0,0,0,0,0,0,0,0,0,0,
0,0,0,0,0,0,0,0,0,0,0,0,0,0,0,0,
0,0,0,0,0,0,0,0,0,0,0,0,0,0,0,0,
0,0,0,0,0,0,0,0,0,0,0,0,0,0,0,0,
0,0,0,0,0,0,0,0,0,0,0,0,175,176,0,0,
0,0,0,0,0,175,176,0,0,0,0,0,191,192,0,0,
0,0,0,0,0,191,192,0,0,0,0,0,207,208,0,0,
0,0,0,0,0,207,208,0,0,0,0,0,207,208,0,0,
0,0,0,0,0,0,0,0,0,0,0,0,0,0,0,0,
0,0,0,0,0,0,0,0,0,0,0,0,0,0,0,0,
0,0,0,0,0,0,0,0,0,0,0,0,0,0,0,0,
0,0,0,0,0,0,0,0,0,0,0,0,0,0,0,0,
0,0,0,0,0,0,0,0,0,0,0,0,0,0,0,0
</chunk>
   <chunk x="64" y="0" width="16" height="16">
0,0,0,0,0,0,0,0,0,0,0,0,0,0,0,0,
0,0,0,0,0,0,0,0,0,0,0,0,0,0,0,0,
3221225680,3221225679,0,0,0,0,0,0,0,0,0,0,0,0,0,3221225680,
3221225680,3221225679,0,0,0,0,0,0,0,0,0,0,0,0,0,3221225664,
3221225664,3221225663,0,0,0,0,0,0,0,0,0,0,0,0,0,3221225648,
3221225648,3221225647,0,0,0,0,0,0,0,0,0,0,0,0,0,0,
0,0,0,0,0,0,0,0,0,0,0,0,0,0,0,0,
0,0,0,0,0,0,0,0,0,0,0,175,176,0,0,0,
0,0,0,0,175,176,0,0,0,0,0,191,192,0,0,175,
0,0,0,0,191,192,0,0,0,0,0,207,208,0,0,191,
0,0,0,0,207,208,0,0,0,0,0,207,208,0,0,207,
0,0,0,0,0,0,0,0,0,0,0,0,0,0,0,0,
0,0,0,0,0,0,0,0,0,0,0,0,0,0,0,0,
0,0,0,0,0,0,0,0,0,0,0,0,0,0,0,0,
0,0,0,0,0,0,0,0,0,0,0,0,0,0,0,0,
0,0,0,0,0,0,0,0,0,0,0,0,0,0,0,0
</chunk>
   <chunk x="80" y="0" width="16" height="16">
0,0,0,0,0,0,0,0,0,0,0,0,0,0,0,0,
0,0,0,0,0,0,0,0,0,0,0,0,0,0,0,0,
3221225679,0,0,0,0,0,0,0,0,0,0,0,0,0,0,0,
3221225663,0,0,0,0,0,0,0,209,2147483857,0,0,0,0,0,0,
3221225647,0,0,0,0,0,0,0,209,2147483857,0,0,0,0,0,0,
0,0,0,0,0,0,0,0,209,2147483857,0,0,0,0,0,0,
0,0,0,0,0,0,0,0,209,2147483857,0,0,0,0,0,0,
0,0,0,0,0,0,0,0,209,2147483857,0,0,0,0,0,0,
176,0,0,0,0,0,0,0,209,2147483857,0,0,0,0,0,0,
192,0,0,0,0,0,0,0,209,2147483857,0,230,230,230,230,230,
208,0,0,0,0,0,0,0,209,2147483857,0,230,230,230,230,230,
0,0,0,0,0,0,0,0,209,2147483857,230,230,230,230,230,230,
0,0,0,0,0,0,0,0,0,0,0,0,0,0,0,0,
0,0,0,0,0,0,0,0,0,0,0,0,0,0,0,0,
0,0,0,0,0,0,0,0,0,0,0,0,0,0,0,0,
0,0,0,0,0,0,0,0,0,0,0,0,0,0,0,0
</chunk>
   <chunk x="96" y="0" width="16" height="16">
0,0,0,0,0,0,0,0,0,0,0,0,0,0,0,0,
0,0,0,0,0,0,0,0,0,0,0,0,40,41,42,0,
0,0,0,0,0,0,0,0,0,0,0,0,40,41,42,0,
0,0,0,0,0,0,0,0,0,0,0,0,40,41,42,0,
0,0,0,0,0,0,0,0,0,0,0,0,56,57,58,0,
0,0,0,0,0,0,0,0,0,0,0,0,0,0,0,0,
0,0,0,0,0,0,0,0,0,0,0,0,0,0,0,0,
0,0,0,0,0,0,0,0,0,0,0,53,54,54,54,54,
0,0,0,0,0,0,0,0,0,0,0,69,70,70,70,70,
0,0,0,0,0,0,0,0,0,0,0,40,41,41,42,0,
0,0,0,0,0,0,0,0,0,0,0,40,41,41,42,0,
0,0,0,0,0,0,0,0,0,0,0,40,41,41,42,0,
0,0,0,0,0,0,0,0,0,0,0,0,0,0,0,0,
0,0,0,0,0,0,0,0,0,0,0,0,0,0,0,0,
0,0,0,0,0,0,0,0,0,0,0,0,0,0,0,0,
0,0,0,0,0,0,0,0,0,0,0,0,0,0,0,0
</chunk>
   <chunk x="112" y="0" width="16" height="16">
0,0,0,0,0,0,0,0,0,0,0,0,0,0,0,0,
0,0,0,0,0,0,0,0,0,0,40,41,42,0,0,0,
0,0,0,0,0,0,0,0,0,0,40,41,42,0,0,0,
0,0,0,0,0,0,0,0,0,0,40,41,42,0,0,0,
0,0,0,0,0,0,0,0,0,0,56,57,58,0,0,0,
0,0,0,0,0,0,0,0,0,0,0,0,0,0,0,0,
0,0,0,0,0,0,0,0,0,0,0,0,0,0,0,0,
54,55,0,0,0,0,0,0,0,0,0,0,0,0,0,0,
70,70,0,0,0,0,0,0,0,0,0,0,0,0,0,0,
0,0,0,0,0,0,0,0,0,0,0,0,0,0,0,0,
0,0,0,0,0,0,0,0,0,0,0,0,0,0,0,0,
0,0,0,0,0,0,0,0,0,0,0,0,0,0,0,0,
0,0,0,0,0,0,0,0,0,0,0,0,0,0,0,0,
0,0,0,0,0,0,0,0,0,0,0,0,0,0,0,0,
0,0,0,0,0,0,0,0,0,0,0,0,0,0,0,0,
0,0,0,0,0,0,0,0,0,0,0,0,0,0,0,0
</chunk>
   <chunk x="128" y="0" width="16" height="16">
0,0,0,0,0,0,0,0,0,0,0,0,0,0,0,0,
0,209,230,230,230,230,230,230,230,0,0,0,0,0,0,0,
0,0,0,0,0,0,0,0,0,0,0,0,0,0,0,0,
0,0,0,0,0,0,0,0,0,0,0,0,0,0,0,0,
0,0,0,0,0,0,0,0,0,0,0,0,0,0,0,0,
0,0,0,0,0,0,0,0,0,0,0,0,0,0,0,0,
0,0,0,0,0,0,0,0,0,0,0,0,0,0,0,0,
0,0,0,230,0,0,0,0,0,0,0,0,0,0,0,0,
0,195,0,230,0,0,0,0,0,0,0,0,0,0,0,0,
0,197,0,230,0,0,0,0,0,0,0,0,230,230,0,0,
0,0,0,230,230,230,230,230,230,230,230,230,230,230,230,230,
0,0,0,230,230,0,0,0,0,0,0,0,0,0,0,0,
0,0,0,0,0,0,0,0,0,0,0,0,0,0,0,0,
0,0,0,0,0,0,0,0,0,0,0,0,0,0,0,0,
0,0,0,0,0,0,0,0,0,0,0,0,0,0,0,0,
0,0,0,0,0,0,0,0,0,0,0,0,0,0,0,0
</chunk>
   <chunk x="144" y="0" width="16" height="16">
0,0,0,0,0,0,0,0,0,0,0,0,0,0,0,0,
0,0,0,230,230,230,0,0,0,0,0,0,0,0,0,0,
0,0,0,0,0,0,0,0,0,0,0,0,0,0,0,0,
0,0,0,0,0,0,0,0,0,0,0,0,0,0,0,0,
0,0,0,0,0,111,216,217,218,112,0,0,0,0,0,0,
0,0,0,0,0,127,78,14,77,128,0,0,0,0,0,0,
0,0,0,0,0,95,3221225549,3221225486,3221225550,96,0,0,0,0,0,0,
0,0,0,0,0,0,0,0,0,0,0,0,0,0,0,0,
0,0,0,0,0,0,0,0,0,0,0,0,0,0,0,0,
0,0,0,0,0,0,0,0,0,0,0,0,0,0,0,0,
230,230,230,230,230,230,230,230,230,230,230,0,0,0,0,0,
0,0,0,0,0,0,0,0,0,0,0,0,0,0,0,0,
0,0,0,0,0,0,0,0,0,0,0,0,0,0,0,0,
0,0,0,0,0,0,0,0,0,0,0,0,0,0,0,0,
0,0,0,0,0,0,0,0,0,0,0,0,0,0,0,0,
0,0,0,0,0,0,0,0,0,0,0,0,0,0,0,0
</chunk>
  </data>
 </layer>
 <layer id="9" name="Ground" width="37" height="135">
  <data encoding="csv">
   <chunk x="-32" y="0" width="16" height="16">
0,0,56,57,57,57,57,57,57,57,57,57,57,57,57,58,
0,0,0,0,0,0,0,0,0,0,0,0,0,0,0,0,
0,0,0,0,0,0,0,0,0,0,0,0,0,0,0,0,
0,0,0,0,0,0,0,0,0,0,0,0,0,0,0,0,
0,0,0,0,0,0,0,0,0,0,0,0,0,0,0,0,
0,0,0,0,0,0,0,0,0,0,0,0,0,0,0,0,
0,0,0,0,0,0,0,0,0,0,0,0,0,0,0,0,
0,0,0,0,0,0,0,0,0,0,0,0,0,0,0,0,
0,0,0,0,0,0,0,0,0,0,0,0,0,0,0,0,
0,0,0,0,0,0,0,0,0,0,0,0,0,0,0,0,
0,0,53,54,54,54,54,54,54,54,54,54,54,54,54,55,
0,0,69,70,70,70,70,70,70,70,70,70,70,70,70,71,
0,0,0,0,0,0,0,0,0,0,0,0,0,0,0,0,
0,0,0,0,0,0,0,0,0,0,0,0,0,0,0,0,
0,0,0,0,0,0,0,0,0,0,0,0,0,0,0,0,
0,0,0,0,0,0,0,0,0,0,0,0,0,0,0,0
</chunk>
   <chunk x="-16" y="0" width="16" height="16">
207,208,145,0,0,0,0,0,0,0,0,0,0,0,0,0,
3221225680,3221225679,145,146,147,146,147,146,147,146,147,146,147,113,114,115,
3221225664,3221225663,161,162,163,164,161,162,163,164,161,162,163,164,0,0,
3221225648,3221225647,0,0,0,0,0,0,0,0,0,0,0,0,0,0,
0,0,0,0,0,0,0,0,0,0,0,0,0,0,0,0,
0,0,0,0,0,0,0,0,0,0,0,0,0,0,0,0,
0,0,0,0,0,0,0,0,0,0,0,0,0,0,0,0,
0,0,0,0,0,0,0,0,0,0,0,0,0,0,0,0,
175,176,0,0,0,0,0,0,0,0,0,0,0,0,0,0,
191,192,0,0,0,0,0,0,0,0,0,0,0,0,0,0,
207,208,0,0,0,0,0,0,0,0,0,0,0,0,113,2684354689,
207,208,113,114,115,114,115,114,115,114,115,116,0,0,145,0,
0,0,0,0,0,0,0,0,0,0,0,0,0,0,0,0,
0,0,0,0,0,0,0,0,0,0,0,0,0,0,0,0,
0,0,0,0,0,0,0,0,0,0,0,0,0,0,0,0,
0,0,0,0,0,0,0,0,0,0,0,0,0,0,0,0
</chunk>
   <chunk x="0" y="0" width="16" height="16">
129,0,0,0,0,0,0,0,0,0,0,0,0,0,0,0,
114,115,114,115,114,115,114,115,114,115,114,115,116,0,0,0,
0,0,0,0,0,0,0,0,0,0,0,0,3221225588,3221225587,3221225586,3221225587,
0,0,0,0,0,0,0,0,0,0,0,0,0,0,0,0,
0,0,0,0,0,0,0,0,0,0,0,0,0,0,0,0,
0,0,0,0,0,0,0,0,0,0,0,0,0,0,0,0,
0,0,0,0,0,0,0,0,0,0,0,0,0,0,0,0,
0,0,0,0,0,0,0,0,0,0,0,146,147,0,0,0,
0,0,0,0,0,0,0,0,0,0,0,2684354674,2684354674,0,146,147,
0,0,0,0,0,0,0,0,1610612852,2684354689,116,2684354675,2684354675,0,2684354674,2684354674,
114,115,116,0,113,114,115,116,2684354674,0,2684354674,2684354674,2684354674,0,2684354675,2684354675,
0,0,129,0,129,0,0,129,2684354675,0,2684354675,2684354675,2684354675,0,129,129,
0,0,0,0,0,0,0,0,0,0,0,0,0,0,0,0,
0,0,0,0,0,0,0,0,0,0,0,0,0,0,0,0,
0,0,0,0,0,0,0,0,0,0,0,0,0,0,0,0,
0,0,0,0,0,0,0,0,0,0,0,0,0,0,0,0
</chunk>
   <chunk x="16" y="0" width="16" height="16">
129,0,129,0,0,0,0,0,0,0,0,129,3221225680,3221225679,0,0,
0,0,0,0,0,0,0,1610612852,2684354689,2684354689,2684354689,2684354676,3221225664,3221225663,57,57,
3221225586,3221225587,3221225586,3221225587,3221225586,3221225587,3221225586,3221225585,0,0,0,0,3221225648,3221225647,0,0,
0,0,0,0,0,0,0,0,0,0,0,0,0,0,0,0,
0,0,0,0,0,0,0,0,0,0,0,0,0,0,0,0,
0,0,0,0,0,0,0,0,0,0,0,0,0,0,0,0,
0,0,0,0,0,0,0,0,0,0,0,0,0,0,0,0,
0,0,0,0,0,0,0,0,0,0,0,0,0,0,0,0,
146,147,146,147,146,147,0,0,0,0,0,0,0,0,0,0,
2684354674,2684354674,2684354674,2684354674,2684354674,2684354674,113,114,114,114,114,2684354708,2684354692,116,0,0,
2684354675,2684354675,2684354675,2684354675,2684354675,2684354675,129,0,0,0,0,0,0,145,0,0,
129,129,129,129,129,129,145,0,0,0,0,0,0,145,0,0,
0,0,0,0,0,0,0,0,0,0,0,0,0,0,0,0,
0,0,0,0,0,0,0,0,0,0,0,0,0,0,0,0,
0,0,0,0,0,0,0,0,0,0,0,0,0,0,0,0,
0,0,0,0,0,0,0,0,0,0,0,0,0,0,0,0
</chunk>
   <chunk x="32" y="0" width="16" height="16">
0,0,0,0,0,0,0,0,0,0,3221225680,3221225679,0,0,0,0,
57,57,57,57,57,57,57,57,57,57,3221225664,3221225663,57,57,57,57,
0,0,0,0,0,0,0,0,0,0,3221225648,3221225647,0,0,0,0,
0,0,0,0,0,0,0,0,0,0,0,0,0,0,0,0,
0,0,0,0,0,0,0,0,0,0,0,0,0,0,0,0,
0,0,0,0,0,0,0,0,0,0,0,0,0,0,0,0,
0,175,176,0,0,0,0,0,0,0,0,0,0,0,0,0,
0,191,192,0,0,0,0,0,0,0,0,0,0,0,0,0,
0,207,208,0,0,175,176,0,0,0,0,0,0,0,0,0,
0,207,208,0,0,191,192,0,0,0,175,176,0,0,0,0,
0,207,208,0,0,207,208,0,0,0,191,192,0,0,0,0,
0,207,208,0,0,207,208,0,0,0,207,208,0,0,0,0,
0,0,0,0,0,0,0,0,0,0,0,0,0,0,0,0,
0,0,0,0,0,0,0,0,0,0,0,0,0,0,0,0,
0,0,0,0,0,0,0,0,0,0,0,0,0,0,0,0,
0,0,0,0,0,0,0,0,0,0,0,0,0,0,0,0
</chunk>
   <chunk x="48" y="0" width="16" height="16">
0,2147483840,2147483904,2147483903,2147483902,2147483901,2147483900,2147483899,2147483898,2147483897,2147483896,2147483895,2147483904,2147483903,2147483902,2147483901,
57,3221225664,3221225728,3221225727,3221225726,3221225725,3221225724,3221225723,3221225722,3221225721,3221225720,3221225719,3221225728,3221225727,3221225726,3221225725,
0,3221225648,3221225712,3221225711,3221225710,3221225709,3221225708,3221225707,3221225706,3221225705,3221225704,3221225703,3221225712,3221225711,3221225710,3221225709,
0,0,0,0,0,0,0,0,0,0,0,0,0,0,0,0,
0,0,0,0,0,0,0,0,0,0,0,0,0,0,0,0,
0,0,0,0,0,0,0,0,0,0,0,0,0,0,0,0,
0,0,0,0,0,0,0,0,50,52,0,0,0,0,0,0,
0,0,0,0,0,0,0,0,66,68,0,0,0,0,0,0,
0,0,0,0,0,0,0,0,0,0,0,0,0,0,0,0,
0,0,0,0,0,0,0,0,0,0,0,0,0,0,0,0,
0,175,231,232,233,234,235,236,237,238,239,240,231,232,233,234,
0,191,247,248,249,250,251,252,253,254,255,256,247,248,249,250,
0,0,0,0,0,0,0,0,0,0,0,0,0,0,0,0,
0,0,0,0,0,0,0,0,0,0,0,0,0,0,0,0,
0,0,0,0,0,0,0,0,0,0,0,0,0,0,0,0,
0,0,0,0,0,0,0,0,0,0,0,0,0,0,0,0
</chunk>
   <chunk x="64" y="0" width="16" height="16">
2147483900,2147483899,2147483898,2147483897,2147483896,2147483895,2147483904,2147483903,2147483902,2147483901,2147483900,2147483899,2147483898,2147483897,2147483896,2147483895,
3221225724,3221225723,3221225722,3221225721,3221225720,3221225719,3221225728,3221225727,3221225726,3221225725,3221225724,3221225723,3221225722,3221225721,3221225720,3221225719,
3221225708,3221225707,3221225706,3221225705,3221225704,3221225703,3221225712,3221225711,3221225710,3221225709,3221225708,3221225707,3221225706,3221225705,3221225704,3221225703,
0,0,0,0,0,0,0,0,0,0,0,0,0,0,0,0,
0,0,0,0,0,0,0,0,0,0,0,0,0,0,0,0,
0,0,0,0,0,0,0,0,0,0,0,0,0,0,0,0,
0,0,0,0,0,0,0,50,52,0,0,0,0,0,0,0,
0,0,0,0,0,0,0,66,68,0,0,0,0,0,0,0,
0,0,0,0,0,0,0,0,0,0,0,0,0,0,0,0,
0,0,0,0,0,0,0,0,0,0,0,0,0,0,0,0,
235,236,237,238,239,240,231,232,233,234,235,236,237,238,239,240,
251,252,253,254,255,256,247,248,249,250,251,252,253,254,255,256,
0,0,0,0,0,0,0,0,0,0,0,0,0,0,0,0,
0,0,0,0,0,0,0,0,0,0,0,0,0,0,0,0,
0,0,0,0,0,0,0,0,0,0,0,0,0,0,0,0,
0,0,0,0,0,0,0,0,0,0,0,0,0,0,0,0
</chunk>
   <chunk x="80" y="0" width="16" height="16">
192,0,0,0,0,0,0,0,0,0,0,0,0,0,0,0,
1073742016,40,41,41,41,41,41,41,41,41,41,41,41,41,41,41,
1073742000,40,41,41,41,41,41,41,41,41,41,43,57,57,57,57,
0,56,57,44,41,41,41,43,57,57,57,58,0,0,0,0,
0,0,0,56,57,44,43,58,0,0,0,0,0,0,0,0,
0,0,0,0,0,56,58,0,0,0,0,0,0,0,0,0,
0,0,0,0,0,0,0,0,0,0,0,0,53,54,55,0,
0,0,0,0,0,0,0,0,0,53,54,55,69,70,71,0,
0,53,54,54,54,54,54,54,55,69,70,71,40,41,42,53,
0,69,70,70,70,70,70,70,71,40,41,42,40,41,42,40,
176,40,41,41,41,41,41,41,42,40,41,42,40,41,42,40,
192,40,41,41,41,41,41,41,42,40,41,40,40,41,42,40,
0,0,0,0,0,0,0,0,0,0,0,0,0,0,0,0,
0,0,0,0,0,0,0,0,0,0,0,0,0,0,0,0,
0,0,0,0,0,0,0,0,0,0,0,0,0,0,0,0,
0,0,0,0,0,0,0,0,0,0,0,0,0,0,0,0
</chunk>
   <chunk x="96" y="0" width="16" height="16">
0,0,0,0,0,0,0,0,0,0,0,0,0,0,0,0,
41,42,3221225664,3221225728,3221225727,3221225726,3221225725,3221225724,3221225723,3221225722,3221225721,3221225720,3221225719,3221225663,29,31,
57,58,3221225648,3221225712,3221225711,3221225710,3221225709,3221225708,3221225707,3221225706,3221225705,3221225704,3221225703,3221225647,45,46,
0,0,0,0,0,0,0,0,0,0,0,0,0,0,0,0,
49,50,51,52,0,0,0,0,0,0,0,0,0,0,0,0,
65,66,67,68,0,0,49,50,51,52,0,0,0,0,0,0,
0,0,0,0,0,0,65,66,67,68,0,0,0,0,0,0,
0,0,0,0,0,0,0,0,0,0,0,0,0,0,0,0,
54,55,0,0,0,0,0,0,0,0,0,0,0,0,24,25,
70,42,175,231,232,233,234,235,236,237,238,239,240,176,40,41,
41,42,191,247,248,249,250,251,252,253,254,255,256,192,40,41,
41,42,3221225664,3221225728,3221225727,3221225726,3221225725,3221225724,3221225723,3221225722,3221225721,3221225720,3221225719,3221225663,40,41,
0,0,0,0,0,0,0,0,0,0,0,0,0,0,0,0,
0,0,0,0,0,0,0,0,0,0,0,0,0,0,0,0,
0,0,0,0,0,0,0,0,0,0,0,0,0,0,0,0,
0,0,0,0,0,0,0,0,0,0,0,0,0,0,0,0
</chunk>
   <chunk x="112" y="0" width="16" height="16">
0,0,0,0,0,0,0,0,0,0,0,0,0,0,0,0,
31,31,31,31,31,31,31,31,31,31,32,0,43,57,1073741832,57,
47,47,47,12,30,30,11,47,47,47,48,0,0,0,0,0,
0,0,0,1610612814,31,31,2684354637,0,0,0,0,0,0,0,0,0,
0,0,0,95,3221225549,3221225550,96,0,0,0,0,0,0,0,0,0,
0,0,0,0,0,0,0,0,0,0,0,0,0,0,0,0,
0,0,0,0,0,0,0,0,0,0,0,0,0,0,0,0,
0,0,0,0,0,0,0,0,0,0,0,0,0,0,0,0,
181,182,183,184,177,213,216,217,218,215,212,193,194,195,194,195,
13,14,15,15,15,15,15,15,15,15,16,197,198,199,198,199,
29,31,31,31,31,31,31,31,31,31,32,0,0,0,0,0,
29,31,31,31,31,31,31,31,31,31,32,0,0,0,0,0,
0,0,0,0,0,0,0,0,0,0,0,0,0,0,0,0,
0,0,0,0,0,0,0,0,0,0,0,0,0,0,0,0,
0,0,0,0,0,0,0,0,0,0,0,0,0,0,0,0,
0,0,0,0,0,0,0,0,0,0,0,0,0,0,0,0
</chunk>
   <chunk x="128" y="0" width="16" height="16">
0,0,0,0,0,0,0,0,0,0,0,0,0,0,0,0,
1073741832,57,57,44,41,43,57,57,58,45,12,31,31,31,31,31,
0,0,0,56,1073741832,58,0,0,0,0,45,46,46,46,46,46,
0,0,0,0,0,0,0,0,0,0,0,0,0,0,0,0,
0,0,0,0,0,0,0,0,0,0,0,0,0,0,0,0,
0,0,0,0,0,0,0,0,0,0,0,0,0,0,0,0,
0,53,54,55,0,0,0,0,50,51,51,51,51,51,51,52,
0,69,70,71,0,0,0,0,66,67,67,67,67,67,67,68,
196,40,41,42,0,0,0,0,0,0,0,24,26,0,0,0,
200,40,41,42,0,0,0,0,0,0,0,40,42,0,0,0,
0,40,41,42,24,25,25,25,25,25,25,60,59,25,25,25,
0,40,41,42,40,41,41,41,41,41,41,41,41,41,41,41,
0,40,41,42,0,0,0,0,0,0,0,0,0,0,0,0,
0,40,41,42,0,0,0,0,0,0,0,0,0,0,0,0,
0,40,41,42,0,0,0,0,0,0,0,0,0,0,0,0,
0,0,0,0,0,0,0,0,0,0,0,0,0,0,0,0
</chunk>
   <chunk x="144" y="0" width="16" height="16">
0,0,0,0,0,0,0,0,0,0,0,0,0,0,0,0,
31,31,11,48,56,57,57,57,57,57,57,57,57,57,57,57,
46,46,48,0,0,0,0,0,0,0,0,0,0,0,0,0,
0,0,0,0,0,0,0,0,0,0,0,0,0,0,0,0,
0,0,0,0,0,0,0,0,0,0,0,0,0,0,0,0,
0,0,0,0,0,0,0,111,216,217,218,213,213,213,213,112,
0,0,0,0,0,0,0,127,78,14,14,14,14,14,14,128,
0,0,0,0,0,0,0,95,3221225549,3221225487,3221225487,3221225487,3221225487,3221225487,3221225487,96,
0,0,0,0,0,0,0,0,0,0,0,0,0,0,0,0,
0,0,0,0,0,0,0,0,0,0,0,0,0,0,0,0,
25,25,25,25,25,25,25,25,181,182,183,213,213,213,214,213,
41,41,41,41,41,41,41,42,13,14,14,14,14,14,14,14,
0,0,0,0,0,0,0,0,0,0,0,0,0,0,0,0,
0,0,0,0,0,0,0,0,0,0,0,0,0,0,0,0,
0,0,0,0,0,0,0,0,0,0,0,0,0,0,0,0,
0,0,0,0,0,0,0,0,0,0,0,0,0,0,0,0
</chunk>
   <chunk x="160" y="0" width="16" height="16">
0,0,0,0,0,0,0,0,0,0,0,0,0,0,0,0,
57,57,57,57,58,2147483740,46,46,46,46,46,46,46,46,46,46,
0,0,0,0,0,93,0,0,0,0,0,0,0,0,0,0,
0,0,0,0,0,93,0,0,0,0,0,0,0,0,0,0,
0,0,0,0,0,93,0,0,0,0,0,0,0,0,0,0,
0,0,0,0,0,1073741918,0,0,0,0,0,0,0,0,0,0,
0,0,0,0,0,0,0,0,0,0,0,0,0,0,0,0,
0,0,0,0,0,221,0,0,0,0,0,0,0,0,0,0,
0,0,0,0,0,94,0,0,0,0,0,0,0,0,0,0,
0,0,0,0,0,93,0,0,0,0,0,0,0,0,0,0,
213,213,215,220,221,93,2147483863,213,213,214,213,216,217,218,213,213,
14,14,14,14,14,3221225548,14,14,14,14,14,14,14,14,14,14,
0,0,0,0,0,0,0,0,0,0,0,0,0,0,0,0,
0,0,0,0,0,0,0,0,0,0,0,0,0,0,0,0,
0,0,0,0,0,0,0,0,0,0,0,0,0,0,0,0,
0,0,0,0,0,0,0,0,0,0,0,0,0,0,0,0
</chunk>
   <chunk x="176" y="0" width="16" height="16">
0,0,0,0,0,0,0,0,0,0,0,0,0,0,0,0,
46,46,47,47,92,56,57,57,57,57,57,57,57,57,44,41,
0,0,0,0,93,0,0,0,0,0,0,0,0,0,56,57,
0,0,0,0,93,0,0,0,0,0,0,0,0,0,0,0,
0,0,0,0,3221225566,0,0,0,0,0,0,0,0,0,0,0,
0,0,0,0,0,0,0,0,0,0,0,0,0,0,0,0,
0,0,0,0,0,0,0,0,0,0,0,0,0,0,0,0,
0,0,0,0,221,0,0,0,0,0,0,0,0,0,0,0,
0,0,0,0,94,0,0,0,0,0,0,0,0,0,0,0,
0,0,0,0,93,0,0,0,0,0,0,0,0,0,0,0,
214,213,213,215,93,0,0,0,0,0,0,0,0,24,26,0,
14,14,14,14,1073741916,24,25,25,25,25,25,25,25,60,59,25,
0,0,0,0,0,41,41,41,41,41,41,41,41,41,41,41,
0,0,0,0,0,0,0,0,0,0,0,0,0,0,0,0,
0,0,0,0,0,0,0,0,0,0,0,0,0,0,0,0,
0,0,0,0,0,0,0,0,0,0,0,0,0,0,0,0
</chunk>
   <chunk x="192" y="0" width="16" height="16">
0,0,0,0,0,0,0,0,0,0,0,0,0,0,0,0,
41,41,41,43,57,57,57,57,57,57,57,57,57,44,41,41,
44,41,43,58,0,0,0,0,0,0,0,0,0,56,57,57,
56,57,58,0,0,0,0,0,0,0,0,0,0,0,0,0,
0,0,0,0,0,0,0,0,0,0,0,0,0,0,0,0,
0,0,0,0,0,0,0,0,0,0,0,0,0,0,0,0,
0,0,0,0,0,0,0,0,50,51,52,0,0,0,0,0,
0,0,0,0,0,0,0,0,66,67,68,0,0,0,0,0,
0,0,0,0,0,0,0,0,0,0,0,0,0,0,0,0,
0,0,0,0,0,0,0,0,0,0,0,0,0,0,0,0,
0,0,0,0,0,0,0,0,0,0,0,0,0,0,0,0,
25,25,25,26,0,0,0,0,0,0,0,0,0,0,24,25,
41,41,41,59,25,25,25,26,25,25,25,25,25,24,41,41,
0,0,0,0,0,0,0,0,0,0,0,0,0,0,0,0,
0,0,0,0,0,0,0,0,0,0,0,0,0,0,0,0,
0,0,0,0,0,0,0,0,0,0,0,0,0,0,0,0
</chunk>
   <chunk x="208" y="0" width="16" height="16">
0,0,0,0,0,0,0,0,0,0,0,0,0,0,0,0,
41,41,41,41,41,41,41,41,41,41,41,41,41,41,41,41,
57,57,57,57,57,57,57,57,57,57,57,57,57,57,57,57,
0,0,0,0,0,0,0,0,0,0,0,0,0,0,0,0,
0,0,0,0,0,0,0,0,0,0,0,0,0,0,0,0,
0,0,0,0,0,0,0,0,0,0,0,0,0,0,0,0,
0,0,0,0,0,0,0,0,0,0,0,0,0,0,0,0,
0,0,0,0,0,0,0,0,0,0,0,0,0,0,0,0,
0,0,0,0,0,0,0,0,0,0,0,0,0,0,0,0,
0,0,0,0,0,0,0,0,0,0,0,0,0,0,0,0,
0,0,0,0,0,0,0,0,0,0,0,0,0,0,0,0,
25,25,25,25,25,25,25,25,25,25,25,25,25,25,25,25,
41,41,41,41,41,41,41,41,41,41,41,41,41,41,41,41,
0,0,0,0,0,0,0,0,0,0,0,0,0,0,0,0,
0,0,0,0,0,0,0,0,0,0,0,0,0,0,0,0,
0,0,0,0,0,0,0,0,0,0,0,0,0,0,0,0
</chunk>
   <chunk x="224" y="0" width="16" height="16">
0,0,0,0,0,0,0,0,0,0,0,0,0,0,0,0,
41,0,0,0,0,0,0,0,0,0,0,0,0,0,0,0,
44,0,0,0,0,0,0,0,0,0,0,0,0,0,0,0,
40,0,0,0,0,0,0,0,0,0,0,0,0,0,0,0,
40,0,0,0,0,0,0,0,0,0,0,0,0,0,0,0,
40,0,0,0,0,0,0,0,0,0,0,0,0,0,0,0,
40,0,0,0,0,0,0,0,0,0,0,0,0,0,0,0,
40,0,0,0,0,0,0,0,0,0,0,0,0,0,0,0,
40,0,0,0,0,0,0,0,0,0,0,0,0,0,0,0,
40,0,0,0,0,0,0,0,0,0,0,0,0,0,0,0,
40,0,0,0,0,0,0,0,0,0,0,0,0,0,0,0,
60,0,0,0,0,0,0,0,0,0,0,0,0,0,0,0,
41,0,0,0,0,0,0,0,0,0,0,0,0,0,0,0,
0,0,0,0,0,0,0,0,0,0,0,0,0,0,0,0,
0,0,0,0,0,0,0,0,0,0,0,0,0,0,0,0,
0,0,0,0,0,0,0,0,0,0,0,0,0,0,0,0
</chunk>
  </data>
 </layer>
 <layer id="22" name="Foreground" width="37" height="135">
  <data encoding="csv">
   <chunk x="112" y="0" width="16" height="16">
0,0,0,0,0,0,0,0,0,0,0,0,0,0,0,0,
0,0,0,0,0,0,0,0,0,0,0,0,0,0,0,0,
0,0,0,0,0,0,0,0,0,0,0,0,0,0,0,0,
0,0,0,0,0,0,0,0,0,0,0,0,0,0,0,0,
0,0,0,0,0,0,0,0,0,0,0,0,0,0,0,0,
0,0,0,0,0,0,0,0,0,0,0,0,0,0,0,0,
0,0,0,0,0,0,0,0,0,0,0,0,0,0,0,0,
0,0,0,0,0,0,0,0,0,0,0,0,0,0,0,0,
222,222,223,0,0,223,224,224,224,224,224,224,222,224,224,222,
0,0,0,0,0,0,0,0,0,0,0,0,0,0,0,0,
0,0,0,0,0,0,0,0,0,0,0,0,0,0,0,0,
0,0,0,0,0,0,0,0,0,0,0,0,0,0,0,0,
0,0,0,0,0,0,0,0,0,0,0,0,0,0,0,0,
0,0,0,0,0,0,0,0,0,0,0,0,0,0,0,0,
0,0,0,0,0,0,0,0,0,0,0,0,0,0,0,0,
0,0,0,0,0,0,0,0,0,0,0,0,0,0,0,0
</chunk>
   <chunk x="128" y="0" width="16" height="16">
0,0,0,0,0,0,0,0,0,0,0,0,0,0,0,0,
0,0,0,0,0,0,0,0,0,0,0,0,0,0,0,0,
0,0,0,0,0,0,0,0,0,0,0,0,0,0,0,0,
0,0,0,0,0,0,0,0,0,0,0,0,0,0,0,0,
0,0,0,0,0,0,0,0,0,0,0,0,0,0,0,0,
0,0,0,0,0,0,0,0,0,0,0,0,0,0,0,0,
0,0,0,0,0,0,0,0,0,0,0,0,0,0,0,0,
0,0,0,0,0,0,0,0,0,0,0,0,0,0,0,0,
224,0,0,0,0,0,0,0,0,0,0,0,0,0,0,0,
0,0,0,0,0,0,0,0,0,0,0,0,0,0,0,0,
0,0,0,0,0,0,0,0,0,0,0,0,0,0,0,0,
0,0,0,0,0,0,0,0,0,0,0,0,0,0,0,0,
0,0,0,0,0,0,0,0,0,0,0,0,0,0,0,0,
0,0,0,0,0,0,0,0,0,0,0,0,0,0,0,0,
0,0,0,0,0,0,0,0,0,0,0,0,0,0,0,0,
0,0,0,0,0,0,0,0,0,0,0,0,0,0,0,0
</chunk>
   <chunk x="144" y="0" width="16" height="16">
0,0,0,0,0,0,0,0,0,0,0,0,0,0,0,0,
0,0,0,0,0,0,0,0,0,0,0,0,0,0,0,0,
0,0,0,0,0,0,0,0,0,0,0,0,0,0,0,0,
0,0,0,0,0,0,0,0,0,0,0,0,0,0,0,0,
0,0,0,0,0,0,223,0,0,0,0,0,0,0,0,0,
0,0,0,0,0,0,0,0,223,0,224,0,0,224,223,0,
0,0,0,0,0,0,0,0,0,0,0,0,0,0,0,0,
0,0,0,0,0,0,0,0,0,0,0,0,0,0,0,0,
0,0,0,0,0,0,0,0,0,0,0,0,0,0,0,0,
0,0,0,0,0,0,0,0,0,0,0,0,0,0,0,0,
0,0,0,0,0,0,0,0,0,223,222,222,222,224,0,222,
0,0,0,0,0,0,0,0,0,0,0,0,0,0,0,0,
0,0,0,0,0,0,0,0,0,0,0,0,0,0,0,0,
0,0,0,0,0,0,0,0,0,0,0,0,0,0,0,0,
0,0,0,0,0,0,0,0,0,0,0,0,0,0,0,0,
0,0,0,0,0,0,0,0,0,0,0,0,0,0,0,0
</chunk>
   <chunk x="160" y="0" width="16" height="16">
0,0,0,0,0,0,0,0,0,0,0,0,0,0,0,0,
0,0,0,0,0,0,0,0,0,0,0,0,0,0,0,0,
0,0,0,0,0,0,0,0,0,0,0,0,0,0,0,0,
0,0,0,0,0,0,0,0,0,0,0,0,0,0,0,0,
0,0,0,0,0,0,0,0,0,0,0,0,0,0,0,0,
0,0,0,0,0,0,0,0,0,0,0,0,0,0,0,0,
0,0,0,0,0,0,0,0,0,0,0,0,0,0,0,0,
0,0,0,0,0,223,0,0,0,0,0,0,0,0,0,0,
0,0,0,0,0,0,0,0,0,0,0,0,0,0,0,0,
0,0,0,0,0,0,0,0,0,0,0,0,0,0,0,0,
222,0,224,0,223,0,223,0,0,0,0,0,0,0,0,0,
0,0,0,0,0,0,0,0,0,0,0,0,0,0,0,0,
0,0,0,0,0,0,0,0,0,0,0,0,0,0,0,0,
0,0,0,0,0,0,0,0,0,0,0,0,0,0,0,0,
0,0,0,0,0,0,0,0,0,0,0,0,0,0,0,0,
0,0,0,0,0,0,0,0,0,0,0,0,0,0,0,0
</chunk>
   <chunk x="176" y="0" width="16" height="16">
0,0,0,0,0,0,0,0,0,0,0,0,0,0,0,0,
0,0,0,0,0,0,0,0,0,0,0,0,0,0,0,0,
0,0,0,0,0,0,0,0,0,0,0,0,0,0,0,0,
0,0,0,0,0,0,0,0,0,0,0,0,0,0,0,0,
0,0,0,0,0,0,0,0,0,0,0,0,0,0,0,0,
0,0,0,0,0,0,0,0,0,0,0,0,0,0,0,0,
0,0,0,0,0,0,0,0,0,0,0,0,0,0,0,0,
0,0,0,0,223,0,0,0,0,0,0,0,0,0,0,0,
0,0,0,0,0,0,0,0,0,0,0,0,0,0,0,0,
0,0,0,0,0,0,0,0,0,0,0,0,0,0,0,0,
0,0,0,223,0,0,0,0,0,0,0,0,0,0,0,0,
0,0,0,0,0,0,0,0,0,0,0,0,0,0,0,0,
0,0,0,0,0,0,0,0,0,0,0,0,0,0,0,0,
0,0,0,0,0,0,0,0,0,0,0,0,0,0,0,0,
0,0,0,0,0,0,0,0,0,0,0,0,0,0,0,0,
0,0,0,0,0,0,0,0,0,0,0,0,0,0,0,0
</chunk>
  </data>
 </layer>
</map>
